(** This GCode was generated by ReplicatorG 0033-beta **)
(*  using Skeinforge (35)  *)
(*  for a Dual headed The Replicator  *)
(*  on 2012/02/24 17:49:49 (-0500) *)
(**** start.gcode for The Replicator, dual head ****)
M73 P0 (enable build progress)
G21 (set units to mm)
G90 (set positioning to absolute)
G10 P1 X16.55 Y0 Z-0.3 (Designate T0 Offset)
G10 P2 X-16.5 Y0 Z-0.3 (Designate T1 Offset)
G54 (Recall offset cooridinate system)
(**** begin homing ****)
G162 X Y F2500 (home XY axes maximum)
G161 Z F1100 (home Z axis minimum)
G92 Z-5 (set Z to -5)
G1 Z0.0 (move Z to "0")
G161 Z F100 (home Z axis minimum)
M132 X Y Z A B (Recall stored home offsets for XYZAB axis)
(**** end homing ****)
G1 X112 Y-73 Z1 F3300.0 (move to waiting position)
G130 X0 Y0 A0 B0 (Set Stepper motor Vref to lower value while heating)
M109 S100 T0 (set HBP temperature)
M6 T0 (wait for toolhead parts, nozzle, HBP, etc., to reach temperature)
M104 S220 T0 (set extruder temperature)
M6 T0 (wait for toolhead parts, nozzle, HBP, etc., to reach temperature)
G130 X127 Y127 A127 B127 (Set Stepper motor Vref to defaults)
M6 T0
M108 R3.0 T0
G0 X112 Y-73 (Position Nozzle)
G0 Z0.2     (Position Height)
M108 R4.0   (Set Extruder Speed)
M101        (Start Extruder)
G4 P1500    (Create Anchor)
(**** end of start.gcode ****)
(<creation> skeinforge </creation>)
(<version> 10.11.05 </version>)
(<extruderInitialization>)
(<craftTypeName> extrusion </craftTypeName>)
M105
(<bridgeWidthMultiplier> 1.0 </bridgeWidthMultiplier>)
(<decimalPlacesCarried> 3 </decimalPlacesCarried>)
(<layerThickness> 0.3 </layerThickness>)
(<threadSequenceString> loops perimeter infill </threadSequenceString>)
(<operatingFeedRatePerSecond> 40.0 </operatingFeedRatePerSecond>)
(<operatingFlowRate> 4.10330672782 </operatingFlowRate>)
(<orbitalFeedRatePerSecond> 20.0 </orbitalFeedRatePerSecond>)
(<travelFeedRatePerSecond> 55.0 </travelFeedRatePerSecond>)
(<perimeterWidth> 0.419 </perimeterWidth>)
(<profileName> ABS </profileName>)
(<procedureDone> carve </procedureDone>)
(<procedureDone> preface </procedureDone>)
(<procedureDone> inset </procedureDone>)
(<procedureDone> fill </procedureDone>)
(<procedureDone> speed </procedureDone>)
(<procedureDone> raft </procedureDone>)
(<procedureDone> jitter </procedureDone>)
(<procedureDone> comb </procedureDone>)
(<procedureDone> cool </procedureDone>)
(<procedureDone> reversal </procedureDone>)
(<procedureDone> export </procedureDone>)
(</extruderInitialization>)
(<extrusion>)
;M113 S1.0
M108 R4.103
M73 P1 (display progress)
(<layer> 0.528 )
M108 R2.462
G1 X-15.36 Y-11.4 Z0.53 F371.901
M101
G1 X-15.36 Y11.4 Z0.53 F371.901
G1 X-12.29 Y11.4 Z0.53 F371.901
G1 X-12.29 Y-11.4 Z0.53 F371.901
G1 X-9.22 Y-11.4 Z0.53 F371.901
G1 X-9.22 Y11.4 Z0.53 F371.901
G1 X-6.14 Y11.4 Z0.53 F371.901
G1 X-6.14 Y-11.4 Z0.53 F371.901
G1 X-3.07 Y-11.4 Z0.53 F371.901
G1 X-3.07 Y11.4 Z0.53 F371.901
G1 X0.0 Y11.4 Z0.53 F371.901
G1 X0.0 Y-11.4 Z0.53 F371.901
G1 X3.07 Y-11.4 Z0.53 F371.901
G1 X3.07 Y11.4 Z0.53 F371.901
G1 X6.14 Y11.4 Z0.53 F371.901
G1 X6.14 Y-11.4 Z0.53 F371.901
G1 X9.22 Y-11.4 Z0.53 F371.901
G1 X9.22 Y11.4 Z0.53 F371.901
G1 X12.29 Y11.4 Z0.53 F371.901
G1 X12.29 Y-11.4 Z0.53 F371.901
G1 X15.36 Y-11.4 Z0.53 F371.901
G1 X15.36 Y11.23 Z0.53 F371.901
M108 R40.0
M102
G1 X15.36 Y11.4 Z0.53 F371.901
M108 R2.462
M103
M108 R4.103
(</layer>)
M73 P2 (display progress)
(<layer> 1.092 )
M108 R2.872
G1 X-14.94 Y0.19 Z1.08 F1111.111
M108 R40.0
M101
G1 X-15.44 Y0.0 Z1.09 F1111.111
M108 R2.872
G1 X15.44 Y0.0 Z1.09 F1111.111
G1 X15.44 Y-1.89 Z1.09 F1111.111
G1 X-15.44 Y-1.89 Z1.09 F1111.111
G1 X-15.44 Y-3.77 Z1.09 F1111.111
G1 X15.44 Y-3.77 Z1.09 F1111.111
G1 X15.44 Y-5.66 Z1.09 F1111.111
G1 X-15.44 Y-5.66 Z1.09 F1111.111
G1 X-15.44 Y-7.54 Z1.09 F1111.111
G1 X15.44 Y-7.54 Z1.09 F1111.111
G1 X15.44 Y-9.43 Z1.09 F1111.111
G1 X-15.44 Y-9.43 Z1.09 F1111.111
G1 X-15.44 Y-11.31 Z1.09 F1111.111
G1 X14.92 Y-11.31 Z1.09 F1111.111
M108 R40.0
M102
G1 X15.44 Y-11.31 Z1.09 F1111.111
M108 R2.872
M103
G1 X15.44 Y1.35 Z1.09 F1111.111
M108 R40.0
M101
G1 X15.44 Y1.89 Z1.09 F1111.111
M108 R2.872
G1 X-15.44 Y1.89 Z1.09 F1111.111
G1 X-15.44 Y3.77 Z1.09 F1111.111
G1 X15.44 Y3.77 Z1.09 F1111.111
G1 X15.44 Y5.66 Z1.09 F1111.111
G1 X-15.44 Y5.66 Z1.09 F1111.111
G1 X-15.44 Y7.54 Z1.09 F1111.111
G1 X15.44 Y7.54 Z1.09 F1111.111
G1 X15.44 Y9.43 Z1.09 F1111.111
G1 X-15.44 Y9.43 Z1.09 F1111.111
G1 X-15.44 Y11.31 Z1.09 F1111.111
G1 X14.92 Y11.31 Z1.09 F1111.111
M108 R40.0
M102
G1 X15.44 Y11.31 Z1.09 F1111.111
M108 R2.872
M103
M108 R4.103
(</layer>)
M73 P4 (display progress)
(<layer> 1.632 )
M108 R2.872
G1 X-14.94 Y0.18 Z1.62 F1111.111
M108 R40.0
M101
G1 X-15.44 Y0.0 Z1.63 F1111.111
M108 R2.872
G1 X15.44 Y0.0 Z1.63 F1111.111
G1 X15.44 Y-1.89 Z1.63 F1111.111
G1 X-15.44 Y-1.89 Z1.63 F1111.111
G1 X-15.44 Y-3.77 Z1.63 F1111.111
G1 X15.44 Y-3.77 Z1.63 F1111.111
G1 X15.44 Y-5.66 Z1.63 F1111.111
G1 X-15.44 Y-5.66 Z1.63 F1111.111
G1 X-15.44 Y-7.54 Z1.63 F1111.111
G1 X15.44 Y-7.54 Z1.63 F1111.111
G1 X15.44 Y-9.43 Z1.63 F1111.111
G1 X-15.44 Y-9.43 Z1.63 F1111.111
G1 X-15.44 Y-11.31 Z1.63 F1111.111
G1 X14.92 Y-11.31 Z1.63 F1111.111
M108 R40.0
M102
G1 X15.44 Y-11.31 Z1.63 F1111.111
M108 R2.872
M103
G1 X15.44 Y1.35 Z1.63 F1111.111
M108 R40.0
M101
G1 X15.44 Y1.89 Z1.63 F1111.111
M108 R2.872
G1 X-15.44 Y1.89 Z1.63 F1111.111
G1 X-15.44 Y3.77 Z1.63 F1111.111
G1 X15.44 Y3.77 Z1.63 F1111.111
G1 X15.44 Y5.66 Z1.63 F1111.111
G1 X-15.44 Y5.66 Z1.63 F1111.111
G1 X-15.44 Y7.54 Z1.63 F1111.111
G1 X15.44 Y7.54 Z1.63 F1111.111
G1 X15.44 Y9.43 Z1.63 F1111.111
G1 X-15.44 Y9.43 Z1.63 F1111.111
G1 X-15.44 Y11.31 Z1.63 F1111.111
G1 X14.92 Y11.31 Z1.63 F1111.111
M108 R40.0
M102
G1 X15.44 Y11.31 Z1.63 F1111.111
M108 R2.872
M103
M108 R4.103
(</layer>)
(<raftLayerEnd> </raftLayerEnd>)
M73 P5 (display progress)
(<layer> 1.89 )
(<surroundingLoop>)
(<boundaryPerimeter>)
(<boundaryPoint> X-10.0 Y-10.0 Z1.89 </boundaryPoint>)
(<boundaryPoint> X10.0 Y-10.0 Z1.89 </boundaryPoint>)
(<boundaryPoint> X10.0 Y10.0 Z1.89 </boundaryPoint>)
(<boundaryPoint> X-10.0 Y10.0 Z1.89 </boundaryPoint>)
(<loop> outer )
M108 R3.693
G1 X10.89 Y9.84 Z1.83 F3300.0
M108 R40.0
M101
G1 X9.37 Y9.35 Z1.89 F3300.0
M108 R3.693
G1 X9.37 Y9.37 Z1.89 F2160.0
G1 X-9.37 Y9.37 Z1.89 F2160.0
G1 X-9.37 Y-9.37 Z1.89 F2160.0
G1 X0.0 Y-9.37 Z1.89 F2160.0
G1 X9.37 Y-9.37 Z1.89 F2160.0
G1 X9.37 Y9.35 Z1.89 F2160.0
M103
(</loop>)
(<perimeter> outer )
M108 R2.052
M108 R1.847
G1 X9.79 Y9.35 Z1.89 F3300.0
M101
G1 X9.79 Y9.79 Z1.89 F1080.0
G1 X-9.79 Y9.79 Z1.89 F1080.0
G1 X-9.79 Y-9.79 Z1.89 F1080.0
G1 X0.0 Y-9.79 Z1.89 F1080.0
G1 X9.79 Y-9.79 Z1.89 F1080.0
G1 X9.79 Y8.85 Z1.89 F1080.0
M108 R40.0
M102
G1 X9.79 Y9.35 Z1.89 F1080.0
M108 R1.847
M103
(</perimeter>)
(</boundaryPerimeter>)
M108 R4.103
M108 R3.693
G1 X8.87 Y-7.65 Z1.89 F2970.0
M108 R40.0
M101
G1 X8.8 Y-9.09 Z1.89 F2970.0
M108 R3.693
G1 X8.8 Y9.09 Z1.89 F2160.0
G1 X8.38 Y9.09 Z1.89 F2160.0
G1 X8.38 Y-9.09 Z1.89 F2160.0
G1 X7.96 Y-9.09 Z1.89 F2160.0
G1 X7.96 Y9.09 Z1.89 F2160.0
G1 X7.54 Y9.09 Z1.89 F2160.0
G1 X7.54 Y-9.09 Z1.89 F2160.0
G1 X7.12 Y-9.09 Z1.89 F2160.0
G1 X7.12 Y9.09 Z1.89 F2160.0
G1 X6.7 Y9.09 Z1.89 F2160.0
G1 X6.7 Y-9.09 Z1.89 F2160.0
G1 X6.28 Y-9.09 Z1.89 F2160.0
G1 X6.28 Y9.09 Z1.89 F2160.0
G1 X5.86 Y9.09 Z1.89 F2160.0
G1 X5.86 Y-9.09 Z1.89 F2160.0
G1 X5.45 Y-9.09 Z1.89 F2160.0
G1 X5.45 Y9.09 Z1.89 F2160.0
G1 X5.03 Y9.09 Z1.89 F2160.0
G1 X5.03 Y-9.09 Z1.89 F2160.0
G1 X4.61 Y-9.09 Z1.89 F2160.0
G1 X4.61 Y9.09 Z1.89 F2160.0
G1 X4.19 Y9.09 Z1.89 F2160.0
G1 X4.19 Y-9.09 Z1.89 F2160.0
G1 X3.77 Y-9.09 Z1.89 F2160.0
G1 X3.77 Y9.09 Z1.89 F2160.0
G1 X3.35 Y9.09 Z1.89 F2160.0
G1 X3.35 Y-9.09 Z1.89 F2160.0
G1 X2.93 Y-9.09 Z1.89 F2160.0
G1 X2.93 Y9.09 Z1.89 F2160.0
G1 X2.51 Y9.09 Z1.89 F2160.0
G1 X2.51 Y-9.09 Z1.89 F2160.0
G1 X2.09 Y-9.09 Z1.89 F2160.0
G1 X2.09 Y9.09 Z1.89 F2160.0
G1 X1.68 Y9.09 Z1.89 F2160.0
G1 X1.68 Y-9.09 Z1.89 F2160.0
G1 X1.26 Y-9.09 Z1.89 F2160.0
G1 X1.26 Y9.09 Z1.89 F2160.0
G1 X0.84 Y9.09 Z1.89 F2160.0
G1 X0.84 Y-9.09 Z1.89 F2160.0
G1 X0.42 Y-9.09 Z1.89 F2160.0
G1 X0.42 Y9.09 Z1.89 F2160.0
G1 X0.0 Y9.09 Z1.89 F2160.0
G1 X-0.0 Y-9.09 Z1.89 F2160.0
G1 X-0.42 Y-9.09 Z1.89 F2160.0
G1 X-0.42 Y9.09 Z1.89 F2160.0
G1 X-0.84 Y9.09 Z1.89 F2160.0
G1 X-0.84 Y-9.09 Z1.89 F2160.0
G1 X-1.26 Y-9.09 Z1.89 F2160.0
G1 X-1.26 Y9.09 Z1.89 F2160.0
G1 X-1.68 Y9.09 Z1.89 F2160.0
G1 X-1.68 Y-9.09 Z1.89 F2160.0
G1 X-2.09 Y-9.09 Z1.89 F2160.0
G1 X-2.09 Y9.09 Z1.89 F2160.0
G1 X-2.51 Y9.09 Z1.89 F2160.0
G1 X-2.51 Y-9.09 Z1.89 F2160.0
G1 X-2.93 Y-9.09 Z1.89 F2160.0
G1 X-2.93 Y9.09 Z1.89 F2160.0
G1 X-3.35 Y9.09 Z1.89 F2160.0
G1 X-3.35 Y-9.09 Z1.89 F2160.0
G1 X-3.77 Y-9.09 Z1.89 F2160.0
G1 X-3.77 Y9.09 Z1.89 F2160.0
G1 X-4.19 Y9.09 Z1.89 F2160.0
G1 X-4.19 Y-9.09 Z1.89 F2160.0
G1 X-4.61 Y-9.09 Z1.89 F2160.0
G1 X-4.61 Y9.09 Z1.89 F2160.0
G1 X-5.03 Y9.09 Z1.89 F2160.0
G1 X-5.03 Y-9.09 Z1.89 F2160.0
G1 X-5.45 Y-9.09 Z1.89 F2160.0
G1 X-5.45 Y9.09 Z1.89 F2160.0
G1 X-5.86 Y9.09 Z1.89 F2160.0
G1 X-5.86 Y-9.09 Z1.89 F2160.0
G1 X-6.28 Y-9.09 Z1.89 F2160.0
G1 X-6.28 Y9.09 Z1.89 F2160.0
G1 X-6.7 Y9.09 Z1.89 F2160.0
G1 X-6.7 Y-9.09 Z1.89 F2160.0
G1 X-7.12 Y-9.09 Z1.89 F2160.0
G1 X-7.12 Y9.09 Z1.89 F2160.0
G1 X-7.54 Y9.09 Z1.89 F2160.0
G1 X-7.54 Y-9.09 Z1.89 F2160.0
G1 X-7.96 Y-9.09 Z1.89 F2160.0
G1 X-7.96 Y9.09 Z1.89 F2160.0
G1 X-8.38 Y9.09 Z1.89 F2160.0
G1 X-8.38 Y-9.09 Z1.89 F2160.0
G1 X-8.8 Y-9.09 Z1.89 F2160.0
G1 X-8.8 Y9.09 Z1.89 F2160.0
M103
(</surroundingLoop>)
(</layer>)
M73 P9 (display progress)
(<layer> 2.19 )
(<surroundingLoop>)
(<boundaryPerimeter>)
(<boundaryPoint> X-10.0 Y-10.0 Z2.19 </boundaryPoint>)
(<boundaryPoint> X10.0 Y-10.0 Z2.19 </boundaryPoint>)
(<boundaryPoint> X10.0 Y10.0 Z2.19 </boundaryPoint>)
(<boundaryPoint> X-10.0 Y10.0 Z2.19 </boundaryPoint>)
(<loop> outer )
M108 R4.103
G1 X-8.45 Y9.37 Z2.19 F3300.0
M101
G1 X-8.8 Y9.37 Z2.19 F2400.0
G1 X-9.37 Y9.37 Z2.19 F2400.0
G1 X-9.37 Y-9.37 Z2.19 F2400.0
G1 X9.37 Y-9.37 Z2.19 F2400.0
G1 X9.37 Y9.37 Z2.19 F2400.0
G1 X-8.45 Y9.37 Z2.19 F2400.0
M103
(</loop>)
(<perimeter> outer )
M108 R2.052
G1 X-8.45 Y9.79 Z2.19 F3300.0
M101
G1 X-8.8 Y9.79 Z2.19 F1200.0
G1 X-9.79 Y9.79 Z2.19 F1200.0
G1 X-9.79 Y-9.79 Z2.19 F1200.0
G1 X9.79 Y-9.79 Z2.19 F1200.0
G1 X9.79 Y9.79 Z2.19 F1200.0
G1 X-7.89 Y9.79 Z2.19 F1200.0
M108 R40.0
M102
G1 X-8.45 Y9.79 Z2.19 F1200.0
M108 R2.052
M103
(</perimeter>)
(</boundaryPerimeter>)
M108 R4.103
G1 X7.5 Y8.89 Z2.19 F3300.0
M108 R40.0
M101
G1 X9.09 Y8.8 Z2.19 F3300.0
M108 R4.103
G1 X-9.09 Y8.8 Z2.19 F2400.0
G1 X-9.09 Y8.38 Z2.19 F2400.0
G1 X9.09 Y8.38 Z2.19 F2400.0
G1 X9.09 Y7.96 Z2.19 F2400.0
G1 X-9.09 Y7.96 Z2.19 F2400.0
G1 X-9.09 Y7.54 Z2.19 F2400.0
G1 X9.09 Y7.54 Z2.19 F2400.0
G1 X9.09 Y7.12 Z2.19 F2400.0
G1 X-9.09 Y7.12 Z2.19 F2400.0
G1 X-9.09 Y6.7 Z2.19 F2400.0
G1 X9.09 Y6.7 Z2.19 F2400.0
G1 X9.09 Y6.28 Z2.19 F2400.0
G1 X-9.09 Y6.28 Z2.19 F2400.0
G1 X-9.09 Y5.86 Z2.19 F2400.0
G1 X9.09 Y5.86 Z2.19 F2400.0
G1 X9.09 Y5.45 Z2.19 F2400.0
G1 X-9.09 Y5.45 Z2.19 F2400.0
G1 X-9.09 Y5.03 Z2.19 F2400.0
G1 X9.09 Y5.03 Z2.19 F2400.0
G1 X9.09 Y4.61 Z2.19 F2400.0
G1 X-9.09 Y4.61 Z2.19 F2400.0
G1 X-9.09 Y4.19 Z2.19 F2400.0
G1 X9.09 Y4.19 Z2.19 F2400.0
G1 X9.09 Y3.77 Z2.19 F2400.0
G1 X-9.09 Y3.77 Z2.19 F2400.0
G1 X-9.09 Y3.35 Z2.19 F2400.0
G1 X9.09 Y3.35 Z2.19 F2400.0
G1 X9.09 Y2.93 Z2.19 F2400.0
G1 X-9.09 Y2.93 Z2.19 F2400.0
G1 X-9.09 Y2.51 Z2.19 F2400.0
G1 X9.09 Y2.51 Z2.19 F2400.0
G1 X9.09 Y2.09 Z2.19 F2400.0
G1 X-9.09 Y2.09 Z2.19 F2400.0
G1 X-9.09 Y1.68 Z2.19 F2400.0
G1 X9.09 Y1.68 Z2.19 F2400.0
G1 X9.09 Y1.26 Z2.19 F2400.0
G1 X-9.09 Y1.26 Z2.19 F2400.0
G1 X-9.09 Y0.84 Z2.19 F2400.0
G1 X9.09 Y0.84 Z2.19 F2400.0
G1 X9.09 Y0.42 Z2.19 F2400.0
G1 X-9.09 Y0.42 Z2.19 F2400.0
G1 X-9.09 Y0.0 Z2.19 F2400.0
G1 X9.09 Y-0.0 Z2.19 F2400.0
G1 X9.09 Y-0.42 Z2.19 F2400.0
G1 X-9.09 Y-0.42 Z2.19 F2400.0
G1 X-9.09 Y-0.84 Z2.19 F2400.0
G1 X9.09 Y-0.84 Z2.19 F2400.0
G1 X9.09 Y-1.26 Z2.19 F2400.0
G1 X-9.09 Y-1.26 Z2.19 F2400.0
G1 X-9.09 Y-1.68 Z2.19 F2400.0
G1 X9.09 Y-1.68 Z2.19 F2400.0
G1 X9.09 Y-2.09 Z2.19 F2400.0
G1 X-9.09 Y-2.09 Z2.19 F2400.0
G1 X-9.09 Y-2.51 Z2.19 F2400.0
G1 X9.09 Y-2.51 Z2.19 F2400.0
G1 X9.09 Y-2.93 Z2.19 F2400.0
G1 X-9.09 Y-2.93 Z2.19 F2400.0
G1 X-9.09 Y-3.35 Z2.19 F2400.0
G1 X9.09 Y-3.35 Z2.19 F2400.0
G1 X9.09 Y-3.77 Z2.19 F2400.0
G1 X-9.09 Y-3.77 Z2.19 F2400.0
G1 X-9.09 Y-4.19 Z2.19 F2400.0
G1 X9.09 Y-4.19 Z2.19 F2400.0
G1 X9.09 Y-4.61 Z2.19 F2400.0
G1 X-9.09 Y-4.61 Z2.19 F2400.0
G1 X-9.09 Y-5.03 Z2.19 F2400.0
G1 X9.09 Y-5.03 Z2.19 F2400.0
G1 X9.09 Y-5.45 Z2.19 F2400.0
G1 X-9.09 Y-5.45 Z2.19 F2400.0
G1 X-9.09 Y-5.86 Z2.19 F2400.0
G1 X9.09 Y-5.86 Z2.19 F2400.0
G1 X9.09 Y-6.28 Z2.19 F2400.0
G1 X-9.09 Y-6.28 Z2.19 F2400.0
G1 X-9.09 Y-6.7 Z2.19 F2400.0
G1 X9.09 Y-6.7 Z2.19 F2400.0
G1 X9.09 Y-7.12 Z2.19 F2400.0
G1 X-9.09 Y-7.12 Z2.19 F2400.0
G1 X-9.09 Y-7.54 Z2.19 F2400.0
G1 X9.09 Y-7.54 Z2.19 F2400.0
G1 X9.09 Y-7.96 Z2.19 F2400.0
G1 X-9.09 Y-7.96 Z2.19 F2400.0
G1 X-9.09 Y-8.38 Z2.19 F2400.0
G1 X9.09 Y-8.38 Z2.19 F2400.0
G1 X9.09 Y-8.8 Z2.19 F2400.0
G1 X-9.09 Y-8.8 Z2.19 F2400.0
M103
(</surroundingLoop>)
(</layer>)
(<operatingLayerEnd> </operatingLayerEnd>)
M73 P13 (display progress)
(<layer> 2.49 )
(<surroundingLoop>)
(<boundaryPerimeter>)
(<boundaryPoint> X-10.0 Y-10.0 Z2.49 </boundaryPoint>)
(<boundaryPoint> X10.0 Y-10.0 Z2.49 </boundaryPoint>)
(<boundaryPoint> X10.0 Y10.0 Z2.49 </boundaryPoint>)
(<boundaryPoint> X-10.0 Y10.0 Z2.49 </boundaryPoint>)
(<loop> outer )
G1 X-9.37 Y-8.97 Z2.49 F3300.0
M101
G1 X-9.37 Y-9.37 Z2.49 F2400.0
G1 X9.37 Y-9.37 Z2.49 F2400.0
G1 X9.37 Y9.37 Z2.49 F2400.0
G1 X-9.37 Y9.37 Z2.49 F2400.0
G1 X-9.37 Y-8.8 Z2.49 F2400.0
G1 X-9.37 Y-8.97 Z2.49 F2400.0
M103
(</loop>)
(<perimeter> outer )
M108 R2.052
G1 X-9.79 Y-8.8 Z2.49 F3300.0
M101
G1 X-9.79 Y-9.79 Z2.49 F1200.0
G1 X9.79 Y-9.79 Z2.49 F1200.0
G1 X9.79 Y9.79 Z2.49 F1200.0
G1 X-9.79 Y9.79 Z2.49 F1200.0
G1 X-9.79 Y-8.24 Z2.49 F1200.0
M108 R40.0
M102
G1 X-9.79 Y-8.8 Z2.49 F1200.0
M108 R2.052
M103
(</perimeter>)
(</boundaryPerimeter>)
M108 R4.103
G1 X7.2 Y-9.06 Z2.49 F3300.0
M108 R40.0
M101
G1 X8.8 Y-9.09 Z2.49 F3300.0
M108 R4.103
G1 X8.8 Y9.09 Z2.49 F2400.0
G1 X8.38 Y9.09 Z2.49 F2400.0
G1 X8.38 Y-9.09 Z2.49 F2400.0
G1 X7.96 Y-9.09 Z2.49 F2400.0
G1 X7.96 Y9.09 Z2.49 F2400.0
G1 X7.54 Y9.09 Z2.49 F2400.0
G1 X7.54 Y-9.09 Z2.49 F2400.0
G1 X7.12 Y-9.09 Z2.49 F2400.0
G1 X7.12 Y9.09 Z2.49 F2400.0
G1 X6.7 Y9.09 Z2.49 F2400.0
G1 X6.7 Y-9.09 Z2.49 F2400.0
G1 X6.28 Y-9.09 Z2.49 F2400.0
G1 X6.28 Y9.09 Z2.49 F2400.0
G1 X5.86 Y9.09 Z2.49 F2400.0
G1 X5.86 Y-9.09 Z2.49 F2400.0
G1 X5.45 Y-9.09 Z2.49 F2400.0
G1 X5.45 Y9.09 Z2.49 F2400.0
G1 X5.03 Y9.09 Z2.49 F2400.0
G1 X5.03 Y-9.09 Z2.49 F2400.0
G1 X4.61 Y-9.09 Z2.49 F2400.0
G1 X4.61 Y9.09 Z2.49 F2400.0
G1 X4.19 Y9.09 Z2.49 F2400.0
G1 X4.19 Y-9.09 Z2.49 F2400.0
G1 X3.77 Y-9.09 Z2.49 F2400.0
G1 X3.77 Y9.09 Z2.49 F2400.0
G1 X3.35 Y9.09 Z2.49 F2400.0
G1 X3.35 Y-9.09 Z2.49 F2400.0
G1 X2.93 Y-9.09 Z2.49 F2400.0
G1 X2.93 Y9.09 Z2.49 F2400.0
G1 X2.51 Y9.09 Z2.49 F2400.0
G1 X2.51 Y-9.09 Z2.49 F2400.0
G1 X2.09 Y-9.09 Z2.49 F2400.0
G1 X2.09 Y9.09 Z2.49 F2400.0
G1 X1.68 Y9.09 Z2.49 F2400.0
G1 X1.68 Y-9.09 Z2.49 F2400.0
G1 X1.26 Y-9.09 Z2.49 F2400.0
G1 X1.26 Y9.09 Z2.49 F2400.0
G1 X0.84 Y9.09 Z2.49 F2400.0
G1 X0.84 Y-9.09 Z2.49 F2400.0
G1 X0.42 Y-9.09 Z2.49 F2400.0
G1 X0.42 Y9.09 Z2.49 F2400.0
G1 X0.0 Y9.09 Z2.49 F2400.0
G1 X-0.0 Y-9.09 Z2.49 F2400.0
G1 X-0.42 Y-9.09 Z2.49 F2400.0
G1 X-0.42 Y9.09 Z2.49 F2400.0
G1 X-0.84 Y9.09 Z2.49 F2400.0
G1 X-0.84 Y-9.09 Z2.49 F2400.0
G1 X-1.26 Y-9.09 Z2.49 F2400.0
G1 X-1.26 Y9.09 Z2.49 F2400.0
G1 X-1.68 Y9.09 Z2.49 F2400.0
G1 X-1.68 Y-9.09 Z2.49 F2400.0
G1 X-2.09 Y-9.09 Z2.49 F2400.0
G1 X-2.09 Y9.09 Z2.49 F2400.0
G1 X-2.51 Y9.09 Z2.49 F2400.0
G1 X-2.51 Y-9.09 Z2.49 F2400.0
G1 X-2.93 Y-9.09 Z2.49 F2400.0
G1 X-2.93 Y9.09 Z2.49 F2400.0
G1 X-3.35 Y9.09 Z2.49 F2400.0
G1 X-3.35 Y-9.09 Z2.49 F2400.0
G1 X-3.77 Y-9.09 Z2.49 F2400.0
G1 X-3.77 Y9.09 Z2.49 F2400.0
G1 X-4.19 Y9.09 Z2.49 F2400.0
G1 X-4.19 Y-9.09 Z2.49 F2400.0
G1 X-4.61 Y-9.09 Z2.49 F2400.0
G1 X-4.61 Y9.09 Z2.49 F2400.0
G1 X-5.03 Y9.09 Z2.49 F2400.0
G1 X-5.03 Y-9.09 Z2.49 F2400.0
G1 X-5.45 Y-9.09 Z2.49 F2400.0
G1 X-5.45 Y9.09 Z2.49 F2400.0
G1 X-5.86 Y9.09 Z2.49 F2400.0
G1 X-5.86 Y-9.09 Z2.49 F2400.0
G1 X-6.28 Y-9.09 Z2.49 F2400.0
G1 X-6.28 Y9.09 Z2.49 F2400.0
G1 X-6.7 Y9.09 Z2.49 F2400.0
G1 X-6.7 Y-9.09 Z2.49 F2400.0
G1 X-7.12 Y-9.09 Z2.49 F2400.0
G1 X-7.12 Y9.09 Z2.49 F2400.0
G1 X-7.54 Y9.09 Z2.49 F2400.0
G1 X-7.54 Y-9.09 Z2.49 F2400.0
G1 X-7.96 Y-9.09 Z2.49 F2400.0
G1 X-7.96 Y9.09 Z2.49 F2400.0
G1 X-8.38 Y9.09 Z2.49 F2400.0
G1 X-8.38 Y-9.09 Z2.49 F2400.0
G1 X-8.8 Y-9.09 Z2.49 F2400.0
G1 X-8.8 Y9.09 Z2.49 F2400.0
M103
(</surroundingLoop>)
(</layer>)
M73 P17 (display progress)
(<layer> 2.79 )
(<surroundingLoop>)
(<boundaryPerimeter>)
(<boundaryPoint> X-10.0 Y-10.0 Z2.79 </boundaryPoint>)
(<boundaryPoint> X10.0 Y-10.0 Z2.79 </boundaryPoint>)
(<boundaryPoint> X10.0 Y10.0 Z2.79 </boundaryPoint>)
(<boundaryPoint> X-10.0 Y10.0 Z2.79 </boundaryPoint>)
(<loop> outer )
G1 X-8.65 Y9.37 Z2.79 F3300.0
M101
G1 X-8.8 Y9.37 Z2.79 F2400.0
G1 X-9.37 Y9.37 Z2.79 F2400.0
G1 X-9.37 Y-9.37 Z2.79 F2400.0
G1 X9.37 Y-9.37 Z2.79 F2400.0
G1 X9.37 Y9.37 Z2.79 F2400.0
G1 X-8.65 Y9.37 Z2.79 F2400.0
M103
(</loop>)
(<perimeter> outer )
M108 R2.052
G1 X-8.8 Y9.79 Z2.79 F3300.0
M101
G1 X-9.79 Y9.79 Z2.79 F1200.0
G1 X-9.79 Y-9.79 Z2.79 F1200.0
G1 X9.79 Y-9.79 Z2.79 F1200.0
G1 X9.79 Y9.79 Z2.79 F1200.0
G1 X-8.24 Y9.79 Z2.79 F1200.0
M108 R40.0
M102
G1 X-8.8 Y9.79 Z2.79 F1200.0
M108 R2.052
M103
(</perimeter>)
(</boundaryPerimeter>)
M108 R4.103
G1 X7.49 Y8.93 Z2.79 F3300.0
M108 R40.0
M101
G1 X9.09 Y8.84 Z2.79 F3300.0
M108 R4.103
G1 X9.09 Y8.38 Z2.79 F2400.0
G1 X2.47 Y4.65 Z2.79 F2400.0
G1 X2.19 Y4.65 Z2.79 F2400.0
G1 X-2.19 Y7.76 Z2.79 F2400.0
G1 X-2.47 Y7.76 Z2.79 F2400.0
G1 X-6.84 Y4.65 Z2.79 F2400.0
G1 X-7.12 Y4.65 Z2.79 F2400.0
G1 X-9.09 Y8.38 Z2.79 F2400.0
G1 X-9.09 Y8.84 Z2.79 F2400.0
M103
G1 X-9.09 Y7.91 Z2.79 F3300.0
M101
G1 X-9.09 Y-0.93 Z2.79 F2400.0
G1 X-7.12 Y-1.55 Z2.79 F2400.0
G1 X-6.84 Y-1.55 Z2.79 F2400.0
G1 X-2.47 Y-4.65 Z2.79 F2400.0
G1 X-2.19 Y-4.65 Z2.79 F2400.0
G1 X2.19 Y-1.55 Z2.79 F2400.0
G1 X9.09 Y-0.93 Z2.79 F2400.0
G1 X9.09 Y6.79 Z2.79 F2400.0
M108 R40.0
M102
G1 X9.09 Y7.91 Z2.79 F2400.0
M108 R4.103
M103
G1 X9.09 Y0.2 Z2.79 F3300.0
M108 R40.0
M101
G1 X9.09 Y-1.4 Z2.79 F3300.0
M108 R4.103
G1 X9.09 Y-8.84 Z2.79 F2400.0
G1 X-9.09 Y-8.84 Z2.79 F2400.0
G1 X-9.09 Y-1.4 Z2.79 F2400.0
M103
(</surroundingLoop>)
(</layer>)
M73 P19 (display progress)
(<layer> 3.09 )
(<surroundingLoop>)
(<boundaryPerimeter>)
(<boundaryPoint> X-10.0 Y-10.0 Z3.09 </boundaryPoint>)
(<boundaryPoint> X10.0 Y-10.0 Z3.09 </boundaryPoint>)
(<boundaryPoint> X10.0 Y10.0 Z3.09 </boundaryPoint>)
(<boundaryPoint> X-10.0 Y10.0 Z3.09 </boundaryPoint>)
(<loop> outer )
G1 X-9.37 Y-1.77 Z3.09 F3300.0
M101
G1 X-9.37 Y-9.37 Z3.09 F2400.0
G1 X9.37 Y-9.37 Z3.09 F2400.0
G1 X9.37 Y9.37 Z3.09 F2400.0
G1 X-9.37 Y9.37 Z3.09 F2400.0
G1 X-9.37 Y-1.4 Z3.09 F2400.0
G1 X-9.37 Y-1.77 Z3.09 F2400.0
M103
(</loop>)
(<perimeter> outer )
M108 R2.052
G1 X-9.79 Y-1.77 Z3.09 F3300.0
M101
G1 X-9.79 Y-9.79 Z3.09 F1200.0
G1 X9.79 Y-9.79 Z3.09 F1200.0
G1 X9.79 Y9.79 Z3.09 F1200.0
G1 X-9.79 Y9.79 Z3.09 F1200.0
G1 X-9.79 Y-1.21 Z3.09 F1200.0
M108 R40.0
M102
G1 X-9.79 Y-1.4 Z3.09 F1200.0
G1 X-9.79 Y-1.77 Z3.09 F1200.0
M108 R2.052
M103
(</perimeter>)
(</boundaryPerimeter>)
M108 R4.103
G1 X-9.05 Y-7.5 Z3.09 F3300.0
M108 R40.0
M101
G1 X-8.84 Y-9.09 Z3.09 F3300.0
M108 R4.103
G1 X-6.05 Y-9.09 Z3.09 F2400.0
G1 X-7.11 Y-1.55 Z3.09 F2400.0
G1 X-7.11 Y4.65 Z3.09 F2400.0
G1 X-6.05 Y9.09 Z3.09 F2400.0
G1 X-7.72 Y9.09 Z3.09 F2400.0
M108 R40.0
M102
G1 X-8.84 Y9.09 Z3.09 F2400.0
M108 R4.103
M103
G1 X-7.18 Y9.09 Z3.09 F3300.0
M108 R40.0
M101
G1 X-5.58 Y9.09 Z3.09 F3300.0
M108 R4.103
G1 X-1.4 Y9.09 Z3.09 F2400.0
G1 X-2.46 Y7.76 Z3.09 F2400.0
G1 X-6.85 Y4.65 Z3.09 F2400.0
G1 X-6.85 Y-1.55 Z3.09 F2400.0
G1 X-2.46 Y-4.65 Z3.09 F2400.0
G1 X-1.4 Y-9.09 Z3.09 F2400.0
G1 X-4.46 Y-9.09 Z3.09 F2400.0
M108 R40.0
M102
G1 X-5.58 Y-9.09 Z3.09 F2400.0
M108 R4.103
M103
G1 X1.66 Y-9.09 Z3.09 F3300.0
M108 R40.0
M101
G1 X3.26 Y-9.09 Z3.09 F3300.0
M108 R4.103
G1 X-0.93 Y-9.09 Z3.09 F2400.0
G1 X-2.2 Y-4.65 Z3.09 F2400.0
G1 X2.2 Y-1.55 Z3.09 F2400.0
G1 X2.2 Y4.65 Z3.09 F2400.0
G1 X-2.2 Y7.76 Z3.09 F2400.0
G1 X-0.93 Y9.09 Z3.09 F2400.0
G1 X2.14 Y9.09 Z3.09 F2400.0
M108 R40.0
M102
G1 X3.26 Y9.09 Z3.09 F2400.0
M108 R4.103
M103
G1 X7.95 Y-7.55 Z3.09 F3300.0
M108 R40.0
M101
G1 X8.38 Y-9.09 Z3.09 F3300.0
M108 R4.103
G1 X8.84 Y-9.09 Z3.09 F2400.0
G1 X8.84 Y9.09 Z3.09 F2400.0
G1 X3.72 Y9.09 Z3.09 F2400.0
G1 X2.46 Y4.65 Z3.09 F2400.0
G1 X2.46 Y-1.55 Z3.09 F2400.0
G1 X3.72 Y-9.09 Z3.09 F2400.0
G1 X7.91 Y-9.09 Z3.09 F2400.0
M103
(</surroundingLoop>)
(</layer>)
M73 P22 (display progress)
(<layer> 3.39 )
(<surroundingLoop>)
(<boundaryPerimeter>)
(<boundaryPoint> X-10.0 Y-10.0 Z3.39 </boundaryPoint>)
(<boundaryPoint> X10.0 Y-10.0 Z3.39 </boundaryPoint>)
(<boundaryPoint> X10.0 Y10.0 Z3.39 </boundaryPoint>)
(<boundaryPoint> X-10.0 Y10.0 Z3.39 </boundaryPoint>)
(<loop> outer )
G1 X7.96 Y-9.37 Z3.39 F3300.0
M101
G1 X9.37 Y-9.37 Z3.39 F2400.0
G1 X9.37 Y9.37 Z3.39 F2400.0
G1 X-9.37 Y9.37 Z3.39 F2400.0
G1 X-9.37 Y-9.37 Z3.39 F2400.0
G1 X7.91 Y-9.37 Z3.39 F2400.0
G1 X7.96 Y-9.37 Z3.39 F2400.0
M103
(</loop>)
(<perimeter> outer )
M108 R2.052
G1 X7.91 Y-9.79 Z3.39 F3300.0
M101
G1 X9.79 Y-9.79 Z3.39 F1200.0
G1 X9.79 Y9.79 Z3.39 F1200.0
G1 X-9.79 Y9.79 Z3.39 F1200.0
G1 X-9.79 Y-9.79 Z3.39 F1200.0
G1 X7.35 Y-9.79 Z3.39 F1200.0
M108 R40.0
M102
G1 X7.91 Y-9.79 Z3.39 F1200.0
M108 R2.052
M103
(</perimeter>)
(</boundaryPerimeter>)
M108 R4.103
G1 X8.87 Y-2.98 Z3.39 F3300.0
M108 R40.0
M101
G1 X9.09 Y-1.4 Z3.39 F3300.0
M108 R4.103
G1 X9.09 Y-8.84 Z3.39 F2400.0
G1 X-9.09 Y-8.84 Z3.39 F2400.0
G1 X-9.09 Y-2.52 Z3.39 F2400.0
M108 R40.0
M102
G1 X-9.09 Y-1.4 Z3.39 F2400.0
M108 R4.103
M103
G1 X-9.09 Y6.32 Z3.39 F3300.0
M108 R40.0
M101
G1 X-9.09 Y7.91 Z3.39 F3300.0
M108 R4.103
G1 X-9.09 Y-0.93 Z3.39 F2400.0
G1 X-7.12 Y-1.55 Z3.39 F2400.0
G1 X-6.84 Y-1.55 Z3.39 F2400.0
G1 X-2.47 Y-4.65 Z3.39 F2400.0
G1 X-2.19 Y-4.65 Z3.39 F2400.0
G1 X2.19 Y-1.55 Z3.39 F2400.0
G1 X9.09 Y-0.93 Z3.39 F2400.0
G1 X9.09 Y7.91 Z3.39 F2400.0
M103
G1 X9.09 Y8.84 Z3.39 F3300.0
M101
G1 X9.09 Y8.38 Z3.39 F2400.0
G1 X2.47 Y4.65 Z3.39 F2400.0
G1 X2.19 Y4.65 Z3.39 F2400.0
G1 X-2.19 Y7.76 Z3.39 F2400.0
G1 X-2.47 Y7.76 Z3.39 F2400.0
G1 X-6.84 Y4.65 Z3.39 F2400.0
G1 X-7.12 Y4.65 Z3.39 F2400.0
G1 X-9.09 Y8.38 Z3.39 F2400.0
G1 X-9.09 Y8.84 Z3.39 F2400.0
M103
(</surroundingLoop>)
(</layer>)
M73 P24 (display progress)
(<layer> 3.69 )
(<surroundingLoop>)
(<boundaryPerimeter>)
(<boundaryPoint> X-10.0 Y-10.0 Z3.69 </boundaryPoint>)
(<boundaryPoint> X10.0 Y-10.0 Z3.69 </boundaryPoint>)
(<boundaryPoint> X10.0 Y10.0 Z3.69 </boundaryPoint>)
(<boundaryPoint> X-10.0 Y10.0 Z3.69 </boundaryPoint>)
(<loop> outer )
G1 X-9.37 Y9.11 Z3.69 F3300.0
M101
G1 X-9.37 Y8.84 Z3.69 F2400.0
G1 X-9.37 Y-9.37 Z3.69 F2400.0
G1 X9.37 Y-9.37 Z3.69 F2400.0
G1 X9.37 Y9.37 Z3.69 F2400.0
G1 X-9.37 Y9.37 Z3.69 F2400.0
G1 X-9.37 Y9.11 Z3.69 F2400.0
M103
(</loop>)
(<perimeter> outer )
M108 R2.052
G1 X-9.79 Y9.11 Z3.69 F3300.0
M101
G1 X-9.79 Y8.84 Z3.69 F1200.0
G1 X-9.79 Y-9.79 Z3.69 F1200.0
G1 X9.79 Y-9.79 Z3.69 F1200.0
G1 X9.79 Y9.79 Z3.69 F1200.0
G1 X-9.79 Y9.79 Z3.69 F1200.0
G1 X-9.79 Y9.67 Z3.69 F1200.0
M108 R40.0
M102
G1 X-9.79 Y9.11 Z3.69 F1200.0
M108 R2.052
M103
(</perimeter>)
(</boundaryPerimeter>)
M108 R4.103
G1 X-8.93 Y-7.49 Z3.69 F3300.0
M108 R40.0
M101
G1 X-8.84 Y-9.09 Z3.69 F3300.0
M108 R4.103
G1 X-6.05 Y-9.09 Z3.69 F2400.0
G1 X-7.11 Y-1.55 Z3.69 F2400.0
G1 X-7.11 Y4.65 Z3.69 F2400.0
G1 X-6.05 Y9.09 Z3.69 F2400.0
G1 X-7.72 Y9.09 Z3.69 F2400.0
M108 R40.0
M102
G1 X-8.84 Y9.09 Z3.69 F2400.0
M108 R4.103
M103
G1 X-7.18 Y9.09 Z3.69 F3300.0
M108 R40.0
M101
G1 X-5.58 Y9.09 Z3.69 F3300.0
M108 R4.103
G1 X-1.4 Y9.09 Z3.69 F2400.0
G1 X-2.46 Y7.76 Z3.69 F2400.0
G1 X-6.85 Y4.65 Z3.69 F2400.0
G1 X-6.85 Y-1.55 Z3.69 F2400.0
G1 X-2.46 Y-4.65 Z3.69 F2400.0
G1 X-1.4 Y-9.09 Z3.69 F2400.0
G1 X-4.46 Y-9.09 Z3.69 F2400.0
M108 R40.0
M102
G1 X-5.58 Y-9.09 Z3.69 F2400.0
M108 R4.103
M103
G1 X1.66 Y-9.09 Z3.69 F3300.0
M108 R40.0
M101
G1 X3.26 Y-9.09 Z3.69 F3300.0
M108 R4.103
G1 X-0.93 Y-9.09 Z3.69 F2400.0
G1 X-2.2 Y-4.65 Z3.69 F2400.0
G1 X2.2 Y-1.55 Z3.69 F2400.0
G1 X2.2 Y4.65 Z3.69 F2400.0
G1 X-2.2 Y7.76 Z3.69 F2400.0
G1 X-0.93 Y9.09 Z3.69 F2400.0
G1 X2.14 Y9.09 Z3.69 F2400.0
M108 R40.0
M102
G1 X3.26 Y9.09 Z3.69 F2400.0
M108 R4.103
M103
G1 X7.95 Y-7.55 Z3.69 F3300.0
M108 R40.0
M101
G1 X8.38 Y-9.09 Z3.69 F3300.0
M108 R4.103
G1 X8.84 Y-9.09 Z3.69 F2400.0
G1 X8.84 Y9.09 Z3.69 F2400.0
G1 X3.72 Y9.09 Z3.69 F2400.0
G1 X2.46 Y4.65 Z3.69 F2400.0
G1 X2.46 Y-1.55 Z3.69 F2400.0
G1 X3.72 Y-9.09 Z3.69 F2400.0
G1 X7.91 Y-9.09 Z3.69 F2400.0
M103
(</surroundingLoop>)
(</layer>)
M73 P27 (display progress)
(<layer> 3.99 )
(<surroundingLoop>)
(<boundaryPerimeter>)
(<boundaryPoint> X-10.0 Y-10.0 Z3.99 </boundaryPoint>)
(<boundaryPoint> X10.0 Y-10.0 Z3.99 </boundaryPoint>)
(<boundaryPoint> X10.0 Y10.0 Z3.99 </boundaryPoint>)
(<boundaryPoint> X-10.0 Y10.0 Z3.99 </boundaryPoint>)
(<loop> outer )
G1 X8.16 Y-9.37 Z3.99 F3300.0
M101
G1 X9.37 Y-9.37 Z3.99 F2400.0
G1 X9.37 Y9.37 Z3.99 F2400.0
G1 X-9.37 Y9.37 Z3.99 F2400.0
G1 X-9.37 Y-9.37 Z3.99 F2400.0
G1 X7.91 Y-9.37 Z3.99 F2400.0
G1 X8.16 Y-9.37 Z3.99 F2400.0
M103
(</loop>)
(<perimeter> outer )
M108 R2.052
G1 X8.16 Y-9.79 Z3.99 F3300.0
M101
G1 X9.79 Y-9.79 Z3.99 F1200.0
G1 X9.79 Y9.79 Z3.99 F1200.0
G1 X-9.79 Y9.79 Z3.99 F1200.0
G1 X-9.79 Y-9.79 Z3.99 F1200.0
G1 X7.6 Y-9.79 Z3.99 F1200.0
M108 R40.0
M102
G1 X7.91 Y-9.79 Z3.99 F1200.0
G1 X8.16 Y-9.79 Z3.99 F1200.0
M108 R2.052
M103
(</perimeter>)
(</boundaryPerimeter>)
M108 R4.103
G1 X8.91 Y-2.98 Z3.99 F3300.0
M108 R40.0
M101
G1 X9.09 Y-1.4 Z3.99 F3300.0
M108 R4.103
G1 X9.09 Y-8.84 Z3.99 F2400.0
G1 X-9.09 Y-8.84 Z3.99 F2400.0
G1 X-9.09 Y-2.52 Z3.99 F2400.0
M108 R40.0
M102
G1 X-9.09 Y-1.4 Z3.99 F2400.0
M108 R4.103
M103
G1 X-9.09 Y6.32 Z3.99 F3300.0
M108 R40.0
M101
G1 X-9.09 Y7.91 Z3.99 F3300.0
M108 R4.103
G1 X-9.09 Y-0.93 Z3.99 F2400.0
G1 X-7.12 Y-1.55 Z3.99 F2400.0
G1 X-6.84 Y-1.55 Z3.99 F2400.0
G1 X-2.47 Y-4.65 Z3.99 F2400.0
G1 X-2.19 Y-4.65 Z3.99 F2400.0
G1 X2.19 Y-1.55 Z3.99 F2400.0
G1 X9.09 Y-0.93 Z3.99 F2400.0
G1 X9.09 Y7.91 Z3.99 F2400.0
M103
G1 X9.09 Y8.84 Z3.99 F3300.0
M101
G1 X9.09 Y8.38 Z3.99 F2400.0
G1 X2.47 Y4.65 Z3.99 F2400.0
G1 X2.19 Y4.65 Z3.99 F2400.0
G1 X-2.19 Y7.76 Z3.99 F2400.0
G1 X-2.47 Y7.76 Z3.99 F2400.0
G1 X-6.84 Y4.65 Z3.99 F2400.0
G1 X-7.12 Y4.65 Z3.99 F2400.0
G1 X-9.09 Y8.38 Z3.99 F2400.0
G1 X-9.09 Y8.84 Z3.99 F2400.0
M103
(</surroundingLoop>)
(</layer>)
M73 P30 (display progress)
(<layer> 4.29 )
(<surroundingLoop>)
(<boundaryPerimeter>)
(<boundaryPoint> X-10.0 Y-10.0 Z4.29 </boundaryPoint>)
(<boundaryPoint> X10.0 Y-10.0 Z4.29 </boundaryPoint>)
(<boundaryPoint> X10.0 Y10.0 Z4.29 </boundaryPoint>)
(<boundaryPoint> X-10.0 Y10.0 Z4.29 </boundaryPoint>)
(<loop> outer )
G1 X-9.37 Y8.91 Z4.29 F3300.0
M101
G1 X-9.37 Y8.84 Z4.29 F2400.0
G1 X-9.37 Y-9.37 Z4.29 F2400.0
G1 X9.37 Y-9.37 Z4.29 F2400.0
G1 X9.37 Y9.37 Z4.29 F2400.0
G1 X-9.37 Y9.37 Z4.29 F2400.0
G1 X-9.37 Y8.91 Z4.29 F2400.0
M103
(</loop>)
(<perimeter> outer )
M108 R2.052
G1 X-9.79 Y8.84 Z4.29 F3300.0
M101
G1 X-9.79 Y-9.79 Z4.29 F1200.0
G1 X9.79 Y-9.79 Z4.29 F1200.0
G1 X9.79 Y9.79 Z4.29 F1200.0
G1 X-9.79 Y9.79 Z4.29 F1200.0
G1 X-9.79 Y9.4 Z4.29 F1200.0
M108 R40.0
M102
G1 X-9.79 Y8.84 Z4.29 F1200.0
M108 R2.052
M103
(</perimeter>)
(</boundaryPerimeter>)
M108 R4.103
G1 X-8.93 Y-7.49 Z4.29 F3300.0
M108 R40.0
M101
G1 X-8.84 Y-9.09 Z4.29 F3300.0
M108 R4.103
G1 X-6.05 Y-9.09 Z4.29 F2400.0
G1 X-7.11 Y-1.55 Z4.29 F2400.0
G1 X-7.11 Y4.65 Z4.29 F2400.0
G1 X-6.05 Y9.09 Z4.29 F2400.0
G1 X-7.72 Y9.09 Z4.29 F2400.0
M108 R40.0
M102
G1 X-8.84 Y9.09 Z4.29 F2400.0
M108 R4.103
M103
G1 X-7.18 Y9.09 Z4.29 F3300.0
M108 R40.0
M101
G1 X-5.58 Y9.09 Z4.29 F3300.0
M108 R4.103
G1 X-1.4 Y9.09 Z4.29 F2400.0
G1 X-2.46 Y7.76 Z4.29 F2400.0
G1 X-6.85 Y4.65 Z4.29 F2400.0
G1 X-6.85 Y-1.55 Z4.29 F2400.0
G1 X-2.46 Y-4.65 Z4.29 F2400.0
G1 X-1.4 Y-9.09 Z4.29 F2400.0
G1 X-4.46 Y-9.09 Z4.29 F2400.0
M108 R40.0
M102
G1 X-5.58 Y-9.09 Z4.29 F2400.0
M108 R4.103
M103
G1 X1.66 Y-9.09 Z4.29 F3300.0
M108 R40.0
M101
G1 X3.26 Y-9.09 Z4.29 F3300.0
M108 R4.103
G1 X-0.93 Y-9.09 Z4.29 F2400.0
G1 X-2.2 Y-4.65 Z4.29 F2400.0
G1 X2.2 Y-1.55 Z4.29 F2400.0
G1 X2.2 Y4.65 Z4.29 F2400.0
G1 X-2.2 Y7.76 Z4.29 F2400.0
G1 X-0.93 Y9.09 Z4.29 F2400.0
G1 X2.14 Y9.09 Z4.29 F2400.0
M108 R40.0
M102
G1 X3.26 Y9.09 Z4.29 F2400.0
M108 R4.103
M103
G1 X7.95 Y-7.55 Z4.29 F3300.0
M108 R40.0
M101
G1 X8.38 Y-9.09 Z4.29 F3300.0
M108 R4.103
G1 X8.84 Y-9.09 Z4.29 F2400.0
G1 X8.84 Y9.09 Z4.29 F2400.0
G1 X3.72 Y9.09 Z4.29 F2400.0
G1 X2.46 Y4.65 Z4.29 F2400.0
G1 X2.46 Y-1.55 Z4.29 F2400.0
G1 X3.72 Y-9.09 Z4.29 F2400.0
G1 X7.91 Y-9.09 Z4.29 F2400.0
M103
(</surroundingLoop>)
(</layer>)
M73 P33 (display progress)
(<layer> 4.59 )
(<surroundingLoop>)
(<boundaryPerimeter>)
(<boundaryPoint> X-10.0 Y-10.0 Z4.59 </boundaryPoint>)
(<boundaryPoint> X10.0 Y-10.0 Z4.59 </boundaryPoint>)
(<boundaryPoint> X10.0 Y10.0 Z4.59 </boundaryPoint>)
(<boundaryPoint> X-10.0 Y10.0 Z4.59 </boundaryPoint>)
(<loop> outer )
G1 X7.52 Y-9.37 Z4.59 F3300.0
M101
G1 X7.91 Y-9.37 Z4.59 F2400.0
G1 X9.37 Y-9.37 Z4.59 F2400.0
G1 X9.37 Y9.37 Z4.59 F2400.0
G1 X-9.37 Y9.37 Z4.59 F2400.0
G1 X-9.37 Y-9.37 Z4.59 F2400.0
G1 X7.52 Y-9.37 Z4.59 F2400.0
M103
(</loop>)
(<perimeter> outer )
M108 R2.052
G1 X7.52 Y-9.79 Z4.59 F3300.0
M101
G1 X7.91 Y-9.79 Z4.59 F1200.0
G1 X9.79 Y-9.79 Z4.59 F1200.0
G1 X9.79 Y9.79 Z4.59 F1200.0
G1 X-9.79 Y9.79 Z4.59 F1200.0
G1 X-9.79 Y-9.79 Z4.59 F1200.0
G1 X6.96 Y-9.79 Z4.59 F1200.0
M108 R40.0
M102
G1 X7.52 Y-9.79 Z4.59 F1200.0
M108 R2.052
M103
(</perimeter>)
(</boundaryPerimeter>)
M108 R4.103
G1 X8.79 Y-2.96 Z4.59 F3300.0
M108 R40.0
M101
G1 X9.09 Y-1.4 Z4.59 F3300.0
M108 R4.103
G1 X9.09 Y-8.84 Z4.59 F2400.0
G1 X-9.09 Y-8.84 Z4.59 F2400.0
G1 X-9.09 Y-2.52 Z4.59 F2400.0
M108 R40.0
M102
G1 X-9.09 Y-1.4 Z4.59 F2400.0
M108 R4.103
M103
G1 X-9.09 Y6.32 Z4.59 F3300.0
M108 R40.0
M101
G1 X-9.09 Y7.91 Z4.59 F3300.0
M108 R4.103
G1 X-9.09 Y-0.93 Z4.59 F2400.0
G1 X-7.12 Y-1.55 Z4.59 F2400.0
G1 X-6.84 Y-1.55 Z4.59 F2400.0
G1 X-2.47 Y-4.65 Z4.59 F2400.0
G1 X-2.19 Y-4.65 Z4.59 F2400.0
G1 X2.19 Y-1.55 Z4.59 F2400.0
G1 X9.09 Y-0.93 Z4.59 F2400.0
G1 X9.09 Y7.91 Z4.59 F2400.0
M103
G1 X9.09 Y8.84 Z4.59 F3300.0
M101
G1 X9.09 Y8.38 Z4.59 F2400.0
G1 X2.47 Y4.65 Z4.59 F2400.0
G1 X2.19 Y4.65 Z4.59 F2400.0
G1 X-2.19 Y7.76 Z4.59 F2400.0
G1 X-2.47 Y7.76 Z4.59 F2400.0
G1 X-6.84 Y4.65 Z4.59 F2400.0
G1 X-7.12 Y4.65 Z4.59 F2400.0
G1 X-9.09 Y8.38 Z4.59 F2400.0
G1 X-9.09 Y8.84 Z4.59 F2400.0
M103
(</surroundingLoop>)
(</layer>)
M73 P35 (display progress)
(<layer> 4.89 )
(<surroundingLoop>)
(<boundaryPerimeter>)
(<boundaryPoint> X-10.0 Y-10.0 Z4.89 </boundaryPoint>)
(<boundaryPoint> X10.0 Y-10.0 Z4.89 </boundaryPoint>)
(<boundaryPoint> X10.0 Y10.0 Z4.89 </boundaryPoint>)
(<boundaryPoint> X-10.0 Y10.0 Z4.89 </boundaryPoint>)
(<loop> outer )
G1 X-9.37 Y8.71 Z4.89 F3300.0
M101
G1 X-9.37 Y-9.37 Z4.89 F2400.0
G1 X9.37 Y-9.37 Z4.89 F2400.0
G1 X9.37 Y9.37 Z4.89 F2400.0
G1 X-9.37 Y9.37 Z4.89 F2400.0
G1 X-9.37 Y8.84 Z4.89 F2400.0
G1 X-9.37 Y8.71 Z4.89 F2400.0
M103
(</loop>)
(<perimeter> outer )
M108 R2.052
G1 X-9.79 Y8.84 Z4.89 F3300.0
M101
G1 X-9.79 Y-9.79 Z4.89 F1200.0
G1 X9.79 Y-9.79 Z4.89 F1200.0
G1 X9.79 Y9.79 Z4.89 F1200.0
G1 X-9.79 Y9.79 Z4.89 F1200.0
G1 X-9.79 Y9.4 Z4.89 F1200.0
M108 R40.0
M102
G1 X-9.79 Y8.84 Z4.89 F1200.0
M108 R2.052
M103
(</perimeter>)
(</boundaryPerimeter>)
M108 R4.103
G1 X-8.93 Y-7.49 Z4.89 F3300.0
M108 R40.0
M101
G1 X-8.84 Y-9.09 Z4.89 F3300.0
M108 R4.103
G1 X-6.05 Y-9.09 Z4.89 F2400.0
G1 X-7.11 Y-1.55 Z4.89 F2400.0
G1 X-7.11 Y4.65 Z4.89 F2400.0
G1 X-6.05 Y9.09 Z4.89 F2400.0
G1 X-7.72 Y9.09 Z4.89 F2400.0
M108 R40.0
M102
G1 X-8.84 Y9.09 Z4.89 F2400.0
M108 R4.103
M103
G1 X-7.18 Y9.09 Z4.89 F3300.0
M108 R40.0
M101
G1 X-5.58 Y9.09 Z4.89 F3300.0
M108 R4.103
G1 X-1.4 Y9.09 Z4.89 F2400.0
G1 X-2.46 Y7.76 Z4.89 F2400.0
G1 X-6.85 Y4.65 Z4.89 F2400.0
G1 X-6.85 Y-1.55 Z4.89 F2400.0
G1 X-2.46 Y-4.65 Z4.89 F2400.0
G1 X-1.4 Y-9.09 Z4.89 F2400.0
G1 X-4.46 Y-9.09 Z4.89 F2400.0
M108 R40.0
M102
G1 X-5.58 Y-9.09 Z4.89 F2400.0
M108 R4.103
M103
G1 X1.66 Y-9.09 Z4.89 F3300.0
M108 R40.0
M101
G1 X3.26 Y-9.09 Z4.89 F3300.0
M108 R4.103
G1 X-0.93 Y-9.09 Z4.89 F2400.0
G1 X-2.2 Y-4.65 Z4.89 F2400.0
G1 X2.2 Y-1.55 Z4.89 F2400.0
G1 X2.2 Y4.65 Z4.89 F2400.0
G1 X-2.2 Y7.76 Z4.89 F2400.0
G1 X-0.93 Y9.09 Z4.89 F2400.0
G1 X2.14 Y9.09 Z4.89 F2400.0
M108 R40.0
M102
G1 X3.26 Y9.09 Z4.89 F2400.0
M108 R4.103
M103
G1 X7.95 Y-7.55 Z4.89 F3300.0
M108 R40.0
M101
G1 X8.38 Y-9.09 Z4.89 F3300.0
M108 R4.103
G1 X8.84 Y-9.09 Z4.89 F2400.0
G1 X8.84 Y9.09 Z4.89 F2400.0
G1 X3.72 Y9.09 Z4.89 F2400.0
G1 X2.46 Y4.65 Z4.89 F2400.0
G1 X2.46 Y-1.55 Z4.89 F2400.0
G1 X3.72 Y-9.09 Z4.89 F2400.0
G1 X7.91 Y-9.09 Z4.89 F2400.0
M103
(</surroundingLoop>)
(</layer>)
M73 P38 (display progress)
(<layer> 5.19 )
(<surroundingLoop>)
(<boundaryPerimeter>)
(<boundaryPoint> X-10.0 Y-10.0 Z5.19 </boundaryPoint>)
(<boundaryPoint> X10.0 Y-10.0 Z5.19 </boundaryPoint>)
(<boundaryPoint> X10.0 Y10.0 Z5.19 </boundaryPoint>)
(<boundaryPoint> X-10.0 Y10.0 Z5.19 </boundaryPoint>)
(<loop> outer )
G1 X7.72 Y-9.37 Z5.19 F3300.0
M101
G1 X7.91 Y-9.37 Z5.19 F2400.0
G1 X9.37 Y-9.37 Z5.19 F2400.0
G1 X9.37 Y9.37 Z5.19 F2400.0
G1 X-9.37 Y9.37 Z5.19 F2400.0
G1 X-9.37 Y-9.37 Z5.19 F2400.0
G1 X7.72 Y-9.37 Z5.19 F2400.0
M103
(</loop>)
(<perimeter> outer )
M108 R2.052
G1 X7.91 Y-9.79 Z5.19 F3300.0
M101
G1 X9.79 Y-9.79 Z5.19 F1200.0
G1 X9.79 Y9.79 Z5.19 F1200.0
G1 X-9.79 Y9.79 Z5.19 F1200.0
G1 X-9.79 Y-9.79 Z5.19 F1200.0
G1 X7.35 Y-9.79 Z5.19 F1200.0
M108 R40.0
M102
G1 X7.91 Y-9.79 Z5.19 F1200.0
M108 R2.052
M103
(</perimeter>)
(</boundaryPerimeter>)
M108 R4.103
G1 X8.87 Y-2.98 Z5.19 F3300.0
M108 R40.0
M101
G1 X9.09 Y-1.4 Z5.19 F3300.0
M108 R4.103
G1 X9.09 Y-8.84 Z5.19 F2400.0
G1 X-9.09 Y-8.84 Z5.19 F2400.0
G1 X-9.09 Y-2.52 Z5.19 F2400.0
M108 R40.0
M102
G1 X-9.09 Y-1.4 Z5.19 F2400.0
M108 R4.103
M103
G1 X-9.09 Y6.32 Z5.19 F3300.0
M108 R40.0
M101
G1 X-9.09 Y7.91 Z5.19 F3300.0
M108 R4.103
G1 X-9.09 Y-0.93 Z5.19 F2400.0
G1 X-7.12 Y-1.55 Z5.19 F2400.0
G1 X-6.84 Y-1.55 Z5.19 F2400.0
G1 X-2.47 Y-4.65 Z5.19 F2400.0
G1 X-2.19 Y-4.65 Z5.19 F2400.0
G1 X2.19 Y-1.55 Z5.19 F2400.0
G1 X9.09 Y-0.93 Z5.19 F2400.0
G1 X9.09 Y7.91 Z5.19 F2400.0
M103
G1 X9.09 Y8.84 Z5.19 F3300.0
M101
G1 X9.09 Y8.38 Z5.19 F2400.0
G1 X2.47 Y4.65 Z5.19 F2400.0
G1 X2.19 Y4.65 Z5.19 F2400.0
G1 X-2.19 Y7.76 Z5.19 F2400.0
G1 X-2.47 Y7.76 Z5.19 F2400.0
G1 X-6.84 Y4.65 Z5.19 F2400.0
G1 X-7.12 Y4.65 Z5.19 F2400.0
G1 X-9.09 Y8.38 Z5.19 F2400.0
G1 X-9.09 Y8.84 Z5.19 F2400.0
M103
(</surroundingLoop>)
(</layer>)
M73 P40 (display progress)
(<layer> 5.49 )
(<surroundingLoop>)
(<boundaryPerimeter>)
(<boundaryPoint> X-10.0 Y-10.0 Z5.49 </boundaryPoint>)
(<boundaryPoint> X10.0 Y-10.0 Z5.49 </boundaryPoint>)
(<boundaryPoint> X10.0 Y10.0 Z5.49 </boundaryPoint>)
(<boundaryPoint> X-10.0 Y10.0 Z5.49 </boundaryPoint>)
(<loop> outer )
G1 X-9.37 Y8.52 Z5.49 F3300.0
M101
G1 X-9.37 Y-9.37 Z5.49 F2400.0
G1 X9.37 Y-9.37 Z5.49 F2400.0
G1 X9.37 Y9.37 Z5.49 F2400.0
G1 X-9.37 Y9.37 Z5.49 F2400.0
G1 X-9.37 Y8.84 Z5.49 F2400.0
G1 X-9.37 Y8.52 Z5.49 F2400.0
M103
(</loop>)
(<perimeter> outer )
M108 R2.052
G1 X-9.79 Y8.52 Z5.49 F3300.0
M101
G1 X-9.79 Y-9.79 Z5.49 F1200.0
G1 X9.79 Y-9.79 Z5.49 F1200.0
G1 X9.79 Y9.79 Z5.49 F1200.0
G1 X-9.79 Y9.79 Z5.49 F1200.0
G1 X-9.79 Y9.08 Z5.49 F1200.0
M108 R40.0
M102
G1 X-9.79 Y8.84 Z5.49 F1200.0
G1 X-9.79 Y8.52 Z5.49 F1200.0
M108 R2.052
M103
(</perimeter>)
(</boundaryPerimeter>)
M108 R4.103
G1 X-8.93 Y-7.49 Z5.49 F3300.0
M108 R40.0
M101
G1 X-8.84 Y-9.09 Z5.49 F3300.0
M108 R4.103
G1 X-6.05 Y-9.09 Z5.49 F2400.0
G1 X-7.11 Y-1.55 Z5.49 F2400.0
G1 X-7.11 Y4.65 Z5.49 F2400.0
G1 X-6.05 Y9.09 Z5.49 F2400.0
G1 X-7.72 Y9.09 Z5.49 F2400.0
M108 R40.0
M102
G1 X-8.84 Y9.09 Z5.49 F2400.0
M108 R4.103
M103
G1 X-7.18 Y9.09 Z5.49 F3300.0
M108 R40.0
M101
G1 X-5.58 Y9.09 Z5.49 F3300.0
M108 R4.103
G1 X-1.4 Y9.09 Z5.49 F2400.0
G1 X-2.46 Y7.76 Z5.49 F2400.0
G1 X-6.85 Y4.65 Z5.49 F2400.0
G1 X-6.85 Y-1.55 Z5.49 F2400.0
G1 X-2.46 Y-4.65 Z5.49 F2400.0
G1 X-1.4 Y-9.09 Z5.49 F2400.0
G1 X-4.46 Y-9.09 Z5.49 F2400.0
M108 R40.0
M102
G1 X-5.58 Y-9.09 Z5.49 F2400.0
M108 R4.103
M103
G1 X1.66 Y-9.09 Z5.49 F3300.0
M108 R40.0
M101
G1 X3.26 Y-9.09 Z5.49 F3300.0
M108 R4.103
G1 X-0.93 Y-9.09 Z5.49 F2400.0
G1 X-2.2 Y-4.65 Z5.49 F2400.0
G1 X2.2 Y-1.55 Z5.49 F2400.0
G1 X2.2 Y4.65 Z5.49 F2400.0
G1 X-2.2 Y7.76 Z5.49 F2400.0
G1 X-0.93 Y9.09 Z5.49 F2400.0
G1 X2.14 Y9.09 Z5.49 F2400.0
M108 R40.0
M102
G1 X3.26 Y9.09 Z5.49 F2400.0
M108 R4.103
M103
G1 X7.95 Y-7.55 Z5.49 F3300.0
M108 R40.0
M101
G1 X8.38 Y-9.09 Z5.49 F3300.0
M108 R4.103
G1 X8.84 Y-9.09 Z5.49 F2400.0
G1 X8.84 Y9.09 Z5.49 F2400.0
G1 X3.72 Y9.09 Z5.49 F2400.0
G1 X2.46 Y4.65 Z5.49 F2400.0
G1 X2.46 Y-1.55 Z5.49 F2400.0
G1 X3.72 Y-9.09 Z5.49 F2400.0
G1 X7.91 Y-9.09 Z5.49 F2400.0
M103
(</surroundingLoop>)
(</layer>)
M73 P43 (display progress)
(<layer> 5.79 )
(<surroundingLoop>)
(<boundaryPerimeter>)
(<boundaryPoint> X-10.0 Y-10.0 Z5.79 </boundaryPoint>)
(<boundaryPoint> X10.0 Y-10.0 Z5.79 </boundaryPoint>)
(<boundaryPoint> X10.0 Y10.0 Z5.79 </boundaryPoint>)
(<boundaryPoint> X-10.0 Y10.0 Z5.79 </boundaryPoint>)
(<loop> outer )
G1 X7.92 Y-9.37 Z5.79 F3300.0
M101
G1 X9.37 Y-9.37 Z5.79 F2400.0
G1 X9.37 Y9.37 Z5.79 F2400.0
G1 X-9.37 Y9.37 Z5.79 F2400.0
G1 X-9.37 Y-9.37 Z5.79 F2400.0
G1 X7.91 Y-9.37 Z5.79 F2400.0
G1 X7.92 Y-9.37 Z5.79 F2400.0
M103
(</loop>)
(<perimeter> outer )
M108 R2.052
G1 X7.91 Y-9.79 Z5.79 F3300.0
M101
G1 X9.79 Y-9.79 Z5.79 F1200.0
G1 X9.79 Y9.79 Z5.79 F1200.0
G1 X-9.79 Y9.79 Z5.79 F1200.0
G1 X-9.79 Y-9.79 Z5.79 F1200.0
G1 X7.35 Y-9.79 Z5.79 F1200.0
M108 R40.0
M102
G1 X7.91 Y-9.79 Z5.79 F1200.0
M108 R2.052
M103
(</perimeter>)
(</boundaryPerimeter>)
M108 R4.103
G1 X8.87 Y-2.98 Z5.79 F3300.0
M108 R40.0
M101
G1 X9.09 Y-1.4 Z5.79 F3300.0
M108 R4.103
G1 X9.09 Y-8.84 Z5.79 F2400.0
G1 X-9.09 Y-8.84 Z5.79 F2400.0
G1 X-9.09 Y-2.52 Z5.79 F2400.0
M108 R40.0
M102
G1 X-9.09 Y-1.4 Z5.79 F2400.0
M108 R4.103
M103
G1 X-9.09 Y6.32 Z5.79 F3300.0
M108 R40.0
M101
G1 X-9.09 Y7.91 Z5.79 F3300.0
M108 R4.103
G1 X-9.09 Y-0.93 Z5.79 F2400.0
G1 X-7.12 Y-1.55 Z5.79 F2400.0
G1 X-6.84 Y-1.55 Z5.79 F2400.0
G1 X-2.47 Y-4.65 Z5.79 F2400.0
G1 X-2.19 Y-4.65 Z5.79 F2400.0
G1 X2.19 Y-1.55 Z5.79 F2400.0
G1 X9.09 Y-0.93 Z5.79 F2400.0
G1 X9.09 Y7.91 Z5.79 F2400.0
M103
G1 X9.09 Y8.84 Z5.79 F3300.0
M101
G1 X9.09 Y8.38 Z5.79 F2400.0
G1 X2.47 Y4.65 Z5.79 F2400.0
G1 X2.19 Y4.65 Z5.79 F2400.0
G1 X-2.19 Y7.76 Z5.79 F2400.0
G1 X-2.47 Y7.76 Z5.79 F2400.0
G1 X-6.84 Y4.65 Z5.79 F2400.0
G1 X-7.12 Y4.65 Z5.79 F2400.0
G1 X-9.09 Y8.38 Z5.79 F2400.0
G1 X-9.09 Y8.84 Z5.79 F2400.0
M103
(</surroundingLoop>)
(</layer>)
M73 P45 (display progress)
(<layer> 6.09 )
(<surroundingLoop>)
(<boundaryPerimeter>)
(<boundaryPoint> X-10.0 Y-10.0 Z6.09 </boundaryPoint>)
(<boundaryPoint> X10.0 Y-10.0 Z6.09 </boundaryPoint>)
(<boundaryPoint> X10.0 Y10.0 Z6.09 </boundaryPoint>)
(<boundaryPoint> X-10.0 Y10.0 Z6.09 </boundaryPoint>)
(<loop> outer )
G1 X-9.37 Y9.16 Z6.09 F3300.0
M101
G1 X-9.37 Y8.84 Z6.09 F2400.0
G1 X-9.37 Y-9.37 Z6.09 F2400.0
G1 X9.37 Y-9.37 Z6.09 F2400.0
G1 X9.37 Y9.37 Z6.09 F2400.0
G1 X-9.37 Y9.37 Z6.09 F2400.0
G1 X-9.37 Y9.16 Z6.09 F2400.0
M103
(</loop>)
(<perimeter> outer )
M108 R2.052
G1 X-9.79 Y9.16 Z6.09 F3300.0
M101
G1 X-9.79 Y8.84 Z6.09 F1200.0
G1 X-9.79 Y-9.79 Z6.09 F1200.0
G1 X9.79 Y-9.79 Z6.09 F1200.0
G1 X9.79 Y9.79 Z6.09 F1200.0
G1 X-9.79 Y9.79 Z6.09 F1200.0
G1 X-9.79 Y9.72 Z6.09 F1200.0
M108 R40.0
M102
G1 X-9.79 Y9.16 Z6.09 F1200.0
M108 R2.052
M103
(</perimeter>)
(</boundaryPerimeter>)
M108 R4.103
G1 X-8.93 Y-7.49 Z6.09 F3300.0
M108 R40.0
M101
G1 X-8.84 Y-9.09 Z6.09 F3300.0
M108 R4.103
G1 X-6.05 Y-9.09 Z6.09 F2400.0
G1 X-7.11 Y-1.55 Z6.09 F2400.0
G1 X-7.11 Y4.65 Z6.09 F2400.0
G1 X-6.05 Y9.09 Z6.09 F2400.0
G1 X-7.72 Y9.09 Z6.09 F2400.0
M108 R40.0
M102
G1 X-8.84 Y9.09 Z6.09 F2400.0
M108 R4.103
M103
G1 X-7.18 Y9.09 Z6.09 F3300.0
M108 R40.0
M101
G1 X-5.58 Y9.09 Z6.09 F3300.0
M108 R4.103
G1 X-1.4 Y9.09 Z6.09 F2400.0
G1 X-2.46 Y7.76 Z6.09 F2400.0
G1 X-6.85 Y4.65 Z6.09 F2400.0
G1 X-6.85 Y-1.55 Z6.09 F2400.0
G1 X-2.46 Y-4.65 Z6.09 F2400.0
G1 X-1.4 Y-9.09 Z6.09 F2400.0
G1 X-4.46 Y-9.09 Z6.09 F2400.0
M108 R40.0
M102
G1 X-5.58 Y-9.09 Z6.09 F2400.0
M108 R4.103
M103
G1 X1.66 Y-9.09 Z6.09 F3300.0
M108 R40.0
M101
G1 X3.26 Y-9.09 Z6.09 F3300.0
M108 R4.103
G1 X-0.93 Y-9.09 Z6.09 F2400.0
G1 X-2.2 Y-4.65 Z6.09 F2400.0
G1 X2.2 Y-1.55 Z6.09 F2400.0
G1 X2.2 Y4.65 Z6.09 F2400.0
G1 X-2.2 Y7.76 Z6.09 F2400.0
G1 X-0.93 Y9.09 Z6.09 F2400.0
G1 X2.14 Y9.09 Z6.09 F2400.0
M108 R40.0
M102
G1 X3.26 Y9.09 Z6.09 F2400.0
M108 R4.103
M103
G1 X7.95 Y-7.55 Z6.09 F3300.0
M108 R40.0
M101
G1 X8.38 Y-9.09 Z6.09 F3300.0
M108 R4.103
G1 X8.84 Y-9.09 Z6.09 F2400.0
G1 X8.84 Y9.09 Z6.09 F2400.0
G1 X3.72 Y9.09 Z6.09 F2400.0
G1 X2.46 Y4.65 Z6.09 F2400.0
G1 X2.46 Y-1.55 Z6.09 F2400.0
G1 X3.72 Y-9.09 Z6.09 F2400.0
G1 X7.91 Y-9.09 Z6.09 F2400.0
M103
(</surroundingLoop>)
(</layer>)
M73 P48 (display progress)
(<layer> 6.39 )
(<surroundingLoop>)
(<boundaryPerimeter>)
(<boundaryPoint> X-10.0 Y-10.0 Z6.39 </boundaryPoint>)
(<boundaryPoint> X10.0 Y-10.0 Z6.39 </boundaryPoint>)
(<boundaryPoint> X10.0 Y10.0 Z6.39 </boundaryPoint>)
(<boundaryPoint> X-10.0 Y10.0 Z6.39 </boundaryPoint>)
(<loop> outer )
G1 X8.12 Y-9.37 Z6.39 F3300.0
M101
G1 X9.37 Y-9.37 Z6.39 F2400.0
G1 X9.37 Y9.37 Z6.39 F2400.0
G1 X-9.37 Y9.37 Z6.39 F2400.0
G1 X-9.37 Y-9.37 Z6.39 F2400.0
G1 X7.91 Y-9.37 Z6.39 F2400.0
G1 X8.12 Y-9.37 Z6.39 F2400.0
M103
(</loop>)
(<perimeter> outer )
M108 R2.052
G1 X7.91 Y-9.79 Z6.39 F3300.0
M101
G1 X9.79 Y-9.79 Z6.39 F1200.0
G1 X9.79 Y9.79 Z6.39 F1200.0
G1 X-9.79 Y9.79 Z6.39 F1200.0
G1 X-9.79 Y-9.79 Z6.39 F1200.0
G1 X7.35 Y-9.79 Z6.39 F1200.0
M108 R40.0
M102
G1 X7.91 Y-9.79 Z6.39 F1200.0
M108 R2.052
M103
(</perimeter>)
(</boundaryPerimeter>)
M108 R4.103
G1 X8.87 Y-2.98 Z6.39 F3300.0
M108 R40.0
M101
G1 X9.09 Y-1.4 Z6.39 F3300.0
M108 R4.103
G1 X9.09 Y-8.84 Z6.39 F2400.0
G1 X-9.09 Y-8.84 Z6.39 F2400.0
G1 X-9.09 Y-2.52 Z6.39 F2400.0
M108 R40.0
M102
G1 X-9.09 Y-1.4 Z6.39 F2400.0
M108 R4.103
M103
G1 X-9.09 Y6.32 Z6.39 F3300.0
M108 R40.0
M101
G1 X-9.09 Y7.91 Z6.39 F3300.0
M108 R4.103
G1 X-9.09 Y-0.93 Z6.39 F2400.0
G1 X-7.12 Y-1.55 Z6.39 F2400.0
G1 X-6.84 Y-1.55 Z6.39 F2400.0
G1 X-2.47 Y-4.65 Z6.39 F2400.0
G1 X-2.19 Y-4.65 Z6.39 F2400.0
G1 X2.19 Y-1.55 Z6.39 F2400.0
G1 X9.09 Y-0.93 Z6.39 F2400.0
G1 X9.09 Y7.91 Z6.39 F2400.0
M103
G1 X9.09 Y8.84 Z6.39 F3300.0
M101
G1 X9.09 Y8.38 Z6.39 F2400.0
G1 X2.47 Y4.65 Z6.39 F2400.0
G1 X2.19 Y4.65 Z6.39 F2400.0
G1 X-2.19 Y7.76 Z6.39 F2400.0
G1 X-2.47 Y7.76 Z6.39 F2400.0
G1 X-6.84 Y4.65 Z6.39 F2400.0
G1 X-7.12 Y4.65 Z6.39 F2400.0
G1 X-9.09 Y8.38 Z6.39 F2400.0
G1 X-9.09 Y8.84 Z6.39 F2400.0
M103
(</surroundingLoop>)
(</layer>)
M73 P51 (display progress)
(<layer> 6.69 )
(<surroundingLoop>)
(<boundaryPerimeter>)
(<boundaryPoint> X-10.0 Y-10.0 Z6.69 </boundaryPoint>)
(<boundaryPoint> X10.0 Y-10.0 Z6.69 </boundaryPoint>)
(<boundaryPoint> X10.0 Y10.0 Z6.69 </boundaryPoint>)
(<boundaryPoint> X-10.0 Y10.0 Z6.69 </boundaryPoint>)
(<loop> outer )
G1 X-9.37 Y8.96 Z6.69 F3300.0
M101
G1 X-9.37 Y8.84 Z6.69 F2400.0
G1 X-9.37 Y-9.37 Z6.69 F2400.0
G1 X9.37 Y-9.37 Z6.69 F2400.0
G1 X9.37 Y9.37 Z6.69 F2400.0
G1 X-9.37 Y9.37 Z6.69 F2400.0
G1 X-9.37 Y8.96 Z6.69 F2400.0
M103
(</loop>)
(<perimeter> outer )
M108 R2.052
G1 X-9.79 Y8.84 Z6.69 F3300.0
M101
G1 X-9.79 Y-9.79 Z6.69 F1200.0
G1 X9.79 Y-9.79 Z6.69 F1200.0
G1 X9.79 Y9.79 Z6.69 F1200.0
G1 X-9.79 Y9.79 Z6.69 F1200.0
G1 X-9.79 Y9.4 Z6.69 F1200.0
M108 R40.0
M102
G1 X-9.79 Y8.84 Z6.69 F1200.0
M108 R2.052
M103
(</perimeter>)
(</boundaryPerimeter>)
M108 R4.103
G1 X-8.93 Y-7.49 Z6.69 F3300.0
M108 R40.0
M101
G1 X-8.84 Y-9.09 Z6.69 F3300.0
M108 R4.103
G1 X-6.05 Y-9.09 Z6.69 F2400.0
G1 X-7.11 Y-1.55 Z6.69 F2400.0
G1 X-7.11 Y4.65 Z6.69 F2400.0
G1 X-6.05 Y9.09 Z6.69 F2400.0
G1 X-7.72 Y9.09 Z6.69 F2400.0
M108 R40.0
M102
G1 X-8.84 Y9.09 Z6.69 F2400.0
M108 R4.103
M103
G1 X-7.18 Y9.09 Z6.69 F3300.0
M108 R40.0
M101
G1 X-5.58 Y9.09 Z6.69 F3300.0
M108 R4.103
G1 X-1.4 Y9.09 Z6.69 F2400.0
G1 X-2.46 Y7.76 Z6.69 F2400.0
G1 X-6.85 Y4.65 Z6.69 F2400.0
G1 X-6.85 Y-1.55 Z6.69 F2400.0
G1 X-2.46 Y-4.65 Z6.69 F2400.0
G1 X-1.4 Y-9.09 Z6.69 F2400.0
G1 X-4.46 Y-9.09 Z6.69 F2400.0
M108 R40.0
M102
G1 X-5.58 Y-9.09 Z6.69 F2400.0
M108 R4.103
M103
G1 X1.66 Y-9.09 Z6.69 F3300.0
M108 R40.0
M101
G1 X3.26 Y-9.09 Z6.69 F3300.0
M108 R4.103
G1 X-0.93 Y-9.09 Z6.69 F2400.0
G1 X-2.2 Y-4.65 Z6.69 F2400.0
G1 X2.2 Y-1.55 Z6.69 F2400.0
G1 X2.2 Y4.65 Z6.69 F2400.0
G1 X-2.2 Y7.76 Z6.69 F2400.0
G1 X-0.93 Y9.09 Z6.69 F2400.0
G1 X2.14 Y9.09 Z6.69 F2400.0
M108 R40.0
M102
G1 X3.26 Y9.09 Z6.69 F2400.0
M108 R4.103
M103
G1 X7.95 Y-7.55 Z6.69 F3300.0
M108 R40.0
M101
G1 X8.38 Y-9.09 Z6.69 F3300.0
M108 R4.103
G1 X8.84 Y-9.09 Z6.69 F2400.0
G1 X8.84 Y9.09 Z6.69 F2400.0
G1 X3.72 Y9.09 Z6.69 F2400.0
G1 X2.46 Y4.65 Z6.69 F2400.0
G1 X2.46 Y-1.55 Z6.69 F2400.0
G1 X3.72 Y-9.09 Z6.69 F2400.0
G1 X7.91 Y-9.09 Z6.69 F2400.0
M103
(</surroundingLoop>)
(</layer>)
M73 P54 (display progress)
(<layer> 6.99 )
(<surroundingLoop>)
(<boundaryPerimeter>)
(<boundaryPoint> X-10.0 Y-10.0 Z6.99 </boundaryPoint>)
(<boundaryPoint> X10.0 Y-10.0 Z6.99 </boundaryPoint>)
(<boundaryPoint> X10.0 Y10.0 Z6.99 </boundaryPoint>)
(<boundaryPoint> X-10.0 Y10.0 Z6.99 </boundaryPoint>)
(<loop> outer )
G1 X8.31 Y-9.37 Z6.99 F3300.0
M101
G1 X9.37 Y-9.37 Z6.99 F2400.0
G1 X9.37 Y9.37 Z6.99 F2400.0
G1 X-9.37 Y9.37 Z6.99 F2400.0
G1 X-9.37 Y-9.37 Z6.99 F2400.0
G1 X7.91 Y-9.37 Z6.99 F2400.0
G1 X8.31 Y-9.37 Z6.99 F2400.0
M103
(</loop>)
(<perimeter> outer )
M108 R2.052
G1 X8.31 Y-9.79 Z6.99 F3300.0
M101
G1 X9.79 Y-9.79 Z6.99 F1200.0
G1 X9.79 Y9.79 Z6.99 F1200.0
G1 X-9.79 Y9.79 Z6.99 F1200.0
G1 X-9.79 Y-9.79 Z6.99 F1200.0
G1 X7.75 Y-9.79 Z6.99 F1200.0
M108 R40.0
M102
G1 X7.91 Y-9.79 Z6.99 F1200.0
G1 X8.31 Y-9.79 Z6.99 F1200.0
M108 R2.052
M103
(</perimeter>)
(</boundaryPerimeter>)
M108 R4.103
G1 X8.94 Y-2.98 Z6.99 F3300.0
M108 R40.0
M101
G1 X9.09 Y-1.4 Z6.99 F3300.0
M108 R4.103
G1 X9.09 Y-8.84 Z6.99 F2400.0
G1 X-9.09 Y-8.84 Z6.99 F2400.0
G1 X-9.09 Y-2.52 Z6.99 F2400.0
M108 R40.0
M102
G1 X-9.09 Y-1.4 Z6.99 F2400.0
M108 R4.103
M103
G1 X-9.09 Y6.32 Z6.99 F3300.0
M108 R40.0
M101
G1 X-9.09 Y7.91 Z6.99 F3300.0
M108 R4.103
G1 X-9.09 Y-0.93 Z6.99 F2400.0
G1 X-7.12 Y-1.55 Z6.99 F2400.0
G1 X-6.84 Y-1.55 Z6.99 F2400.0
G1 X-2.47 Y-4.65 Z6.99 F2400.0
G1 X-2.19 Y-4.65 Z6.99 F2400.0
G1 X2.19 Y-1.55 Z6.99 F2400.0
G1 X9.09 Y-0.93 Z6.99 F2400.0
G1 X9.09 Y7.91 Z6.99 F2400.0
M103
G1 X9.09 Y8.84 Z6.99 F3300.0
M101
G1 X9.09 Y8.38 Z6.99 F2400.0
G1 X2.47 Y4.65 Z6.99 F2400.0
G1 X2.19 Y4.65 Z6.99 F2400.0
G1 X-2.19 Y7.76 Z6.99 F2400.0
G1 X-2.47 Y7.76 Z6.99 F2400.0
G1 X-6.84 Y4.65 Z6.99 F2400.0
G1 X-7.12 Y4.65 Z6.99 F2400.0
G1 X-9.09 Y8.38 Z6.99 F2400.0
G1 X-9.09 Y8.84 Z6.99 F2400.0
M103
(</surroundingLoop>)
(</layer>)
M73 P56 (display progress)
(<layer> 7.29 )
(<surroundingLoop>)
(<boundaryPerimeter>)
(<boundaryPoint> X-10.0 Y-10.0 Z7.29 </boundaryPoint>)
(<boundaryPoint> X10.0 Y-10.0 Z7.29 </boundaryPoint>)
(<boundaryPoint> X10.0 Y10.0 Z7.29 </boundaryPoint>)
(<boundaryPoint> X-10.0 Y10.0 Z7.29 </boundaryPoint>)
(<loop> outer )
G1 X-9.37 Y8.76 Z7.29 F3300.0
M101
G1 X-9.37 Y-9.37 Z7.29 F2400.0
G1 X9.37 Y-9.37 Z7.29 F2400.0
G1 X9.37 Y9.37 Z7.29 F2400.0
G1 X-9.37 Y9.37 Z7.29 F2400.0
G1 X-9.37 Y8.84 Z7.29 F2400.0
G1 X-9.37 Y8.76 Z7.29 F2400.0
M103
(</loop>)
(<perimeter> outer )
M108 R2.052
G1 X-9.79 Y8.84 Z7.29 F3300.0
M101
G1 X-9.79 Y-9.79 Z7.29 F1200.0
G1 X9.79 Y-9.79 Z7.29 F1200.0
G1 X9.79 Y9.79 Z7.29 F1200.0
G1 X-9.79 Y9.79 Z7.29 F1200.0
G1 X-9.79 Y9.4 Z7.29 F1200.0
M108 R40.0
M102
G1 X-9.79 Y8.84 Z7.29 F1200.0
M108 R2.052
M103
(</perimeter>)
(</boundaryPerimeter>)
M108 R4.103
G1 X-8.93 Y-7.49 Z7.29 F3300.0
M108 R40.0
M101
G1 X-8.84 Y-9.09 Z7.29 F3300.0
M108 R4.103
G1 X-6.05 Y-9.09 Z7.29 F2400.0
G1 X-7.11 Y-1.55 Z7.29 F2400.0
G1 X-7.11 Y4.65 Z7.29 F2400.0
G1 X-6.05 Y9.09 Z7.29 F2400.0
G1 X-7.72 Y9.09 Z7.29 F2400.0
M108 R40.0
M102
G1 X-8.84 Y9.09 Z7.29 F2400.0
M108 R4.103
M103
G1 X-7.18 Y9.09 Z7.29 F3300.0
M108 R40.0
M101
G1 X-5.58 Y9.09 Z7.29 F3300.0
M108 R4.103
G1 X-1.4 Y9.09 Z7.29 F2400.0
G1 X-2.46 Y7.76 Z7.29 F2400.0
G1 X-6.85 Y4.65 Z7.29 F2400.0
G1 X-6.85 Y-1.55 Z7.29 F2400.0
G1 X-2.46 Y-4.65 Z7.29 F2400.0
G1 X-1.4 Y-9.09 Z7.29 F2400.0
G1 X-4.46 Y-9.09 Z7.29 F2400.0
M108 R40.0
M102
G1 X-5.58 Y-9.09 Z7.29 F2400.0
M108 R4.103
M103
G1 X1.66 Y-9.09 Z7.29 F3300.0
M108 R40.0
M101
G1 X3.26 Y-9.09 Z7.29 F3300.0
M108 R4.103
G1 X-0.93 Y-9.09 Z7.29 F2400.0
G1 X-2.2 Y-4.65 Z7.29 F2400.0
G1 X2.2 Y-1.55 Z7.29 F2400.0
G1 X2.2 Y4.65 Z7.29 F2400.0
G1 X-2.2 Y7.76 Z7.29 F2400.0
G1 X-0.93 Y9.09 Z7.29 F2400.0
G1 X2.14 Y9.09 Z7.29 F2400.0
M108 R40.0
M102
G1 X3.26 Y9.09 Z7.29 F2400.0
M108 R4.103
M103
G1 X7.95 Y-7.55 Z7.29 F3300.0
M108 R40.0
M101
G1 X8.38 Y-9.09 Z7.29 F3300.0
M108 R4.103
G1 X8.84 Y-9.09 Z7.29 F2400.0
G1 X8.84 Y9.09 Z7.29 F2400.0
G1 X3.72 Y9.09 Z7.29 F2400.0
G1 X2.46 Y4.65 Z7.29 F2400.0
G1 X2.46 Y-1.55 Z7.29 F2400.0
G1 X3.72 Y-9.09 Z7.29 F2400.0
G1 X7.91 Y-9.09 Z7.29 F2400.0
M103
(</surroundingLoop>)
(</layer>)
M73 P59 (display progress)
(<layer> 7.59 )
(<surroundingLoop>)
(<boundaryPerimeter>)
(<boundaryPoint> X-10.0 Y-10.0 Z7.59 </boundaryPoint>)
(<boundaryPoint> X10.0 Y-10.0 Z7.59 </boundaryPoint>)
(<boundaryPoint> X10.0 Y10.0 Z7.59 </boundaryPoint>)
(<boundaryPoint> X-10.0 Y10.0 Z7.59 </boundaryPoint>)
(<loop> outer )
G1 X7.67 Y-9.37 Z7.59 F3300.0
M101
G1 X7.91 Y-9.37 Z7.59 F2400.0
G1 X9.37 Y-9.37 Z7.59 F2400.0
G1 X9.37 Y9.37 Z7.59 F2400.0
G1 X-9.37 Y9.37 Z7.59 F2400.0
G1 X-9.37 Y-9.37 Z7.59 F2400.0
G1 X7.67 Y-9.37 Z7.59 F2400.0
M103
(</loop>)
(<perimeter> outer )
M108 R2.052
G1 X7.67 Y-9.79 Z7.59 F3300.0
M101
G1 X7.91 Y-9.79 Z7.59 F1200.0
G1 X9.79 Y-9.79 Z7.59 F1200.0
G1 X9.79 Y9.79 Z7.59 F1200.0
G1 X-9.79 Y9.79 Z7.59 F1200.0
G1 X-9.79 Y-9.79 Z7.59 F1200.0
G1 X7.11 Y-9.79 Z7.59 F1200.0
M108 R40.0
M102
G1 X7.67 Y-9.79 Z7.59 F1200.0
M108 R2.052
M103
(</perimeter>)
(</boundaryPerimeter>)
M108 R4.103
G1 X8.82 Y-2.97 Z7.59 F3300.0
M108 R40.0
M101
G1 X9.09 Y-1.4 Z7.59 F3300.0
M108 R4.103
G1 X9.09 Y-8.84 Z7.59 F2400.0
G1 X-9.09 Y-8.84 Z7.59 F2400.0
G1 X-9.09 Y-2.52 Z7.59 F2400.0
M108 R40.0
M102
G1 X-9.09 Y-1.4 Z7.59 F2400.0
M108 R4.103
M103
G1 X-9.09 Y6.32 Z7.59 F3300.0
M108 R40.0
M101
G1 X-9.09 Y7.91 Z7.59 F3300.0
M108 R4.103
G1 X-9.09 Y-0.93 Z7.59 F2400.0
G1 X-7.12 Y-1.55 Z7.59 F2400.0
G1 X-6.84 Y-1.55 Z7.59 F2400.0
G1 X-2.47 Y-4.65 Z7.59 F2400.0
G1 X-2.19 Y-4.65 Z7.59 F2400.0
G1 X2.19 Y-1.55 Z7.59 F2400.0
G1 X9.09 Y-0.93 Z7.59 F2400.0
G1 X9.09 Y7.91 Z7.59 F2400.0
M103
G1 X9.09 Y8.84 Z7.59 F3300.0
M101
G1 X9.09 Y8.38 Z7.59 F2400.0
G1 X2.47 Y4.65 Z7.59 F2400.0
G1 X2.19 Y4.65 Z7.59 F2400.0
G1 X-2.19 Y7.76 Z7.59 F2400.0
G1 X-2.47 Y7.76 Z7.59 F2400.0
G1 X-6.84 Y4.65 Z7.59 F2400.0
G1 X-7.12 Y4.65 Z7.59 F2400.0
G1 X-9.09 Y8.38 Z7.59 F2400.0
G1 X-9.09 Y8.84 Z7.59 F2400.0
M103
(</surroundingLoop>)
(</layer>)
M73 P61 (display progress)
(<layer> 7.89 )
(<surroundingLoop>)
(<boundaryPerimeter>)
(<boundaryPoint> X-10.0 Y-10.0 Z7.89 </boundaryPoint>)
(<boundaryPoint> X10.0 Y-10.0 Z7.89 </boundaryPoint>)
(<boundaryPoint> X10.0 Y10.0 Z7.89 </boundaryPoint>)
(<boundaryPoint> X-10.0 Y10.0 Z7.89 </boundaryPoint>)
(<loop> outer )
G1 X-9.37 Y8.56 Z7.89 F3300.0
M101
G1 X-9.37 Y-9.37 Z7.89 F2400.0
G1 X9.37 Y-9.37 Z7.89 F2400.0
G1 X9.37 Y9.37 Z7.89 F2400.0
G1 X-9.37 Y9.37 Z7.89 F2400.0
G1 X-9.37 Y8.84 Z7.89 F2400.0
G1 X-9.37 Y8.56 Z7.89 F2400.0
M103
(</loop>)
(<perimeter> outer )
M108 R2.052
G1 X-9.79 Y8.56 Z7.89 F3300.0
M101
G1 X-9.79 Y-9.79 Z7.89 F1200.0
G1 X9.79 Y-9.79 Z7.89 F1200.0
G1 X9.79 Y9.79 Z7.89 F1200.0
G1 X-9.79 Y9.79 Z7.89 F1200.0
G1 X-9.79 Y9.12 Z7.89 F1200.0
M108 R40.0
M102
G1 X-9.79 Y8.84 Z7.89 F1200.0
G1 X-9.79 Y8.56 Z7.89 F1200.0
M108 R2.052
M103
(</perimeter>)
(</boundaryPerimeter>)
M108 R4.103
G1 X-8.93 Y-7.49 Z7.89 F3300.0
M108 R40.0
M101
G1 X-8.84 Y-9.09 Z7.89 F3300.0
M108 R4.103
G1 X-6.05 Y-9.09 Z7.89 F2400.0
G1 X-7.11 Y-1.55 Z7.89 F2400.0
G1 X-7.11 Y4.65 Z7.89 F2400.0
G1 X-6.05 Y9.09 Z7.89 F2400.0
G1 X-7.72 Y9.09 Z7.89 F2400.0
M108 R40.0
M102
G1 X-8.84 Y9.09 Z7.89 F2400.0
M108 R4.103
M103
G1 X-7.18 Y9.09 Z7.89 F3300.0
M108 R40.0
M101
G1 X-5.58 Y9.09 Z7.89 F3300.0
M108 R4.103
G1 X-1.4 Y9.09 Z7.89 F2400.0
G1 X-2.46 Y7.76 Z7.89 F2400.0
G1 X-6.85 Y4.65 Z7.89 F2400.0
G1 X-6.85 Y-1.55 Z7.89 F2400.0
G1 X-2.46 Y-4.65 Z7.89 F2400.0
G1 X-1.4 Y-9.09 Z7.89 F2400.0
G1 X-4.46 Y-9.09 Z7.89 F2400.0
M108 R40.0
M102
G1 X-5.58 Y-9.09 Z7.89 F2400.0
M108 R4.103
M103
G1 X1.66 Y-9.09 Z7.89 F3300.0
M108 R40.0
M101
G1 X3.26 Y-9.09 Z7.89 F3300.0
M108 R4.103
G1 X-0.93 Y-9.09 Z7.89 F2400.0
G1 X-2.2 Y-4.65 Z7.89 F2400.0
G1 X2.2 Y-1.55 Z7.89 F2400.0
G1 X2.2 Y4.65 Z7.89 F2400.0
G1 X-2.2 Y7.76 Z7.89 F2400.0
G1 X-0.93 Y9.09 Z7.89 F2400.0
G1 X2.14 Y9.09 Z7.89 F2400.0
M108 R40.0
M102
G1 X3.26 Y9.09 Z7.89 F2400.0
M108 R4.103
M103
G1 X7.95 Y-7.55 Z7.89 F3300.0
M108 R40.0
M101
G1 X8.38 Y-9.09 Z7.89 F3300.0
M108 R4.103
G1 X8.84 Y-9.09 Z7.89 F2400.0
G1 X8.84 Y9.09 Z7.89 F2400.0
G1 X3.72 Y9.09 Z7.89 F2400.0
G1 X2.46 Y4.65 Z7.89 F2400.0
G1 X2.46 Y-1.55 Z7.89 F2400.0
G1 X3.72 Y-9.09 Z7.89 F2400.0
G1 X7.91 Y-9.09 Z7.89 F2400.0
M103
(</surroundingLoop>)
(</layer>)
M73 P64 (display progress)
(<layer> 8.19 )
(<surroundingLoop>)
(<boundaryPerimeter>)
(<boundaryPoint> X-10.0 Y-10.0 Z8.19 </boundaryPoint>)
(<boundaryPoint> X10.0 Y-10.0 Z8.19 </boundaryPoint>)
(<boundaryPoint> X10.0 Y10.0 Z8.19 </boundaryPoint>)
(<boundaryPoint> X-10.0 Y10.0 Z8.19 </boundaryPoint>)
(<loop> outer )
G1 X7.87 Y-9.37 Z8.19 F3300.0
M101
G1 X7.91 Y-9.37 Z8.19 F2400.0
G1 X9.37 Y-9.37 Z8.19 F2400.0
G1 X9.37 Y9.37 Z8.19 F2400.0
G1 X-9.37 Y9.37 Z8.19 F2400.0
G1 X-9.37 Y-9.37 Z8.19 F2400.0
G1 X7.87 Y-9.37 Z8.19 F2400.0
M103
(</loop>)
(<perimeter> outer )
M108 R2.052
G1 X7.91 Y-9.79 Z8.19 F3300.0
M101
G1 X9.79 Y-9.79 Z8.19 F1200.0
G1 X9.79 Y9.79 Z8.19 F1200.0
G1 X-9.79 Y9.79 Z8.19 F1200.0
G1 X-9.79 Y-9.79 Z8.19 F1200.0
G1 X7.35 Y-9.79 Z8.19 F1200.0
M108 R40.0
M102
G1 X7.91 Y-9.79 Z8.19 F1200.0
M108 R2.052
M103
(</perimeter>)
(</boundaryPerimeter>)
M108 R4.103
G1 X8.87 Y-2.98 Z8.19 F3300.0
M108 R40.0
M101
G1 X9.09 Y-1.4 Z8.19 F3300.0
M108 R4.103
G1 X9.09 Y-8.84 Z8.19 F2400.0
G1 X-9.09 Y-8.84 Z8.19 F2400.0
G1 X-9.09 Y-2.52 Z8.19 F2400.0
M108 R40.0
M102
G1 X-9.09 Y-1.4 Z8.19 F2400.0
M108 R4.103
M103
G1 X-9.09 Y6.32 Z8.19 F3300.0
M108 R40.0
M101
G1 X-9.09 Y7.91 Z8.19 F3300.0
M108 R4.103
G1 X-9.09 Y-0.93 Z8.19 F2400.0
G1 X-7.12 Y-1.55 Z8.19 F2400.0
G1 X-6.84 Y-1.55 Z8.19 F2400.0
G1 X-2.47 Y-4.65 Z8.19 F2400.0
G1 X-2.19 Y-4.65 Z8.19 F2400.0
G1 X2.19 Y-1.55 Z8.19 F2400.0
G1 X9.09 Y-0.93 Z8.19 F2400.0
G1 X9.09 Y7.91 Z8.19 F2400.0
M103
G1 X9.09 Y8.84 Z8.19 F3300.0
M101
G1 X9.09 Y8.38 Z8.19 F2400.0
G1 X2.47 Y4.65 Z8.19 F2400.0
G1 X2.19 Y4.65 Z8.19 F2400.0
G1 X-2.19 Y7.76 Z8.19 F2400.0
G1 X-2.47 Y7.76 Z8.19 F2400.0
G1 X-6.84 Y4.65 Z8.19 F2400.0
G1 X-7.12 Y4.65 Z8.19 F2400.0
G1 X-9.09 Y8.38 Z8.19 F2400.0
G1 X-9.09 Y8.84 Z8.19 F2400.0
M103
(</surroundingLoop>)
(</layer>)
M73 P67 (display progress)
(<layer> 8.49 )
(<surroundingLoop>)
(<boundaryPerimeter>)
(<boundaryPoint> X-10.0 Y-10.0 Z8.49 </boundaryPoint>)
(<boundaryPoint> X10.0 Y-10.0 Z8.49 </boundaryPoint>)
(<boundaryPoint> X10.0 Y10.0 Z8.49 </boundaryPoint>)
(<boundaryPoint> X-10.0 Y10.0 Z8.49 </boundaryPoint>)
(<loop> outer )
G1 X-9.37 Y9.2 Z8.49 F3300.0
M101
G1 X-9.37 Y8.84 Z8.49 F2400.0
G1 X-9.37 Y-9.37 Z8.49 F2400.0
G1 X9.37 Y-9.37 Z8.49 F2400.0
G1 X9.37 Y9.37 Z8.49 F2400.0
G1 X-9.37 Y9.37 Z8.49 F2400.0
G1 X-9.37 Y9.2 Z8.49 F2400.0
M103
(</loop>)
(<perimeter> outer )
M108 R2.052
G1 X-9.79 Y9.2 Z8.49 F3300.0
M101
G1 X-9.79 Y8.84 Z8.49 F1200.0
G1 X-9.79 Y-9.79 Z8.49 F1200.0
G1 X9.79 Y-9.79 Z8.49 F1200.0
G1 X9.79 Y9.79 Z8.49 F1200.0
G1 X-9.79 Y9.79 Z8.49 F1200.0
G1 X-9.79 Y9.76 Z8.49 F1200.0
M108 R40.0
M102
G1 X-9.79 Y9.2 Z8.49 F1200.0
M108 R2.052
M103
(</perimeter>)
(</boundaryPerimeter>)
M108 R4.103
G1 X-8.93 Y-7.49 Z8.49 F3300.0
M108 R40.0
M101
G1 X-8.84 Y-9.09 Z8.49 F3300.0
M108 R4.103
G1 X-6.05 Y-9.09 Z8.49 F2400.0
G1 X-7.11 Y-1.55 Z8.49 F2400.0
G1 X-7.11 Y4.65 Z8.49 F2400.0
G1 X-6.05 Y9.09 Z8.49 F2400.0
G1 X-7.72 Y9.09 Z8.49 F2400.0
M108 R40.0
M102
G1 X-8.84 Y9.09 Z8.49 F2400.0
M108 R4.103
M103
G1 X-7.18 Y9.09 Z8.49 F3300.0
M108 R40.0
M101
G1 X-5.58 Y9.09 Z8.49 F3300.0
M108 R4.103
G1 X-1.4 Y9.09 Z8.49 F2400.0
G1 X-2.46 Y7.76 Z8.49 F2400.0
G1 X-6.85 Y4.65 Z8.49 F2400.0
G1 X-6.85 Y-1.55 Z8.49 F2400.0
G1 X-2.46 Y-4.65 Z8.49 F2400.0
G1 X-1.4 Y-9.09 Z8.49 F2400.0
G1 X-4.46 Y-9.09 Z8.49 F2400.0
M108 R40.0
M102
G1 X-5.58 Y-9.09 Z8.49 F2400.0
M108 R4.103
M103
G1 X1.66 Y-9.09 Z8.49 F3300.0
M108 R40.0
M101
G1 X3.26 Y-9.09 Z8.49 F3300.0
M108 R4.103
G1 X-0.93 Y-9.09 Z8.49 F2400.0
G1 X-2.2 Y-4.65 Z8.49 F2400.0
G1 X2.2 Y-1.55 Z8.49 F2400.0
G1 X2.2 Y4.65 Z8.49 F2400.0
G1 X-2.2 Y7.76 Z8.49 F2400.0
G1 X-0.93 Y9.09 Z8.49 F2400.0
G1 X2.14 Y9.09 Z8.49 F2400.0
M108 R40.0
M102
G1 X3.26 Y9.09 Z8.49 F2400.0
M108 R4.103
M103
G1 X7.95 Y-7.55 Z8.49 F3300.0
M108 R40.0
M101
G1 X8.38 Y-9.09 Z8.49 F3300.0
M108 R4.103
G1 X8.84 Y-9.09 Z8.49 F2400.0
G1 X8.84 Y9.09 Z8.49 F2400.0
G1 X3.72 Y9.09 Z8.49 F2400.0
G1 X2.46 Y4.65 Z8.49 F2400.0
G1 X2.46 Y-1.55 Z8.49 F2400.0
G1 X3.72 Y-9.09 Z8.49 F2400.0
G1 X7.91 Y-9.09 Z8.49 F2400.0
M103
(</surroundingLoop>)
(</layer>)
M73 P69 (display progress)
(<layer> 8.79 )
(<surroundingLoop>)
(<boundaryPerimeter>)
(<boundaryPoint> X-10.0 Y-10.0 Z8.79 </boundaryPoint>)
(<boundaryPoint> X10.0 Y-10.0 Z8.79 </boundaryPoint>)
(<boundaryPoint> X10.0 Y10.0 Z8.79 </boundaryPoint>)
(<boundaryPoint> X-10.0 Y10.0 Z8.79 </boundaryPoint>)
(<loop> outer )
G1 X8.07 Y-9.37 Z8.79 F3300.0
M101
G1 X9.37 Y-9.37 Z8.79 F2400.0
G1 X9.37 Y9.37 Z8.79 F2400.0
G1 X-9.37 Y9.37 Z8.79 F2400.0
G1 X-9.37 Y-9.37 Z8.79 F2400.0
G1 X7.91 Y-9.37 Z8.79 F2400.0
G1 X8.07 Y-9.37 Z8.79 F2400.0
M103
(</loop>)
(<perimeter> outer )
M108 R2.052
G1 X7.91 Y-9.79 Z8.79 F3300.0
M101
G1 X9.79 Y-9.79 Z8.79 F1200.0
G1 X9.79 Y9.79 Z8.79 F1200.0
G1 X-9.79 Y9.79 Z8.79 F1200.0
G1 X-9.79 Y-9.79 Z8.79 F1200.0
G1 X7.35 Y-9.79 Z8.79 F1200.0
M108 R40.0
M102
G1 X7.91 Y-9.79 Z8.79 F1200.0
M108 R2.052
M103
(</perimeter>)
(</boundaryPerimeter>)
M108 R4.103
G1 X8.87 Y-2.98 Z8.79 F3300.0
M108 R40.0
M101
G1 X9.09 Y-1.4 Z8.79 F3300.0
M108 R4.103
G1 X9.09 Y-8.84 Z8.79 F2400.0
G1 X-9.09 Y-8.84 Z8.79 F2400.0
G1 X-9.09 Y-2.52 Z8.79 F2400.0
M108 R40.0
M102
G1 X-9.09 Y-1.4 Z8.79 F2400.0
M108 R4.103
M103
G1 X-9.09 Y6.32 Z8.79 F3300.0
M108 R40.0
M101
G1 X-9.09 Y7.91 Z8.79 F3300.0
M108 R4.103
G1 X-9.09 Y-0.93 Z8.79 F2400.0
G1 X-7.12 Y-1.55 Z8.79 F2400.0
G1 X-6.84 Y-1.55 Z8.79 F2400.0
G1 X-2.47 Y-4.65 Z8.79 F2400.0
G1 X-2.19 Y-4.65 Z8.79 F2400.0
G1 X2.19 Y-1.55 Z8.79 F2400.0
G1 X9.09 Y-0.93 Z8.79 F2400.0
G1 X9.09 Y7.91 Z8.79 F2400.0
M103
G1 X9.09 Y8.84 Z8.79 F3300.0
M101
G1 X9.09 Y8.38 Z8.79 F2400.0
G1 X2.47 Y4.65 Z8.79 F2400.0
G1 X2.19 Y4.65 Z8.79 F2400.0
G1 X-2.19 Y7.76 Z8.79 F2400.0
G1 X-2.47 Y7.76 Z8.79 F2400.0
G1 X-6.84 Y4.65 Z8.79 F2400.0
G1 X-7.12 Y4.65 Z8.79 F2400.0
G1 X-9.09 Y8.38 Z8.79 F2400.0
G1 X-9.09 Y8.84 Z8.79 F2400.0
M103
(</surroundingLoop>)
(</layer>)
M73 P72 (display progress)
(<layer> 9.09 )
(<surroundingLoop>)
(<boundaryPerimeter>)
(<boundaryPoint> X-10.0 Y-10.0 Z9.09 </boundaryPoint>)
(<boundaryPoint> X10.0 Y-10.0 Z9.09 </boundaryPoint>)
(<boundaryPoint> X10.0 Y10.0 Z9.09 </boundaryPoint>)
(<boundaryPoint> X-10.0 Y10.0 Z9.09 </boundaryPoint>)
(<loop> outer )
G1 X-9.37 Y9.01 Z9.09 F3300.0
M101
G1 X-9.37 Y8.84 Z9.09 F2400.0
G1 X-9.37 Y-9.37 Z9.09 F2400.0
G1 X9.37 Y-9.37 Z9.09 F2400.0
G1 X9.37 Y9.37 Z9.09 F2400.0
G1 X-9.37 Y9.37 Z9.09 F2400.0
G1 X-9.37 Y9.01 Z9.09 F2400.0
M103
(</loop>)
(<perimeter> outer )
M108 R2.052
G1 X-9.79 Y8.84 Z9.09 F3300.0
M101
G1 X-9.79 Y-9.79 Z9.09 F1200.0
G1 X9.79 Y-9.79 Z9.09 F1200.0
G1 X9.79 Y9.79 Z9.09 F1200.0
G1 X-9.79 Y9.79 Z9.09 F1200.0
G1 X-9.79 Y9.4 Z9.09 F1200.0
M108 R40.0
M102
G1 X-9.79 Y8.84 Z9.09 F1200.0
M108 R2.052
M103
(</perimeter>)
(</boundaryPerimeter>)
M108 R4.103
G1 X-8.93 Y-7.49 Z9.09 F3300.0
M108 R40.0
M101
G1 X-8.84 Y-9.09 Z9.09 F3300.0
M108 R4.103
G1 X-6.05 Y-9.09 Z9.09 F2400.0
G1 X-7.11 Y-1.55 Z9.09 F2400.0
G1 X-7.11 Y4.65 Z9.09 F2400.0
G1 X-6.05 Y9.09 Z9.09 F2400.0
G1 X-7.72 Y9.09 Z9.09 F2400.0
M108 R40.0
M102
G1 X-8.84 Y9.09 Z9.09 F2400.0
M108 R4.103
M103
G1 X-7.18 Y9.09 Z9.09 F3300.0
M108 R40.0
M101
G1 X-5.58 Y9.09 Z9.09 F3300.0
M108 R4.103
G1 X-1.4 Y9.09 Z9.09 F2400.0
G1 X-2.46 Y7.76 Z9.09 F2400.0
G1 X-6.85 Y4.65 Z9.09 F2400.0
G1 X-6.85 Y-1.55 Z9.09 F2400.0
G1 X-2.46 Y-4.65 Z9.09 F2400.0
G1 X-1.4 Y-9.09 Z9.09 F2400.0
G1 X-4.46 Y-9.09 Z9.09 F2400.0
M108 R40.0
M102
G1 X-5.58 Y-9.09 Z9.09 F2400.0
M108 R4.103
M103
G1 X1.66 Y-9.09 Z9.09 F3300.0
M108 R40.0
M101
G1 X3.26 Y-9.09 Z9.09 F3300.0
M108 R4.103
G1 X-0.93 Y-9.09 Z9.09 F2400.0
G1 X-2.2 Y-4.65 Z9.09 F2400.0
G1 X2.2 Y-1.55 Z9.09 F2400.0
G1 X2.2 Y4.65 Z9.09 F2400.0
G1 X-2.2 Y7.76 Z9.09 F2400.0
G1 X-0.93 Y9.09 Z9.09 F2400.0
G1 X2.14 Y9.09 Z9.09 F2400.0
M108 R40.0
M102
G1 X3.26 Y9.09 Z9.09 F2400.0
M108 R4.103
M103
G1 X7.95 Y-7.55 Z9.09 F3300.0
M108 R40.0
M101
G1 X8.38 Y-9.09 Z9.09 F3300.0
M108 R4.103
G1 X8.84 Y-9.09 Z9.09 F2400.0
G1 X8.84 Y9.09 Z9.09 F2400.0
G1 X3.72 Y9.09 Z9.09 F2400.0
G1 X2.46 Y4.65 Z9.09 F2400.0
G1 X2.46 Y-1.55 Z9.09 F2400.0
G1 X3.72 Y-9.09 Z9.09 F2400.0
G1 X7.91 Y-9.09 Z9.09 F2400.0
M103
(</surroundingLoop>)
(</layer>)
M73 P75 (display progress)
(<layer> 9.39 )
(<surroundingLoop>)
(<boundaryPerimeter>)
(<boundaryPoint> X-10.0 Y-10.0 Z9.39 </boundaryPoint>)
(<boundaryPoint> X10.0 Y-10.0 Z9.39 </boundaryPoint>)
(<boundaryPoint> X10.0 Y10.0 Z9.39 </boundaryPoint>)
(<boundaryPoint> X-10.0 Y10.0 Z9.39 </boundaryPoint>)
(<loop> outer )
G1 X8.27 Y-9.37 Z9.39 F3300.0
M101
G1 X9.37 Y-9.37 Z9.39 F2400.0
G1 X9.37 Y9.37 Z9.39 F2400.0
G1 X-9.37 Y9.37 Z9.39 F2400.0
G1 X-9.37 Y-9.37 Z9.39 F2400.0
G1 X7.91 Y-9.37 Z9.39 F2400.0
G1 X8.27 Y-9.37 Z9.39 F2400.0
M103
(</loop>)
(<perimeter> outer )
M108 R2.052
G1 X8.27 Y-9.79 Z9.39 F3300.0
M101
G1 X9.79 Y-9.79 Z9.39 F1200.0
G1 X9.79 Y9.79 Z9.39 F1200.0
G1 X-9.79 Y9.79 Z9.39 F1200.0
G1 X-9.79 Y-9.79 Z9.39 F1200.0
G1 X7.71 Y-9.79 Z9.39 F1200.0
M108 R40.0
M102
G1 X7.91 Y-9.79 Z9.39 F1200.0
G1 X8.27 Y-9.79 Z9.39 F1200.0
M108 R2.052
M103
(</perimeter>)
(</boundaryPerimeter>)
M108 R4.103
G1 X8.93 Y-2.98 Z9.39 F3300.0
M108 R40.0
M101
G1 X9.09 Y-1.4 Z9.39 F3300.0
M108 R4.103
G1 X9.09 Y-8.84 Z9.39 F2400.0
G1 X-9.09 Y-8.84 Z9.39 F2400.0
G1 X-9.09 Y-2.52 Z9.39 F2400.0
M108 R40.0
M102
G1 X-9.09 Y-1.4 Z9.39 F2400.0
M108 R4.103
M103
G1 X-9.09 Y6.32 Z9.39 F3300.0
M108 R40.0
M101
G1 X-9.09 Y7.91 Z9.39 F3300.0
M108 R4.103
G1 X-9.09 Y-0.93 Z9.39 F2400.0
G1 X-7.12 Y-1.55 Z9.39 F2400.0
G1 X-6.84 Y-1.55 Z9.39 F2400.0
G1 X-2.47 Y-4.65 Z9.39 F2400.0
G1 X-2.19 Y-4.65 Z9.39 F2400.0
G1 X2.19 Y-1.55 Z9.39 F2400.0
G1 X9.09 Y-0.93 Z9.39 F2400.0
G1 X9.09 Y7.91 Z9.39 F2400.0
M103
G1 X9.09 Y8.84 Z9.39 F3300.0
M101
G1 X9.09 Y8.38 Z9.39 F2400.0
G1 X2.47 Y4.65 Z9.39 F2400.0
G1 X2.19 Y4.65 Z9.39 F2400.0
G1 X-2.19 Y7.76 Z9.39 F2400.0
G1 X-2.47 Y7.76 Z9.39 F2400.0
G1 X-6.84 Y4.65 Z9.39 F2400.0
G1 X-7.12 Y4.65 Z9.39 F2400.0
G1 X-9.09 Y8.38 Z9.39 F2400.0
G1 X-9.09 Y8.84 Z9.39 F2400.0
M103
(</surroundingLoop>)
(</layer>)
M73 P77 (display progress)
(<layer> 9.69 )
(<surroundingLoop>)
(<boundaryPerimeter>)
(<boundaryPoint> X-10.0 Y-10.0 Z9.69 </boundaryPoint>)
(<boundaryPoint> X10.0 Y-10.0 Z9.69 </boundaryPoint>)
(<boundaryPoint> X10.0 Y10.0 Z9.69 </boundaryPoint>)
(<boundaryPoint> X-10.0 Y10.0 Z9.69 </boundaryPoint>)
(<loop> outer )
G1 X-9.37 Y8.81 Z9.69 F3300.0
M101
G1 X-9.37 Y-9.37 Z9.69 F2400.0
G1 X9.37 Y-9.37 Z9.69 F2400.0
G1 X9.37 Y9.37 Z9.69 F2400.0
G1 X-9.37 Y9.37 Z9.69 F2400.0
G1 X-9.37 Y8.84 Z9.69 F2400.0
G1 X-9.37 Y8.81 Z9.69 F2400.0
M103
(</loop>)
(<perimeter> outer )
M108 R2.052
G1 X-9.79 Y8.84 Z9.69 F3300.0
M101
G1 X-9.79 Y-9.79 Z9.69 F1200.0
G1 X9.79 Y-9.79 Z9.69 F1200.0
G1 X9.79 Y9.79 Z9.69 F1200.0
G1 X-9.79 Y9.79 Z9.69 F1200.0
G1 X-9.79 Y9.4 Z9.69 F1200.0
M108 R40.0
M102
G1 X-9.79 Y8.84 Z9.69 F1200.0
M108 R2.052
M103
(</perimeter>)
(</boundaryPerimeter>)
M108 R4.103
G1 X-8.93 Y-7.49 Z9.69 F3300.0
M108 R40.0
M101
G1 X-8.84 Y-9.09 Z9.69 F3300.0
M108 R4.103
G1 X-6.05 Y-9.09 Z9.69 F2400.0
G1 X-7.11 Y-1.55 Z9.69 F2400.0
G1 X-7.11 Y4.65 Z9.69 F2400.0
G1 X-6.05 Y9.09 Z9.69 F2400.0
G1 X-7.72 Y9.09 Z9.69 F2400.0
M108 R40.0
M102
G1 X-8.84 Y9.09 Z9.69 F2400.0
M108 R4.103
M103
G1 X-7.18 Y9.09 Z9.69 F3300.0
M108 R40.0
M101
G1 X-5.58 Y9.09 Z9.69 F3300.0
M108 R4.103
G1 X-1.4 Y9.09 Z9.69 F2400.0
G1 X-2.46 Y7.76 Z9.69 F2400.0
G1 X-6.85 Y4.65 Z9.69 F2400.0
G1 X-6.85 Y-1.55 Z9.69 F2400.0
G1 X-2.46 Y-4.65 Z9.69 F2400.0
G1 X-1.4 Y-9.09 Z9.69 F2400.0
G1 X-4.46 Y-9.09 Z9.69 F2400.0
M108 R40.0
M102
G1 X-5.58 Y-9.09 Z9.69 F2400.0
M108 R4.103
M103
G1 X1.66 Y-9.09 Z9.69 F3300.0
M108 R40.0
M101
G1 X3.26 Y-9.09 Z9.69 F3300.0
M108 R4.103
G1 X-0.93 Y-9.09 Z9.69 F2400.0
G1 X-2.2 Y-4.65 Z9.69 F2400.0
G1 X2.2 Y-1.55 Z9.69 F2400.0
G1 X2.2 Y4.65 Z9.69 F2400.0
G1 X-2.2 Y7.76 Z9.69 F2400.0
G1 X-0.93 Y9.09 Z9.69 F2400.0
G1 X2.14 Y9.09 Z9.69 F2400.0
M108 R40.0
M102
G1 X3.26 Y9.09 Z9.69 F2400.0
M108 R4.103
M103
G1 X7.95 Y-7.55 Z9.69 F3300.0
M108 R40.0
M101
G1 X8.38 Y-9.09 Z9.69 F3300.0
M108 R4.103
G1 X8.84 Y-9.09 Z9.69 F2400.0
G1 X8.84 Y9.09 Z9.69 F2400.0
G1 X3.72 Y9.09 Z9.69 F2400.0
G1 X2.46 Y4.65 Z9.69 F2400.0
G1 X2.46 Y-1.55 Z9.69 F2400.0
G1 X3.72 Y-9.09 Z9.69 F2400.0
G1 X7.91 Y-9.09 Z9.69 F2400.0
M103
(</surroundingLoop>)
(</layer>)
M73 P80 (display progress)
(<layer> 9.99 )
(<surroundingLoop>)
(<boundaryPerimeter>)
(<boundaryPoint> X-10.0 Y-10.0 Z9.99 </boundaryPoint>)
(<boundaryPoint> X10.0 Y-10.0 Z9.99 </boundaryPoint>)
(<boundaryPoint> X10.0 Y10.0 Z9.99 </boundaryPoint>)
(<boundaryPoint> X-10.0 Y10.0 Z9.99 </boundaryPoint>)
(<loop> outer )
G1 X7.63 Y-9.37 Z9.99 F3300.0
M101
G1 X7.91 Y-9.37 Z9.99 F2400.0
G1 X9.37 Y-9.37 Z9.99 F2400.0
G1 X9.37 Y9.37 Z9.99 F2400.0
G1 X-9.37 Y9.37 Z9.99 F2400.0
G1 X-9.37 Y-9.37 Z9.99 F2400.0
G1 X7.63 Y-9.37 Z9.99 F2400.0
M103
(</loop>)
(<perimeter> outer )
M108 R2.052
G1 X7.63 Y-9.79 Z9.99 F3300.0
M101
G1 X7.91 Y-9.79 Z9.99 F1200.0
G1 X9.79 Y-9.79 Z9.99 F1200.0
G1 X9.79 Y9.79 Z9.99 F1200.0
G1 X-9.79 Y9.79 Z9.99 F1200.0
G1 X-9.79 Y-9.79 Z9.99 F1200.0
G1 X7.07 Y-9.79 Z9.99 F1200.0
M108 R40.0
M102
G1 X7.63 Y-9.79 Z9.99 F1200.0
M108 R2.052
M103
(</perimeter>)
(</boundaryPerimeter>)
M108 R4.103
G1 X8.81 Y-2.97 Z9.99 F3300.0
M108 R40.0
M101
G1 X9.09 Y-1.4 Z9.99 F3300.0
M108 R4.103
G1 X9.09 Y-8.84 Z9.99 F2400.0
G1 X-9.09 Y-8.84 Z9.99 F2400.0
G1 X-9.09 Y-2.52 Z9.99 F2400.0
M108 R40.0
M102
G1 X-9.09 Y-1.4 Z9.99 F2400.0
M108 R4.103
M103
G1 X-9.09 Y6.32 Z9.99 F3300.0
M108 R40.0
M101
G1 X-9.09 Y7.91 Z9.99 F3300.0
M108 R4.103
G1 X-9.09 Y-0.93 Z9.99 F2400.0
G1 X-7.12 Y-1.55 Z9.99 F2400.0
G1 X-6.84 Y-1.55 Z9.99 F2400.0
G1 X-2.47 Y-4.65 Z9.99 F2400.0
G1 X-2.19 Y-4.65 Z9.99 F2400.0
G1 X2.19 Y-1.55 Z9.99 F2400.0
G1 X9.09 Y-0.93 Z9.99 F2400.0
G1 X9.09 Y7.91 Z9.99 F2400.0
M103
G1 X9.09 Y8.84 Z9.99 F3300.0
M101
G1 X9.09 Y8.38 Z9.99 F2400.0
G1 X2.47 Y4.65 Z9.99 F2400.0
G1 X2.19 Y4.65 Z9.99 F2400.0
G1 X-2.19 Y7.76 Z9.99 F2400.0
G1 X-2.47 Y7.76 Z9.99 F2400.0
G1 X-6.84 Y4.65 Z9.99 F2400.0
G1 X-7.12 Y4.65 Z9.99 F2400.0
G1 X-9.09 Y8.38 Z9.99 F2400.0
G1 X-9.09 Y8.84 Z9.99 F2400.0
M103
(</surroundingLoop>)
(</layer>)
M73 P82 (display progress)
(<layer> 10.29 )
(<surroundingLoop>)
(<boundaryPerimeter>)
(<boundaryPoint> X-10.0 Y-10.0 Z10.29 </boundaryPoint>)
(<boundaryPoint> X10.0 Y-10.0 Z10.29 </boundaryPoint>)
(<boundaryPoint> X10.0 Y10.0 Z10.29 </boundaryPoint>)
(<boundaryPoint> X-10.0 Y10.0 Z10.29 </boundaryPoint>)
(<loop> outer )
G1 X-9.37 Y8.61 Z10.29 F3300.0
M101
G1 X-9.37 Y-9.37 Z10.29 F2400.0
G1 X9.37 Y-9.37 Z10.29 F2400.0
G1 X9.37 Y9.37 Z10.29 F2400.0
G1 X-9.37 Y9.37 Z10.29 F2400.0
G1 X-9.37 Y8.84 Z10.29 F2400.0
G1 X-9.37 Y8.61 Z10.29 F2400.0
M103
(</loop>)
(<perimeter> outer )
M108 R2.052
G1 X-9.79 Y8.61 Z10.29 F3300.0
M101
G1 X-9.79 Y-9.79 Z10.29 F1200.0
G1 X9.79 Y-9.79 Z10.29 F1200.0
G1 X9.79 Y9.79 Z10.29 F1200.0
G1 X-9.79 Y9.79 Z10.29 F1200.0
G1 X-9.79 Y9.17 Z10.29 F1200.0
M108 R40.0
M102
G1 X-9.79 Y8.84 Z10.29 F1200.0
G1 X-9.79 Y8.61 Z10.29 F1200.0
M108 R2.052
M103
(</perimeter>)
(</boundaryPerimeter>)
M108 R4.103
G1 X-8.93 Y-7.49 Z10.29 F3300.0
M108 R40.0
M101
G1 X-8.84 Y-9.09 Z10.29 F3300.0
M108 R4.103
G1 X-6.05 Y-9.09 Z10.29 F2400.0
G1 X-7.11 Y-1.55 Z10.29 F2400.0
G1 X-7.11 Y4.65 Z10.29 F2400.0
G1 X-6.05 Y9.09 Z10.29 F2400.0
G1 X-7.72 Y9.09 Z10.29 F2400.0
M108 R40.0
M102
G1 X-8.84 Y9.09 Z10.29 F2400.0
M108 R4.103
M103
G1 X-7.18 Y9.09 Z10.29 F3300.0
M108 R40.0
M101
G1 X-5.58 Y9.09 Z10.29 F3300.0
M108 R4.103
G1 X-1.4 Y9.09 Z10.29 F2400.0
G1 X-2.46 Y7.76 Z10.29 F2400.0
G1 X-6.85 Y4.65 Z10.29 F2400.0
G1 X-6.85 Y-1.55 Z10.29 F2400.0
G1 X-2.46 Y-4.65 Z10.29 F2400.0
G1 X-1.4 Y-9.09 Z10.29 F2400.0
G1 X-4.46 Y-9.09 Z10.29 F2400.0
M108 R40.0
M102
G1 X-5.58 Y-9.09 Z10.29 F2400.0
M108 R4.103
M103
G1 X1.66 Y-9.09 Z10.29 F3300.0
M108 R40.0
M101
G1 X3.26 Y-9.09 Z10.29 F3300.0
M108 R4.103
G1 X-0.93 Y-9.09 Z10.29 F2400.0
G1 X-2.2 Y-4.65 Z10.29 F2400.0
G1 X2.2 Y-1.55 Z10.29 F2400.0
G1 X2.2 Y4.65 Z10.29 F2400.0
G1 X-2.2 Y7.76 Z10.29 F2400.0
G1 X-0.93 Y9.09 Z10.29 F2400.0
G1 X2.14 Y9.09 Z10.29 F2400.0
M108 R40.0
M102
G1 X3.26 Y9.09 Z10.29 F2400.0
M108 R4.103
M103
G1 X7.95 Y-7.55 Z10.29 F3300.0
M108 R40.0
M101
G1 X8.38 Y-9.09 Z10.29 F3300.0
M108 R4.103
G1 X8.84 Y-9.09 Z10.29 F2400.0
G1 X8.84 Y9.09 Z10.29 F2400.0
G1 X3.72 Y9.09 Z10.29 F2400.0
G1 X2.46 Y4.65 Z10.29 F2400.0
G1 X2.46 Y-1.55 Z10.29 F2400.0
G1 X3.72 Y-9.09 Z10.29 F2400.0
G1 X7.91 Y-9.09 Z10.29 F2400.0
M103
(</surroundingLoop>)
(</layer>)
M73 P85 (display progress)
(<layer> 10.59 )
(<surroundingLoop>)
(<boundaryPerimeter>)
(<boundaryPoint> X-10.0 Y-10.0 Z10.59 </boundaryPoint>)
(<boundaryPoint> X10.0 Y-10.0 Z10.59 </boundaryPoint>)
(<boundaryPoint> X10.0 Y10.0 Z10.59 </boundaryPoint>)
(<boundaryPoint> X-10.0 Y10.0 Z10.59 </boundaryPoint>)
(<loop> outer )
G1 X7.82 Y-9.37 Z10.59 F3300.0
M101
G1 X7.91 Y-9.37 Z10.59 F2400.0
G1 X9.37 Y-9.37 Z10.59 F2400.0
G1 X9.37 Y9.37 Z10.59 F2400.0
G1 X-9.37 Y9.37 Z10.59 F2400.0
G1 X-9.37 Y-9.37 Z10.59 F2400.0
G1 X7.82 Y-9.37 Z10.59 F2400.0
M103
(</loop>)
(<perimeter> outer )
M108 R2.052
G1 X7.91 Y-9.79 Z10.59 F3300.0
M101
G1 X9.79 Y-9.79 Z10.59 F1200.0
G1 X9.79 Y9.79 Z10.59 F1200.0
G1 X-9.79 Y9.79 Z10.59 F1200.0
G1 X-9.79 Y-9.79 Z10.59 F1200.0
G1 X7.35 Y-9.79 Z10.59 F1200.0
M108 R40.0
M102
G1 X7.91 Y-9.79 Z10.59 F1200.0
M108 R2.052
M103
(</perimeter>)
(</boundaryPerimeter>)
M108 R4.103
G1 X8.87 Y-2.98 Z10.59 F3300.0
M108 R40.0
M101
G1 X9.09 Y-1.4 Z10.59 F3300.0
M108 R4.103
G1 X9.09 Y-8.84 Z10.59 F2400.0
G1 X-9.09 Y-8.84 Z10.59 F2400.0
G1 X-9.09 Y-2.52 Z10.59 F2400.0
M108 R40.0
M102
G1 X-9.09 Y-1.4 Z10.59 F2400.0
M108 R4.103
M103
G1 X-9.09 Y6.32 Z10.59 F3300.0
M108 R40.0
M101
G1 X-9.09 Y7.91 Z10.59 F3300.0
M108 R4.103
G1 X-9.09 Y-0.93 Z10.59 F2400.0
G1 X-7.12 Y-1.55 Z10.59 F2400.0
G1 X-6.84 Y-1.55 Z10.59 F2400.0
G1 X-2.47 Y-4.65 Z10.59 F2400.0
G1 X-2.19 Y-4.65 Z10.59 F2400.0
G1 X2.19 Y-1.55 Z10.59 F2400.0
G1 X9.09 Y-0.93 Z10.59 F2400.0
G1 X9.09 Y7.91 Z10.59 F2400.0
M103
G1 X9.09 Y8.84 Z10.59 F3300.0
M101
G1 X9.09 Y8.38 Z10.59 F2400.0
G1 X2.47 Y4.65 Z10.59 F2400.0
G1 X2.19 Y4.65 Z10.59 F2400.0
G1 X-2.19 Y7.76 Z10.59 F2400.0
G1 X-2.47 Y7.76 Z10.59 F2400.0
G1 X-6.84 Y4.65 Z10.59 F2400.0
G1 X-7.12 Y4.65 Z10.59 F2400.0
G1 X-9.09 Y8.38 Z10.59 F2400.0
G1 X-9.09 Y8.84 Z10.59 F2400.0
M103
(</surroundingLoop>)
(</layer>)
M73 P88 (display progress)
(<layer> 10.89 )
(<surroundingLoop>)
(<boundaryPerimeter>)
(<boundaryPoint> X-10.0 Y-10.0 Z10.89 </boundaryPoint>)
(<boundaryPoint> X10.0 Y-10.0 Z10.89 </boundaryPoint>)
(<boundaryPoint> X10.0 Y10.0 Z10.89 </boundaryPoint>)
(<boundaryPoint> X-10.0 Y10.0 Z10.89 </boundaryPoint>)
(<loop> outer )
G1 X-9.37 Y9.25 Z10.89 F3300.0
M101
G1 X-9.37 Y8.84 Z10.89 F2400.0
G1 X-9.37 Y-9.37 Z10.89 F2400.0
G1 X9.37 Y-9.37 Z10.89 F2400.0
G1 X9.37 Y9.37 Z10.89 F2400.0
G1 X-9.37 Y9.37 Z10.89 F2400.0
G1 X-9.37 Y9.25 Z10.89 F2400.0
M103
(</loop>)
(<perimeter> outer )
M108 R2.052
G1 X-9.79 Y9.25 Z10.89 F3300.0
M101
G1 X-9.79 Y8.84 Z10.89 F1200.0
G1 X-9.79 Y-9.79 Z10.89 F1200.0
G1 X9.79 Y-9.79 Z10.89 F1200.0
G1 X9.79 Y9.79 Z10.89 F1200.0
G1 X-9.77 Y9.79 Z10.89 F1200.0
M108 R40.0
M102
G1 X-9.79 Y9.79 Z10.89 F1200.0
G1 X-9.79 Y9.25 Z10.89 F1200.0
M108 R2.052
M103
(</perimeter>)
(</boundaryPerimeter>)
M108 R4.103
G1 X7.66 Y-7.97 Z10.89 F3300.0
M108 R40.0
M101
G1 X8.8 Y-9.09 Z10.89 F3300.0
M108 R4.103
G1 X8.8 Y9.09 Z10.89 F2400.0
G1 X8.38 Y9.09 Z10.89 F2400.0
G1 X8.38 Y-9.09 Z10.89 F2400.0
G1 X7.96 Y-9.09 Z10.89 F2400.0
G1 X7.96 Y9.09 Z10.89 F2400.0
G1 X7.54 Y9.09 Z10.89 F2400.0
G1 X7.54 Y-9.09 Z10.89 F2400.0
G1 X7.12 Y-9.09 Z10.89 F2400.0
G1 X7.12 Y9.09 Z10.89 F2400.0
G1 X6.7 Y9.09 Z10.89 F2400.0
G1 X6.7 Y-9.09 Z10.89 F2400.0
G1 X6.28 Y-9.09 Z10.89 F2400.0
G1 X6.28 Y9.09 Z10.89 F2400.0
G1 X5.86 Y9.09 Z10.89 F2400.0
G1 X5.86 Y-9.09 Z10.89 F2400.0
G1 X5.45 Y-9.09 Z10.89 F2400.0
G1 X5.45 Y9.09 Z10.89 F2400.0
G1 X5.03 Y9.09 Z10.89 F2400.0
G1 X5.03 Y-9.09 Z10.89 F2400.0
G1 X4.61 Y-9.09 Z10.89 F2400.0
G1 X4.61 Y9.09 Z10.89 F2400.0
G1 X4.19 Y9.09 Z10.89 F2400.0
G1 X4.19 Y-9.09 Z10.89 F2400.0
G1 X3.77 Y-9.09 Z10.89 F2400.0
G1 X3.77 Y9.09 Z10.89 F2400.0
G1 X3.35 Y9.09 Z10.89 F2400.0
G1 X3.35 Y-9.09 Z10.89 F2400.0
G1 X2.93 Y-9.09 Z10.89 F2400.0
G1 X2.93 Y9.09 Z10.89 F2400.0
G1 X2.51 Y9.09 Z10.89 F2400.0
G1 X2.51 Y-9.09 Z10.89 F2400.0
G1 X2.09 Y-9.09 Z10.89 F2400.0
G1 X2.09 Y9.09 Z10.89 F2400.0
G1 X1.68 Y9.09 Z10.89 F2400.0
G1 X1.68 Y-9.09 Z10.89 F2400.0
G1 X1.26 Y-9.09 Z10.89 F2400.0
G1 X1.26 Y9.09 Z10.89 F2400.0
G1 X0.84 Y9.09 Z10.89 F2400.0
G1 X0.84 Y-9.09 Z10.89 F2400.0
G1 X0.42 Y-9.09 Z10.89 F2400.0
G1 X0.42 Y9.09 Z10.89 F2400.0
G1 X0.0 Y9.09 Z10.89 F2400.0
G1 X-0.0 Y-9.09 Z10.89 F2400.0
G1 X-0.42 Y-9.09 Z10.89 F2400.0
G1 X-0.42 Y9.09 Z10.89 F2400.0
G1 X-0.84 Y9.09 Z10.89 F2400.0
G1 X-0.84 Y-9.09 Z10.89 F2400.0
G1 X-1.26 Y-9.09 Z10.89 F2400.0
G1 X-1.26 Y9.09 Z10.89 F2400.0
G1 X-1.68 Y9.09 Z10.89 F2400.0
G1 X-1.68 Y-9.09 Z10.89 F2400.0
G1 X-2.09 Y-9.09 Z10.89 F2400.0
G1 X-2.09 Y9.09 Z10.89 F2400.0
G1 X-2.51 Y9.09 Z10.89 F2400.0
G1 X-2.51 Y-9.09 Z10.89 F2400.0
G1 X-2.93 Y-9.09 Z10.89 F2400.0
G1 X-2.93 Y9.09 Z10.89 F2400.0
G1 X-3.35 Y9.09 Z10.89 F2400.0
G1 X-3.35 Y-9.09 Z10.89 F2400.0
G1 X-3.77 Y-9.09 Z10.89 F2400.0
G1 X-3.77 Y9.09 Z10.89 F2400.0
G1 X-4.19 Y9.09 Z10.89 F2400.0
G1 X-4.19 Y-9.09 Z10.89 F2400.0
G1 X-4.61 Y-9.09 Z10.89 F2400.0
G1 X-4.61 Y9.09 Z10.89 F2400.0
G1 X-5.03 Y9.09 Z10.89 F2400.0
G1 X-5.03 Y-9.09 Z10.89 F2400.0
G1 X-5.45 Y-9.09 Z10.89 F2400.0
G1 X-5.45 Y9.09 Z10.89 F2400.0
G1 X-5.86 Y9.09 Z10.89 F2400.0
G1 X-5.86 Y-9.09 Z10.89 F2400.0
G1 X-6.28 Y-9.09 Z10.89 F2400.0
G1 X-6.28 Y9.09 Z10.89 F2400.0
G1 X-6.7 Y9.09 Z10.89 F2400.0
G1 X-6.7 Y-9.09 Z10.89 F2400.0
G1 X-7.12 Y-9.09 Z10.89 F2400.0
G1 X-7.12 Y9.09 Z10.89 F2400.0
G1 X-7.54 Y9.09 Z10.89 F2400.0
G1 X-7.54 Y-9.09 Z10.89 F2400.0
G1 X-7.96 Y-9.09 Z10.89 F2400.0
G1 X-7.96 Y9.09 Z10.89 F2400.0
G1 X-8.38 Y9.09 Z10.89 F2400.0
G1 X-8.38 Y-9.09 Z10.89 F2400.0
G1 X-8.8 Y-9.09 Z10.89 F2400.0
G1 X-8.8 Y9.09 Z10.89 F2400.0
M103
(</surroundingLoop>)
(</layer>)
M73 P91 (display progress)
(<layer> 11.19 )
(<surroundingLoop>)
(<boundaryPerimeter>)
(<boundaryPoint> X-10.0 Y-10.0 Z11.19 </boundaryPoint>)
(<boundaryPoint> X10.0 Y-10.0 Z11.19 </boundaryPoint>)
(<boundaryPoint> X10.0 Y10.0 Z11.19 </boundaryPoint>)
(<boundaryPoint> X-10.0 Y10.0 Z11.19 </boundaryPoint>)
(<loop> outer )
G1 X-8.91 Y9.37 Z11.19 F3300.0
M101
G1 X-9.37 Y9.37 Z11.19 F2400.0
G1 X-9.37 Y-9.37 Z11.19 F2400.0
G1 X9.37 Y-9.37 Z11.19 F2400.0
G1 X9.37 Y9.37 Z11.19 F2400.0
G1 X-8.8 Y9.37 Z11.19 F2400.0
G1 X-8.91 Y9.37 Z11.19 F2400.0
M103
(</loop>)
(<perimeter> outer )
M108 R2.052
G1 X-8.8 Y9.79 Z11.19 F3300.0
M101
G1 X-9.79 Y9.79 Z11.19 F1200.0
G1 X-9.79 Y-9.79 Z11.19 F1200.0
G1 X9.79 Y-9.79 Z11.19 F1200.0
G1 X9.79 Y9.79 Z11.19 F1200.0
G1 X-8.24 Y9.79 Z11.19 F1200.0
M108 R40.0
M102
G1 X-8.8 Y9.79 Z11.19 F1200.0
M108 R2.052
M103
(</perimeter>)
(</boundaryPerimeter>)
M108 R4.103
G1 X7.49 Y8.88 Z11.19 F3300.0
M108 R40.0
M101
G1 X9.09 Y8.8 Z11.19 F3300.0
M108 R4.103
G1 X-9.09 Y8.8 Z11.19 F2400.0
G1 X-9.09 Y8.38 Z11.19 F2400.0
G1 X9.09 Y8.38 Z11.19 F2400.0
G1 X9.09 Y7.96 Z11.19 F2400.0
G1 X-9.09 Y7.96 Z11.19 F2400.0
G1 X-9.09 Y7.54 Z11.19 F2400.0
G1 X9.09 Y7.54 Z11.19 F2400.0
G1 X9.09 Y7.12 Z11.19 F2400.0
G1 X-9.09 Y7.12 Z11.19 F2400.0
G1 X-9.09 Y6.7 Z11.19 F2400.0
G1 X9.09 Y6.7 Z11.19 F2400.0
G1 X9.09 Y6.28 Z11.19 F2400.0
G1 X-9.09 Y6.28 Z11.19 F2400.0
G1 X-9.09 Y5.86 Z11.19 F2400.0
G1 X9.09 Y5.86 Z11.19 F2400.0
G1 X9.09 Y5.45 Z11.19 F2400.0
G1 X-9.09 Y5.45 Z11.19 F2400.0
G1 X-9.09 Y5.03 Z11.19 F2400.0
G1 X9.09 Y5.03 Z11.19 F2400.0
G1 X9.09 Y4.61 Z11.19 F2400.0
G1 X-9.09 Y4.61 Z11.19 F2400.0
G1 X-9.09 Y4.19 Z11.19 F2400.0
G1 X9.09 Y4.19 Z11.19 F2400.0
G1 X9.09 Y3.77 Z11.19 F2400.0
G1 X-9.09 Y3.77 Z11.19 F2400.0
G1 X-9.09 Y3.35 Z11.19 F2400.0
G1 X9.09 Y3.35 Z11.19 F2400.0
G1 X9.09 Y2.93 Z11.19 F2400.0
G1 X-9.09 Y2.93 Z11.19 F2400.0
G1 X-9.09 Y2.51 Z11.19 F2400.0
G1 X9.09 Y2.51 Z11.19 F2400.0
G1 X9.09 Y2.09 Z11.19 F2400.0
G1 X-9.09 Y2.09 Z11.19 F2400.0
G1 X-9.09 Y1.68 Z11.19 F2400.0
G1 X9.09 Y1.68 Z11.19 F2400.0
G1 X9.09 Y1.26 Z11.19 F2400.0
G1 X-9.09 Y1.26 Z11.19 F2400.0
G1 X-9.09 Y0.84 Z11.19 F2400.0
G1 X9.09 Y0.84 Z11.19 F2400.0
G1 X9.09 Y0.42 Z11.19 F2400.0
G1 X-9.09 Y0.42 Z11.19 F2400.0
G1 X-9.09 Y0.0 Z11.19 F2400.0
G1 X9.09 Y-0.0 Z11.19 F2400.0
G1 X9.09 Y-0.42 Z11.19 F2400.0
G1 X-9.09 Y-0.42 Z11.19 F2400.0
G1 X-9.09 Y-0.84 Z11.19 F2400.0
G1 X9.09 Y-0.84 Z11.19 F2400.0
G1 X9.09 Y-1.26 Z11.19 F2400.0
G1 X-9.09 Y-1.26 Z11.19 F2400.0
G1 X-9.09 Y-1.68 Z11.19 F2400.0
G1 X9.09 Y-1.68 Z11.19 F2400.0
G1 X9.09 Y-2.09 Z11.19 F2400.0
G1 X-9.09 Y-2.09 Z11.19 F2400.0
G1 X-9.09 Y-2.51 Z11.19 F2400.0
G1 X9.09 Y-2.51 Z11.19 F2400.0
G1 X9.09 Y-2.93 Z11.19 F2400.0
G1 X-9.09 Y-2.93 Z11.19 F2400.0
G1 X-9.09 Y-3.35 Z11.19 F2400.0
G1 X9.09 Y-3.35 Z11.19 F2400.0
G1 X9.09 Y-3.77 Z11.19 F2400.0
G1 X-9.09 Y-3.77 Z11.19 F2400.0
G1 X-9.09 Y-4.19 Z11.19 F2400.0
G1 X9.09 Y-4.19 Z11.19 F2400.0
G1 X9.09 Y-4.61 Z11.19 F2400.0
G1 X-9.09 Y-4.61 Z11.19 F2400.0
G1 X-9.09 Y-5.03 Z11.19 F2400.0
G1 X9.09 Y-5.03 Z11.19 F2400.0
G1 X9.09 Y-5.45 Z11.19 F2400.0
G1 X-9.09 Y-5.45 Z11.19 F2400.0
G1 X-9.09 Y-5.86 Z11.19 F2400.0
G1 X9.09 Y-5.86 Z11.19 F2400.0
G1 X9.09 Y-6.28 Z11.19 F2400.0
G1 X-9.09 Y-6.28 Z11.19 F2400.0
G1 X-9.09 Y-6.7 Z11.19 F2400.0
G1 X9.09 Y-6.7 Z11.19 F2400.0
G1 X9.09 Y-7.12 Z11.19 F2400.0
G1 X-9.09 Y-7.12 Z11.19 F2400.0
G1 X-9.09 Y-7.54 Z11.19 F2400.0
G1 X9.09 Y-7.54 Z11.19 F2400.0
G1 X9.09 Y-7.96 Z11.19 F2400.0
G1 X-9.09 Y-7.96 Z11.19 F2400.0
G1 X-9.09 Y-8.38 Z11.19 F2400.0
G1 X9.09 Y-8.38 Z11.19 F2400.0
G1 X9.09 Y-8.8 Z11.19 F2400.0
G1 X-9.09 Y-8.8 Z11.19 F2400.0
M103
(</surroundingLoop>)
(</layer>)
M73 P95 (display progress)
(<layer> 11.49 )
(<surroundingLoop>)
(<boundaryPerimeter>)
(<boundaryPoint> X-10.0 Y-10.0 Z11.49 </boundaryPoint>)
(<boundaryPoint> X10.0 Y-10.0 Z11.49 </boundaryPoint>)
(<boundaryPoint> X10.0 Y10.0 Z11.49 </boundaryPoint>)
(<boundaryPoint> X-10.0 Y10.0 Z11.49 </boundaryPoint>)
(<loop> outer )
G1 X-9.37 Y-8.59 Z11.49 F3300.0
M101
G1 X-9.37 Y-8.8 Z11.49 F2400.0
G1 X-9.37 Y-9.37 Z11.49 F2400.0
G1 X9.37 Y-9.37 Z11.49 F2400.0
G1 X9.37 Y9.37 Z11.49 F2400.0
G1 X-9.37 Y9.37 Z11.49 F2400.0
G1 X-9.37 Y-8.59 Z11.49 F2400.0
M103
(</loop>)
(<perimeter> outer )
M108 R2.052
G1 X-9.79 Y-8.59 Z11.49 F3300.0
M101
G1 X-9.79 Y-8.8 Z11.49 F1200.0
G1 X-9.79 Y-9.79 Z11.49 F1200.0
G1 X9.79 Y-9.79 Z11.49 F1200.0
G1 X9.79 Y9.79 Z11.49 F1200.0
G1 X-9.79 Y9.79 Z11.49 F1200.0
G1 X-9.79 Y-8.03 Z11.49 F1200.0
M108 R40.0
M102
G1 X-9.79 Y-8.59 Z11.49 F1200.0
M108 R2.052
M103
(</perimeter>)
(</boundaryPerimeter>)
M108 R4.103
G1 X7.2 Y-9.04 Z11.49 F3300.0
M108 R40.0
M101
G1 X8.8 Y-9.09 Z11.49 F3300.0
M108 R4.103
G1 X8.8 Y9.09 Z11.49 F2400.0
G1 X8.38 Y9.09 Z11.49 F2400.0
G1 X8.38 Y-9.09 Z11.49 F2400.0
G1 X7.96 Y-9.09 Z11.49 F2400.0
G1 X7.96 Y9.09 Z11.49 F2400.0
G1 X7.54 Y9.09 Z11.49 F2400.0
G1 X7.54 Y-9.09 Z11.49 F2400.0
G1 X7.12 Y-9.09 Z11.49 F2400.0
G1 X7.12 Y9.09 Z11.49 F2400.0
G1 X6.7 Y9.09 Z11.49 F2400.0
G1 X6.7 Y-9.09 Z11.49 F2400.0
G1 X6.28 Y-9.09 Z11.49 F2400.0
G1 X6.28 Y9.09 Z11.49 F2400.0
G1 X5.86 Y9.09 Z11.49 F2400.0
G1 X5.86 Y-9.09 Z11.49 F2400.0
G1 X5.45 Y-9.09 Z11.49 F2400.0
G1 X5.45 Y9.09 Z11.49 F2400.0
G1 X5.03 Y9.09 Z11.49 F2400.0
G1 X5.03 Y-9.09 Z11.49 F2400.0
G1 X4.61 Y-9.09 Z11.49 F2400.0
G1 X4.61 Y9.09 Z11.49 F2400.0
G1 X4.19 Y9.09 Z11.49 F2400.0
G1 X4.19 Y-9.09 Z11.49 F2400.0
G1 X3.77 Y-9.09 Z11.49 F2400.0
G1 X3.77 Y9.09 Z11.49 F2400.0
G1 X3.35 Y9.09 Z11.49 F2400.0
G1 X3.35 Y-9.09 Z11.49 F2400.0
G1 X2.93 Y-9.09 Z11.49 F2400.0
G1 X2.93 Y9.09 Z11.49 F2400.0
G1 X2.51 Y9.09 Z11.49 F2400.0
G1 X2.51 Y-9.09 Z11.49 F2400.0
G1 X2.09 Y-9.09 Z11.49 F2400.0
G1 X2.09 Y9.09 Z11.49 F2400.0
G1 X1.68 Y9.09 Z11.49 F2400.0
G1 X1.68 Y-9.09 Z11.49 F2400.0
G1 X1.26 Y-9.09 Z11.49 F2400.0
G1 X1.26 Y9.09 Z11.49 F2400.0
G1 X0.84 Y9.09 Z11.49 F2400.0
G1 X0.84 Y-9.09 Z11.49 F2400.0
G1 X0.42 Y-9.09 Z11.49 F2400.0
G1 X0.42 Y9.09 Z11.49 F2400.0
G1 X0.0 Y9.09 Z11.49 F2400.0
G1 X-0.0 Y-9.09 Z11.49 F2400.0
G1 X-0.42 Y-9.09 Z11.49 F2400.0
G1 X-0.42 Y9.09 Z11.49 F2400.0
G1 X-0.84 Y9.09 Z11.49 F2400.0
G1 X-0.84 Y-9.09 Z11.49 F2400.0
G1 X-1.26 Y-9.09 Z11.49 F2400.0
G1 X-1.26 Y9.09 Z11.49 F2400.0
G1 X-1.68 Y9.09 Z11.49 F2400.0
G1 X-1.68 Y-9.09 Z11.49 F2400.0
G1 X-2.09 Y-9.09 Z11.49 F2400.0
G1 X-2.09 Y9.09 Z11.49 F2400.0
G1 X-2.51 Y9.09 Z11.49 F2400.0
G1 X-2.51 Y-9.09 Z11.49 F2400.0
G1 X-2.93 Y-9.09 Z11.49 F2400.0
G1 X-2.93 Y9.09 Z11.49 F2400.0
G1 X-3.35 Y9.09 Z11.49 F2400.0
G1 X-3.35 Y-9.09 Z11.49 F2400.0
G1 X-3.77 Y-9.09 Z11.49 F2400.0
G1 X-3.77 Y9.09 Z11.49 F2400.0
G1 X-4.19 Y9.09 Z11.49 F2400.0
G1 X-4.19 Y-9.09 Z11.49 F2400.0
G1 X-4.61 Y-9.09 Z11.49 F2400.0
G1 X-4.61 Y9.09 Z11.49 F2400.0
G1 X-5.03 Y9.09 Z11.49 F2400.0
G1 X-5.03 Y-9.09 Z11.49 F2400.0
G1 X-5.45 Y-9.09 Z11.49 F2400.0
G1 X-5.45 Y9.09 Z11.49 F2400.0
G1 X-5.86 Y9.09 Z11.49 F2400.0
G1 X-5.86 Y-9.09 Z11.49 F2400.0
G1 X-6.28 Y-9.09 Z11.49 F2400.0
G1 X-6.28 Y9.09 Z11.49 F2400.0
G1 X-6.7 Y9.09 Z11.49 F2400.0
G1 X-6.7 Y-9.09 Z11.49 F2400.0
G1 X-7.12 Y-9.09 Z11.49 F2400.0
G1 X-7.12 Y9.09 Z11.49 F2400.0
G1 X-7.54 Y9.09 Z11.49 F2400.0
G1 X-7.54 Y-9.09 Z11.49 F2400.0
G1 X-7.96 Y-9.09 Z11.49 F2400.0
G1 X-7.96 Y9.09 Z11.49 F2400.0
G1 X-8.38 Y9.09 Z11.49 F2400.0
G1 X-8.38 Y-9.09 Z11.49 F2400.0
G1 X-8.8 Y-9.09 Z11.49 F2400.0
G1 X-8.8 Y9.09 Z11.49 F2400.0
M103
(</surroundingLoop>)
(</layer>)
(</extrusion>)
M104 S0
;M113 S0.0
(******* End.gcode*******)
M73 P100 (end  build progress )
G0 Z155
M18
M109 S0 T0
M104 S0 T0
G162 X Y F2500
M18
M70 P5 ( We <3 Making Things!)
M72 P1  ( Play Ta-Da song )
(*********end End.gcode*******)
