(** This GCode was generated by ReplicatorG 0031 Beta **)
(*  using Skeinforge (35)  *)
(*  for a Single headed The Replicator  *)
(*  on 2012/02/22 11:54:52 (-0500) *)
(**** start.gcode for The Replicator, single head ****)
M73 P0 (enable build progress)
G21 (set units to mm)
G90 (set positioning to absolute)
M104 S220 T0 (set extruder temperature)
M109 S100 T0 (set HBP temperature)
(**** begin homing ****)
G162 X Y F2500 (home XY axes maximum
G161 Z F1100 (home Z axis minimum)
G92 Z-5 (set Z to -5)
G1 Z0.0 (move Z to "0")
G161 Z F100 (home Z axis minimum)
M132 X Y Z A B (Recall stored home offsets for XYZAB axis)
(**** end homing ****)
G1 X105 Y-70 Z10 F3300.0 (move to waiting position)
G130 X0 Y0 A0 B0 (Set Stepper motor Vref to lower value while heating)
M6 T0 (wait for toolhead parts, nozzle, HBP, etc., to reach temperature)
G130 X127 Y127 A127 B127 (Set Stepper motor Vref to defaults)
M6 T0
M108 R3.0 T0
G0 X105 Y-70 (Position Nozzle)
G0 Z0.6     (Position Height)
M108 R4.0   (Set Extruder Speed)
M101        (Start Extruder)
G4 P1500    (Create Anchor)
(**** end of start.gcode ****)
(<creation> skeinforge </creation>)
(<version> 10.11.05 </version>)
(<extruderInitialization>)
(<craftTypeName> extrusion </craftTypeName>)
M105
(<bridgeWidthMultiplier> 1.0 </bridgeWidthMultiplier>)
(<decimalPlacesCarried> 3 </decimalPlacesCarried>)
(<layerThickness> 0.3 </layerThickness>)
(<threadSequenceString> loops perimeter infill </threadSequenceString>)
(<operatingFeedRatePerSecond> 40.0 </operatingFeedRatePerSecond>)
(<operatingFlowRate> 3.97130553841 </operatingFlowRate>)
(<orbitalFeedRatePerSecond> 20.0 </orbitalFeedRatePerSecond>)
(<travelFeedRatePerSecond> 55.0 </travelFeedRatePerSecond>)
(<perimeterWidth> 0.419 </perimeterWidth>)
(<profileName> ABS </profileName>)
(<procedureDone> carve </procedureDone>)
(<procedureDone> preface </procedureDone>)
(<procedureDone> inset </procedureDone>)
(<procedureDone> fill </procedureDone>)
(<procedureDone> speed </procedureDone>)
(<procedureDone> raft </procedureDone>)
(<procedureDone> jitter </procedureDone>)
(<procedureDone> comb </procedureDone>)
(<procedureDone> cool </procedureDone>)
(<procedureDone> reversal </procedureDone>)
(<procedureDone> export </procedureDone>)
(</extruderInitialization>)
(<extrusion>)
;M113 S1.0
M108 R3.971
M73 P1 (display progress)
(<layer> 0.15 )
(<surroundingLoop>)
(<boundaryPerimeter>)
(<boundaryPoint> X-10.0 Y-10.0 Z0.15 </boundaryPoint>)
(<boundaryPoint> X10.0 Y-10.0 Z0.15 </boundaryPoint>)
(<boundaryPoint> X10.0 Y10.0 Z0.15 </boundaryPoint>)
(<boundaryPoint> X-10.0 Y10.0 Z0.15 </boundaryPoint>)
(<loop> outer )
M108 R3.574
G1 X0.1 Y-9.37 Z0.15 F3300.0
M101
G1 X9.37 Y-9.37 Z0.15 F2160.0
G1 X9.37 Y9.37 Z0.15 F2160.0
G1 X-9.37 Y9.37 Z0.15 F2160.0
G1 X-9.37 Y-9.37 Z0.15 F2160.0
G1 X0.0 Y-9.37 Z0.15 F2160.0
G1 X0.1 Y-9.37 Z0.15 F2160.0
M103
(</loop>)
(<perimeter> outer )
M108 R1.986
M108 R1.787
G1 X0.0 Y-9.79 Z0.15 F3300.0
M101
G1 X9.79 Y-9.79 Z0.15 F1080.0
G1 X9.79 Y9.79 Z0.15 F1080.0
G1 X-9.79 Y9.79 Z0.15 F1080.0
G1 X-9.79 Y-9.79 Z0.15 F1080.0
G1 X-0.5 Y-9.79 Z0.15 F1080.0
M108 R40.0
M102
G1 X0.0 Y-9.79 Z0.15 F1080.0
M108 R1.787
M103
(</perimeter>)
(</boundaryPerimeter>)
M108 R3.971
M108 R3.574
G1 X7.37 Y-9.2 Z0.15 F2970.0
M108 R40.0
M101
G1 X8.8 Y-9.09 Z0.15 F2970.0
M108 R3.574
G1 X8.8 Y9.09 Z0.15 F2160.0
G1 X8.38 Y9.09 Z0.15 F2160.0
G1 X8.38 Y-9.09 Z0.15 F2160.0
G1 X7.96 Y-9.09 Z0.15 F2160.0
G1 X7.96 Y9.09 Z0.15 F2160.0
G1 X7.54 Y9.09 Z0.15 F2160.0
G1 X7.54 Y-9.09 Z0.15 F2160.0
G1 X7.12 Y-9.09 Z0.15 F2160.0
G1 X7.12 Y9.09 Z0.15 F2160.0
G1 X6.7 Y9.09 Z0.15 F2160.0
G1 X6.7 Y-9.09 Z0.15 F2160.0
G1 X6.28 Y-9.09 Z0.15 F2160.0
G1 X6.28 Y9.09 Z0.15 F2160.0
G1 X5.86 Y9.09 Z0.15 F2160.0
G1 X5.86 Y-9.09 Z0.15 F2160.0
G1 X5.45 Y-9.09 Z0.15 F2160.0
G1 X5.45 Y9.09 Z0.15 F2160.0
G1 X5.03 Y9.09 Z0.15 F2160.0
G1 X5.03 Y-9.09 Z0.15 F2160.0
G1 X4.61 Y-9.09 Z0.15 F2160.0
G1 X4.61 Y9.09 Z0.15 F2160.0
G1 X4.19 Y9.09 Z0.15 F2160.0
G1 X4.19 Y-9.09 Z0.15 F2160.0
G1 X3.77 Y-9.09 Z0.15 F2160.0
G1 X3.77 Y9.09 Z0.15 F2160.0
G1 X3.35 Y9.09 Z0.15 F2160.0
G1 X3.35 Y-9.09 Z0.15 F2160.0
G1 X2.93 Y-9.09 Z0.15 F2160.0
G1 X2.93 Y9.09 Z0.15 F2160.0
G1 X2.51 Y9.09 Z0.15 F2160.0
G1 X2.51 Y-9.09 Z0.15 F2160.0
G1 X2.09 Y-9.09 Z0.15 F2160.0
G1 X2.09 Y9.09 Z0.15 F2160.0
G1 X1.68 Y9.09 Z0.15 F2160.0
G1 X1.68 Y-9.09 Z0.15 F2160.0
G1 X1.26 Y-9.09 Z0.15 F2160.0
G1 X1.26 Y9.09 Z0.15 F2160.0
G1 X0.84 Y9.09 Z0.15 F2160.0
G1 X0.84 Y-9.09 Z0.15 F2160.0
G1 X0.42 Y-9.09 Z0.15 F2160.0
G1 X0.42 Y9.09 Z0.15 F2160.0
G1 X0.0 Y9.09 Z0.15 F2160.0
G1 X-0.0 Y-9.09 Z0.15 F2160.0
G1 X-0.42 Y-9.09 Z0.15 F2160.0
G1 X-0.42 Y9.09 Z0.15 F2160.0
G1 X-0.84 Y9.09 Z0.15 F2160.0
G1 X-0.84 Y-9.09 Z0.15 F2160.0
G1 X-1.26 Y-9.09 Z0.15 F2160.0
G1 X-1.26 Y9.09 Z0.15 F2160.0
G1 X-1.68 Y9.09 Z0.15 F2160.0
G1 X-1.68 Y-9.09 Z0.15 F2160.0
G1 X-2.09 Y-9.09 Z0.15 F2160.0
G1 X-2.09 Y9.09 Z0.15 F2160.0
G1 X-2.51 Y9.09 Z0.15 F2160.0
G1 X-2.51 Y-9.09 Z0.15 F2160.0
G1 X-2.93 Y-9.09 Z0.15 F2160.0
G1 X-2.93 Y9.09 Z0.15 F2160.0
G1 X-3.35 Y9.09 Z0.15 F2160.0
G1 X-3.35 Y-9.09 Z0.15 F2160.0
G1 X-3.77 Y-9.09 Z0.15 F2160.0
G1 X-3.77 Y9.09 Z0.15 F2160.0
G1 X-4.19 Y9.09 Z0.15 F2160.0
G1 X-4.19 Y-9.09 Z0.15 F2160.0
G1 X-4.61 Y-9.09 Z0.15 F2160.0
G1 X-4.61 Y9.09 Z0.15 F2160.0
G1 X-5.03 Y9.09 Z0.15 F2160.0
G1 X-5.03 Y-9.09 Z0.15 F2160.0
G1 X-5.45 Y-9.09 Z0.15 F2160.0
G1 X-5.45 Y9.09 Z0.15 F2160.0
G1 X-5.86 Y9.09 Z0.15 F2160.0
G1 X-5.86 Y-9.09 Z0.15 F2160.0
G1 X-6.28 Y-9.09 Z0.15 F2160.0
G1 X-6.28 Y9.09 Z0.15 F2160.0
G1 X-6.7 Y9.09 Z0.15 F2160.0
G1 X-6.7 Y-9.09 Z0.15 F2160.0
G1 X-7.12 Y-9.09 Z0.15 F2160.0
G1 X-7.12 Y9.09 Z0.15 F2160.0
G1 X-7.54 Y9.09 Z0.15 F2160.0
G1 X-7.54 Y-9.09 Z0.15 F2160.0
G1 X-7.96 Y-9.09 Z0.15 F2160.0
G1 X-7.96 Y9.09 Z0.15 F2160.0
G1 X-8.38 Y9.09 Z0.15 F2160.0
G1 X-8.38 Y-9.09 Z0.15 F2160.0
G1 X-8.8 Y-9.09 Z0.15 F2160.0
G1 X-8.8 Y9.09 Z0.15 F2160.0
M103
(</surroundingLoop>)
(</layer>)
M73 P5 (display progress)
(<layer> 0.45 )
(<surroundingLoop>)
(<boundaryPerimeter>)
(<boundaryPoint> X-10.0 Y-10.0 Z0.45 </boundaryPoint>)
(<boundaryPoint> X10.0 Y-10.0 Z0.45 </boundaryPoint>)
(<boundaryPoint> X10.0 Y10.0 Z0.45 </boundaryPoint>)
(<boundaryPoint> X-10.0 Y10.0 Z0.45 </boundaryPoint>)
(<loop> outer )
M108 R3.971
G1 X-8.57 Y9.37 Z0.45 F3300.0
M101
G1 X-8.8 Y9.37 Z0.45 F2400.0
G1 X-9.37 Y9.37 Z0.45 F2400.0
G1 X-9.37 Y-9.37 Z0.45 F2400.0
G1 X9.37 Y-9.37 Z0.45 F2400.0
G1 X9.37 Y9.37 Z0.45 F2400.0
G1 X-8.57 Y9.37 Z0.45 F2400.0
M103
(</loop>)
(<perimeter> outer )
M108 R1.986
G1 X-8.57 Y9.79 Z0.45 F3300.0
M101
G1 X-8.8 Y9.79 Z0.45 F1200.0
G1 X-9.79 Y9.79 Z0.45 F1200.0
G1 X-9.79 Y-9.79 Z0.45 F1200.0
G1 X9.79 Y-9.79 Z0.45 F1200.0
G1 X9.79 Y9.79 Z0.45 F1200.0
G1 X-8.02 Y9.79 Z0.45 F1200.0
M108 R40.0
M102
G1 X-8.57 Y9.79 Z0.45 F1200.0
M108 R1.986
M103
(</perimeter>)
(</boundaryPerimeter>)
M108 R3.971
G1 X7.5 Y8.89 Z0.45 F3300.0
M108 R40.0
M101
G1 X9.09 Y8.8 Z0.45 F3300.0
M108 R3.971
G1 X-9.09 Y8.8 Z0.45 F2400.0
G1 X-9.09 Y8.38 Z0.45 F2400.0
G1 X9.09 Y8.38 Z0.45 F2400.0
G1 X9.09 Y7.96 Z0.45 F2400.0
G1 X-9.09 Y7.96 Z0.45 F2400.0
G1 X-9.09 Y7.54 Z0.45 F2400.0
G1 X9.09 Y7.54 Z0.45 F2400.0
G1 X9.09 Y7.12 Z0.45 F2400.0
G1 X-9.09 Y7.12 Z0.45 F2400.0
G1 X-9.09 Y6.7 Z0.45 F2400.0
G1 X9.09 Y6.7 Z0.45 F2400.0
G1 X9.09 Y6.28 Z0.45 F2400.0
G1 X-9.09 Y6.28 Z0.45 F2400.0
G1 X-9.09 Y5.86 Z0.45 F2400.0
G1 X9.09 Y5.86 Z0.45 F2400.0
G1 X9.09 Y5.45 Z0.45 F2400.0
G1 X-9.09 Y5.45 Z0.45 F2400.0
G1 X-9.09 Y5.03 Z0.45 F2400.0
G1 X9.09 Y5.03 Z0.45 F2400.0
G1 X9.09 Y4.61 Z0.45 F2400.0
G1 X-9.09 Y4.61 Z0.45 F2400.0
G1 X-9.09 Y4.19 Z0.45 F2400.0
G1 X9.09 Y4.19 Z0.45 F2400.0
G1 X9.09 Y3.77 Z0.45 F2400.0
G1 X-9.09 Y3.77 Z0.45 F2400.0
G1 X-9.09 Y3.35 Z0.45 F2400.0
G1 X9.09 Y3.35 Z0.45 F2400.0
G1 X9.09 Y2.93 Z0.45 F2400.0
G1 X-9.09 Y2.93 Z0.45 F2400.0
G1 X-9.09 Y2.51 Z0.45 F2400.0
G1 X9.09 Y2.51 Z0.45 F2400.0
G1 X9.09 Y2.09 Z0.45 F2400.0
G1 X-9.09 Y2.09 Z0.45 F2400.0
G1 X-9.09 Y1.68 Z0.45 F2400.0
G1 X9.09 Y1.68 Z0.45 F2400.0
G1 X9.09 Y1.26 Z0.45 F2400.0
G1 X-9.09 Y1.26 Z0.45 F2400.0
G1 X-9.09 Y0.84 Z0.45 F2400.0
G1 X9.09 Y0.84 Z0.45 F2400.0
G1 X9.09 Y0.42 Z0.45 F2400.0
G1 X-9.09 Y0.42 Z0.45 F2400.0
G1 X-9.09 Y0.0 Z0.45 F2400.0
G1 X9.09 Y-0.0 Z0.45 F2400.0
G1 X9.09 Y-0.42 Z0.45 F2400.0
G1 X-9.09 Y-0.42 Z0.45 F2400.0
G1 X-9.09 Y-0.84 Z0.45 F2400.0
G1 X9.09 Y-0.84 Z0.45 F2400.0
G1 X9.09 Y-1.26 Z0.45 F2400.0
G1 X-9.09 Y-1.26 Z0.45 F2400.0
G1 X-9.09 Y-1.68 Z0.45 F2400.0
G1 X9.09 Y-1.68 Z0.45 F2400.0
G1 X9.09 Y-2.09 Z0.45 F2400.0
G1 X-9.09 Y-2.09 Z0.45 F2400.0
G1 X-9.09 Y-2.51 Z0.45 F2400.0
G1 X9.09 Y-2.51 Z0.45 F2400.0
G1 X9.09 Y-2.93 Z0.45 F2400.0
G1 X-9.09 Y-2.93 Z0.45 F2400.0
G1 X-9.09 Y-3.35 Z0.45 F2400.0
G1 X9.09 Y-3.35 Z0.45 F2400.0
G1 X9.09 Y-3.77 Z0.45 F2400.0
G1 X-9.09 Y-3.77 Z0.45 F2400.0
G1 X-9.09 Y-4.19 Z0.45 F2400.0
G1 X9.09 Y-4.19 Z0.45 F2400.0
G1 X9.09 Y-4.61 Z0.45 F2400.0
G1 X-9.09 Y-4.61 Z0.45 F2400.0
G1 X-9.09 Y-5.03 Z0.45 F2400.0
G1 X9.09 Y-5.03 Z0.45 F2400.0
G1 X9.09 Y-5.45 Z0.45 F2400.0
G1 X-9.09 Y-5.45 Z0.45 F2400.0
G1 X-9.09 Y-5.86 Z0.45 F2400.0
G1 X9.09 Y-5.86 Z0.45 F2400.0
G1 X9.09 Y-6.28 Z0.45 F2400.0
G1 X-9.09 Y-6.28 Z0.45 F2400.0
G1 X-9.09 Y-6.7 Z0.45 F2400.0
G1 X9.09 Y-6.7 Z0.45 F2400.0
G1 X9.09 Y-7.12 Z0.45 F2400.0
G1 X-9.09 Y-7.12 Z0.45 F2400.0
G1 X-9.09 Y-7.54 Z0.45 F2400.0
G1 X9.09 Y-7.54 Z0.45 F2400.0
G1 X9.09 Y-7.96 Z0.45 F2400.0
G1 X-9.09 Y-7.96 Z0.45 F2400.0
G1 X-9.09 Y-8.38 Z0.45 F2400.0
G1 X9.09 Y-8.38 Z0.45 F2400.0
G1 X9.09 Y-8.8 Z0.45 F2400.0
G1 X-9.09 Y-8.8 Z0.45 F2400.0
M103
(</surroundingLoop>)
(</layer>)
(<operatingLayerEnd> </operatingLayerEnd>)
M73 P9 (display progress)
(<layer> 0.75 )
(<surroundingLoop>)
(<boundaryPerimeter>)
(<boundaryPoint> X-10.0 Y-10.0 Z0.75 </boundaryPoint>)
(<boundaryPoint> X10.0 Y-10.0 Z0.75 </boundaryPoint>)
(<boundaryPoint> X10.0 Y10.0 Z0.75 </boundaryPoint>)
(<boundaryPoint> X-10.0 Y10.0 Z0.75 </boundaryPoint>)
(<loop> outer )
G1 X-9.37 Y-9.09 Z0.75 F3300.0
M101
G1 X-9.37 Y-9.37 Z0.75 F2400.0
G1 X9.37 Y-9.37 Z0.75 F2400.0
G1 X9.37 Y9.37 Z0.75 F2400.0
G1 X-9.37 Y9.37 Z0.75 F2400.0
G1 X-9.37 Y-8.8 Z0.75 F2400.0
G1 X-9.37 Y-9.09 Z0.75 F2400.0
M103
(</loop>)
(<perimeter> outer )
M108 R1.986
G1 X-9.79 Y-9.09 Z0.75 F3300.0
M101
G1 X-9.79 Y-9.79 Z0.75 F1200.0
G1 X9.79 Y-9.79 Z0.75 F1200.0
G1 X9.79 Y9.79 Z0.75 F1200.0
G1 X-9.79 Y9.79 Z0.75 F1200.0
G1 X-9.79 Y-8.53 Z0.75 F1200.0
M108 R40.0
M102
G1 X-9.79 Y-8.8 Z0.75 F1200.0
G1 X-9.79 Y-9.09 Z0.75 F1200.0
M108 R1.986
M103
(</perimeter>)
(</boundaryPerimeter>)
M108 R3.971
G1 X7.2 Y-9.09 Z0.75 F3300.0
M108 R40.0
M101
G1 X8.8 Y-9.09 Z0.75 F3300.0
M108 R3.971
G1 X8.8 Y9.09 Z0.75 F2400.0
G1 X8.38 Y9.09 Z0.75 F2400.0
G1 X8.38 Y-9.09 Z0.75 F2400.0
G1 X7.96 Y-9.09 Z0.75 F2400.0
G1 X7.96 Y9.09 Z0.75 F2400.0
G1 X7.54 Y9.09 Z0.75 F2400.0
G1 X7.54 Y-9.09 Z0.75 F2400.0
G1 X7.12 Y-9.09 Z0.75 F2400.0
G1 X7.12 Y9.09 Z0.75 F2400.0
G1 X6.7 Y9.09 Z0.75 F2400.0
G1 X6.7 Y-9.09 Z0.75 F2400.0
G1 X6.28 Y-9.09 Z0.75 F2400.0
G1 X6.28 Y9.09 Z0.75 F2400.0
G1 X5.86 Y9.09 Z0.75 F2400.0
G1 X5.86 Y-9.09 Z0.75 F2400.0
G1 X5.45 Y-9.09 Z0.75 F2400.0
G1 X5.45 Y9.09 Z0.75 F2400.0
G1 X5.03 Y9.09 Z0.75 F2400.0
G1 X5.03 Y-9.09 Z0.75 F2400.0
G1 X4.61 Y-9.09 Z0.75 F2400.0
G1 X4.61 Y9.09 Z0.75 F2400.0
G1 X4.19 Y9.09 Z0.75 F2400.0
G1 X4.19 Y-9.09 Z0.75 F2400.0
G1 X3.77 Y-9.09 Z0.75 F2400.0
G1 X3.77 Y9.09 Z0.75 F2400.0
G1 X3.35 Y9.09 Z0.75 F2400.0
G1 X3.35 Y-9.09 Z0.75 F2400.0
G1 X2.93 Y-9.09 Z0.75 F2400.0
G1 X2.93 Y9.09 Z0.75 F2400.0
G1 X2.51 Y9.09 Z0.75 F2400.0
G1 X2.51 Y-9.09 Z0.75 F2400.0
G1 X2.09 Y-9.09 Z0.75 F2400.0
G1 X2.09 Y9.09 Z0.75 F2400.0
G1 X1.68 Y9.09 Z0.75 F2400.0
G1 X1.68 Y-9.09 Z0.75 F2400.0
G1 X1.26 Y-9.09 Z0.75 F2400.0
G1 X1.26 Y9.09 Z0.75 F2400.0
G1 X0.84 Y9.09 Z0.75 F2400.0
G1 X0.84 Y-9.09 Z0.75 F2400.0
G1 X0.42 Y-9.09 Z0.75 F2400.0
G1 X0.42 Y9.09 Z0.75 F2400.0
G1 X0.0 Y9.09 Z0.75 F2400.0
G1 X-0.0 Y-9.09 Z0.75 F2400.0
G1 X-0.42 Y-9.09 Z0.75 F2400.0
G1 X-0.42 Y9.09 Z0.75 F2400.0
G1 X-0.84 Y9.09 Z0.75 F2400.0
G1 X-0.84 Y-9.09 Z0.75 F2400.0
G1 X-1.26 Y-9.09 Z0.75 F2400.0
G1 X-1.26 Y9.09 Z0.75 F2400.0
G1 X-1.68 Y9.09 Z0.75 F2400.0
G1 X-1.68 Y-9.09 Z0.75 F2400.0
G1 X-2.09 Y-9.09 Z0.75 F2400.0
G1 X-2.09 Y9.09 Z0.75 F2400.0
G1 X-2.51 Y9.09 Z0.75 F2400.0
G1 X-2.51 Y-9.09 Z0.75 F2400.0
G1 X-2.93 Y-9.09 Z0.75 F2400.0
G1 X-2.93 Y9.09 Z0.75 F2400.0
G1 X-3.35 Y9.09 Z0.75 F2400.0
G1 X-3.35 Y-9.09 Z0.75 F2400.0
G1 X-3.77 Y-9.09 Z0.75 F2400.0
G1 X-3.77 Y9.09 Z0.75 F2400.0
G1 X-4.19 Y9.09 Z0.75 F2400.0
G1 X-4.19 Y-9.09 Z0.75 F2400.0
G1 X-4.61 Y-9.09 Z0.75 F2400.0
G1 X-4.61 Y9.09 Z0.75 F2400.0
G1 X-5.03 Y9.09 Z0.75 F2400.0
G1 X-5.03 Y-9.09 Z0.75 F2400.0
G1 X-5.45 Y-9.09 Z0.75 F2400.0
G1 X-5.45 Y9.09 Z0.75 F2400.0
G1 X-5.86 Y9.09 Z0.75 F2400.0
G1 X-5.86 Y-9.09 Z0.75 F2400.0
G1 X-6.28 Y-9.09 Z0.75 F2400.0
G1 X-6.28 Y9.09 Z0.75 F2400.0
G1 X-6.7 Y9.09 Z0.75 F2400.0
G1 X-6.7 Y-9.09 Z0.75 F2400.0
G1 X-7.12 Y-9.09 Z0.75 F2400.0
G1 X-7.12 Y9.09 Z0.75 F2400.0
G1 X-7.54 Y9.09 Z0.75 F2400.0
G1 X-7.54 Y-9.09 Z0.75 F2400.0
G1 X-7.96 Y-9.09 Z0.75 F2400.0
G1 X-7.96 Y9.09 Z0.75 F2400.0
G1 X-8.38 Y9.09 Z0.75 F2400.0
G1 X-8.38 Y-9.09 Z0.75 F2400.0
G1 X-8.8 Y-9.09 Z0.75 F2400.0
G1 X-8.8 Y9.09 Z0.75 F2400.0
M103
(</surroundingLoop>)
(</layer>)
M73 P13 (display progress)
(<layer> 1.05 )
(<surroundingLoop>)
(<boundaryPerimeter>)
(<boundaryPoint> X-10.0 Y-10.0 Z1.05 </boundaryPoint>)
(<boundaryPoint> X10.0 Y-10.0 Z1.05 </boundaryPoint>)
(<boundaryPoint> X10.0 Y10.0 Z1.05 </boundaryPoint>)
(<boundaryPoint> X-10.0 Y10.0 Z1.05 </boundaryPoint>)
(<loop> outer )
G1 X-8.77 Y9.37 Z1.05 F3300.0
M101
G1 X-8.8 Y9.37 Z1.05 F2400.0
G1 X-9.37 Y9.37 Z1.05 F2400.0
G1 X-9.37 Y-9.37 Z1.05 F2400.0
G1 X9.37 Y-9.37 Z1.05 F2400.0
G1 X9.37 Y9.37 Z1.05 F2400.0
G1 X-8.77 Y9.37 Z1.05 F2400.0
M103
(</loop>)
(<perimeter> outer )
M108 R1.986
G1 X-8.8 Y9.79 Z1.05 F3300.0
M101
G1 X-9.79 Y9.79 Z1.05 F1200.0
G1 X-9.79 Y-9.79 Z1.05 F1200.0
G1 X9.79 Y-9.79 Z1.05 F1200.0
G1 X9.79 Y9.79 Z1.05 F1200.0
G1 X-8.24 Y9.79 Z1.05 F1200.0
M108 R40.0
M102
G1 X-8.8 Y9.79 Z1.05 F1200.0
M108 R1.986
M103
(</perimeter>)
(</boundaryPerimeter>)
M108 R3.971
G1 X7.49 Y8.93 Z1.05 F3300.0
M108 R40.0
M101
G1 X9.09 Y8.84 Z1.05 F3300.0
M108 R3.971
G1 X9.09 Y8.38 Z1.05 F2400.0
G1 X2.47 Y4.65 Z1.05 F2400.0
G1 X2.19 Y4.65 Z1.05 F2400.0
G1 X-2.19 Y7.76 Z1.05 F2400.0
G1 X-2.47 Y7.76 Z1.05 F2400.0
G1 X-6.84 Y4.65 Z1.05 F2400.0
G1 X-7.12 Y4.65 Z1.05 F2400.0
G1 X-9.09 Y8.38 Z1.05 F2400.0
G1 X-9.09 Y8.84 Z1.05 F2400.0
M103
G1 X-9.09 Y7.91 Z1.05 F3300.0
M101
G1 X-9.09 Y-0.93 Z1.05 F2400.0
G1 X-7.12 Y-1.55 Z1.05 F2400.0
G1 X-6.84 Y-1.55 Z1.05 F2400.0
G1 X-2.47 Y-4.65 Z1.05 F2400.0
G1 X-2.19 Y-4.65 Z1.05 F2400.0
G1 X2.19 Y-1.55 Z1.05 F2400.0
G1 X9.09 Y-0.93 Z1.05 F2400.0
G1 X9.09 Y6.79 Z1.05 F2400.0
M108 R40.0
M102
G1 X9.09 Y7.91 Z1.05 F2400.0
M108 R3.971
M103
G1 X9.09 Y0.2 Z1.05 F3300.0
M108 R40.0
M101
G1 X9.09 Y-1.4 Z1.05 F3300.0
M108 R3.971
G1 X9.09 Y-8.84 Z1.05 F2400.0
G1 X-9.09 Y-8.84 Z1.05 F2400.0
G1 X-9.09 Y-1.4 Z1.05 F2400.0
M103
(</surroundingLoop>)
(</layer>)
M73 P16 (display progress)
(<layer> 1.35 )
(<surroundingLoop>)
(<boundaryPerimeter>)
(<boundaryPoint> X-10.0 Y-10.0 Z1.35 </boundaryPoint>)
(<boundaryPoint> X10.0 Y-10.0 Z1.35 </boundaryPoint>)
(<boundaryPoint> X10.0 Y10.0 Z1.35 </boundaryPoint>)
(<boundaryPoint> X-10.0 Y10.0 Z1.35 </boundaryPoint>)
(<loop> outer )
G1 X-9.37 Y-1.05 Z1.35 F3300.0
M101
G1 X-9.37 Y-1.4 Z1.35 F2400.0
G1 X-9.37 Y-9.37 Z1.35 F2400.0
G1 X9.37 Y-9.37 Z1.35 F2400.0
G1 X9.37 Y9.37 Z1.35 F2400.0
G1 X-9.37 Y9.37 Z1.35 F2400.0
G1 X-9.37 Y-1.05 Z1.35 F2400.0
M103
(</loop>)
(<perimeter> outer )
M108 R1.986
G1 X-9.79 Y-1.05 Z1.35 F3300.0
M101
G1 X-9.79 Y-1.4 Z1.35 F1200.0
G1 X-9.79 Y-9.79 Z1.35 F1200.0
G1 X9.79 Y-9.79 Z1.35 F1200.0
G1 X9.79 Y9.79 Z1.35 F1200.0
G1 X-9.79 Y9.79 Z1.35 F1200.0
G1 X-9.79 Y-0.49 Z1.35 F1200.0
M108 R40.0
M102
G1 X-9.79 Y-1.05 Z1.35 F1200.0
M108 R1.986
M103
(</perimeter>)
(</boundaryPerimeter>)
M108 R3.971
G1 X-9.03 Y-7.5 Z1.35 F3300.0
M108 R40.0
M101
G1 X-8.84 Y-9.09 Z1.35 F3300.0
M108 R3.971
G1 X-6.05 Y-9.09 Z1.35 F2400.0
G1 X-7.11 Y-1.55 Z1.35 F2400.0
G1 X-7.11 Y4.65 Z1.35 F2400.0
G1 X-6.05 Y9.09 Z1.35 F2400.0
G1 X-7.72 Y9.09 Z1.35 F2400.0
M108 R40.0
M102
G1 X-8.84 Y9.09 Z1.35 F2400.0
M108 R3.971
M103
G1 X-7.18 Y9.09 Z1.35 F3300.0
M108 R40.0
M101
G1 X-5.58 Y9.09 Z1.35 F3300.0
M108 R3.971
G1 X-1.4 Y9.09 Z1.35 F2400.0
G1 X-2.46 Y7.76 Z1.35 F2400.0
G1 X-6.85 Y4.65 Z1.35 F2400.0
G1 X-6.85 Y-1.55 Z1.35 F2400.0
G1 X-2.46 Y-4.65 Z1.35 F2400.0
G1 X-1.4 Y-9.09 Z1.35 F2400.0
G1 X-4.46 Y-9.09 Z1.35 F2400.0
M108 R40.0
M102
G1 X-5.58 Y-9.09 Z1.35 F2400.0
M108 R3.971
M103
G1 X1.66 Y-9.09 Z1.35 F3300.0
M108 R40.0
M101
G1 X3.26 Y-9.09 Z1.35 F3300.0
M108 R3.971
G1 X-0.93 Y-9.09 Z1.35 F2400.0
G1 X-2.2 Y-4.65 Z1.35 F2400.0
G1 X2.2 Y-1.55 Z1.35 F2400.0
G1 X2.2 Y4.65 Z1.35 F2400.0
G1 X-2.2 Y7.76 Z1.35 F2400.0
G1 X-0.93 Y9.09 Z1.35 F2400.0
G1 X2.14 Y9.09 Z1.35 F2400.0
M108 R40.0
M102
G1 X3.26 Y9.09 Z1.35 F2400.0
M108 R3.971
M103
G1 X7.95 Y-7.55 Z1.35 F3300.0
M108 R40.0
M101
G1 X8.38 Y-9.09 Z1.35 F3300.0
M108 R3.971
G1 X8.84 Y-9.09 Z1.35 F2400.0
G1 X8.84 Y9.09 Z1.35 F2400.0
G1 X3.72 Y9.09 Z1.35 F2400.0
G1 X2.46 Y4.65 Z1.35 F2400.0
G1 X2.46 Y-1.55 Z1.35 F2400.0
G1 X3.72 Y-9.09 Z1.35 F2400.0
G1 X7.91 Y-9.09 Z1.35 F2400.0
M103
(</surroundingLoop>)
(</layer>)
M73 P19 (display progress)
(<layer> 1.65 )
(<surroundingLoop>)
(<boundaryPerimeter>)
(<boundaryPoint> X-10.0 Y-10.0 Z1.65 </boundaryPoint>)
(<boundaryPoint> X10.0 Y-10.0 Z1.65 </boundaryPoint>)
(<boundaryPoint> X10.0 Y10.0 Z1.65 </boundaryPoint>)
(<boundaryPoint> X-10.0 Y10.0 Z1.65 </boundaryPoint>)
(<loop> outer )
G1 X8.09 Y-9.37 Z1.65 F3300.0
M101
G1 X9.37 Y-9.37 Z1.65 F2400.0
G1 X9.37 Y9.37 Z1.65 F2400.0
G1 X-9.37 Y9.37 Z1.65 F2400.0
G1 X-9.37 Y-9.37 Z1.65 F2400.0
G1 X7.91 Y-9.37 Z1.65 F2400.0
G1 X8.09 Y-9.37 Z1.65 F2400.0
M103
(</loop>)
(<perimeter> outer )
M108 R1.986
G1 X7.91 Y-9.79 Z1.65 F3300.0
M101
G1 X9.79 Y-9.79 Z1.65 F1200.0
G1 X9.79 Y9.79 Z1.65 F1200.0
G1 X-9.79 Y9.79 Z1.65 F1200.0
G1 X-9.79 Y-9.79 Z1.65 F1200.0
G1 X7.35 Y-9.79 Z1.65 F1200.0
M108 R40.0
M102
G1 X7.91 Y-9.79 Z1.65 F1200.0
M108 R1.986
M103
(</perimeter>)
(</boundaryPerimeter>)
M108 R3.971
G1 X8.87 Y-2.98 Z1.65 F3300.0
M108 R40.0
M101
G1 X9.09 Y-1.4 Z1.65 F3300.0
M108 R3.971
G1 X9.09 Y-8.84 Z1.65 F2400.0
G1 X-9.09 Y-8.84 Z1.65 F2400.0
G1 X-9.09 Y-2.52 Z1.65 F2400.0
M108 R40.0
M102
G1 X-9.09 Y-1.4 Z1.65 F2400.0
M108 R3.971
M103
G1 X-9.09 Y6.32 Z1.65 F3300.0
M108 R40.0
M101
G1 X-9.09 Y7.91 Z1.65 F3300.0
M108 R3.971
G1 X-9.09 Y-0.93 Z1.65 F2400.0
G1 X-7.12 Y-1.55 Z1.65 F2400.0
G1 X-6.84 Y-1.55 Z1.65 F2400.0
G1 X-2.47 Y-4.65 Z1.65 F2400.0
G1 X-2.19 Y-4.65 Z1.65 F2400.0
G1 X2.19 Y-1.55 Z1.65 F2400.0
G1 X9.09 Y-0.93 Z1.65 F2400.0
G1 X9.09 Y7.91 Z1.65 F2400.0
M103
G1 X9.09 Y8.84 Z1.65 F3300.0
M101
G1 X9.09 Y8.38 Z1.65 F2400.0
G1 X2.47 Y4.65 Z1.65 F2400.0
G1 X2.19 Y4.65 Z1.65 F2400.0
G1 X-2.19 Y7.76 Z1.65 F2400.0
G1 X-2.47 Y7.76 Z1.65 F2400.0
G1 X-6.84 Y4.65 Z1.65 F2400.0
G1 X-7.12 Y4.65 Z1.65 F2400.0
G1 X-9.09 Y8.38 Z1.65 F2400.0
G1 X-9.09 Y8.84 Z1.65 F2400.0
M103
(</surroundingLoop>)
(</layer>)
M73 P21 (display progress)
(<layer> 1.95 )
(<surroundingLoop>)
(<boundaryPerimeter>)
(<boundaryPoint> X-10.0 Y-10.0 Z1.95 </boundaryPoint>)
(<boundaryPoint> X10.0 Y-10.0 Z1.95 </boundaryPoint>)
(<boundaryPoint> X10.0 Y10.0 Z1.95 </boundaryPoint>)
(<boundaryPoint> X-10.0 Y10.0 Z1.95 </boundaryPoint>)
(<loop> outer )
G1 X-9.37 Y8.99 Z1.95 F3300.0
M101
G1 X-9.37 Y8.84 Z1.95 F2400.0
G1 X-9.37 Y-9.37 Z1.95 F2400.0
G1 X9.37 Y-9.37 Z1.95 F2400.0
G1 X9.37 Y9.37 Z1.95 F2400.0
G1 X-9.37 Y9.37 Z1.95 F2400.0
G1 X-9.37 Y8.99 Z1.95 F2400.0
M103
(</loop>)
(<perimeter> outer )
M108 R1.986
G1 X-9.79 Y8.84 Z1.95 F3300.0
M101
G1 X-9.79 Y-9.79 Z1.95 F1200.0
G1 X9.79 Y-9.79 Z1.95 F1200.0
G1 X9.79 Y9.79 Z1.95 F1200.0
G1 X-9.79 Y9.79 Z1.95 F1200.0
G1 X-9.79 Y9.4 Z1.95 F1200.0
M108 R40.0
M102
G1 X-9.79 Y8.84 Z1.95 F1200.0
M108 R1.986
M103
(</perimeter>)
(</boundaryPerimeter>)
M108 R3.971
G1 X-8.93 Y-7.49 Z1.95 F3300.0
M108 R40.0
M101
G1 X-8.84 Y-9.09 Z1.95 F3300.0
M108 R3.971
G1 X-6.05 Y-9.09 Z1.95 F2400.0
G1 X-7.11 Y-1.55 Z1.95 F2400.0
G1 X-7.11 Y4.65 Z1.95 F2400.0
G1 X-6.05 Y9.09 Z1.95 F2400.0
G1 X-7.72 Y9.09 Z1.95 F2400.0
M108 R40.0
M102
G1 X-8.84 Y9.09 Z1.95 F2400.0
M108 R3.971
M103
G1 X-7.18 Y9.09 Z1.95 F3300.0
M108 R40.0
M101
G1 X-5.58 Y9.09 Z1.95 F3300.0
M108 R3.971
G1 X-1.4 Y9.09 Z1.95 F2400.0
G1 X-2.46 Y7.76 Z1.95 F2400.0
G1 X-6.85 Y4.65 Z1.95 F2400.0
G1 X-6.85 Y-1.55 Z1.95 F2400.0
G1 X-2.46 Y-4.65 Z1.95 F2400.0
G1 X-1.4 Y-9.09 Z1.95 F2400.0
G1 X-4.46 Y-9.09 Z1.95 F2400.0
M108 R40.0
M102
G1 X-5.58 Y-9.09 Z1.95 F2400.0
M108 R3.971
M103
G1 X1.66 Y-9.09 Z1.95 F3300.0
M108 R40.0
M101
G1 X3.26 Y-9.09 Z1.95 F3300.0
M108 R3.971
G1 X-0.93 Y-9.09 Z1.95 F2400.0
G1 X-2.2 Y-4.65 Z1.95 F2400.0
G1 X2.2 Y-1.55 Z1.95 F2400.0
G1 X2.2 Y4.65 Z1.95 F2400.0
G1 X-2.2 Y7.76 Z1.95 F2400.0
G1 X-0.93 Y9.09 Z1.95 F2400.0
G1 X2.14 Y9.09 Z1.95 F2400.0
M108 R40.0
M102
G1 X3.26 Y9.09 Z1.95 F2400.0
M108 R3.971
M103
G1 X7.95 Y-7.55 Z1.95 F3300.0
M108 R40.0
M101
G1 X8.38 Y-9.09 Z1.95 F3300.0
M108 R3.971
G1 X8.84 Y-9.09 Z1.95 F2400.0
G1 X8.84 Y9.09 Z1.95 F2400.0
G1 X3.72 Y9.09 Z1.95 F2400.0
G1 X2.46 Y4.65 Z1.95 F2400.0
G1 X2.46 Y-1.55 Z1.95 F2400.0
G1 X3.72 Y-9.09 Z1.95 F2400.0
G1 X7.91 Y-9.09 Z1.95 F2400.0
M103
(</surroundingLoop>)
(</layer>)
M73 P24 (display progress)
(<layer> 2.25 )
(<surroundingLoop>)
(<boundaryPerimeter>)
(<boundaryPoint> X-10.0 Y-10.0 Z2.25 </boundaryPoint>)
(<boundaryPoint> X10.0 Y-10.0 Z2.25 </boundaryPoint>)
(<boundaryPoint> X10.0 Y10.0 Z2.25 </boundaryPoint>)
(<boundaryPoint> X-10.0 Y10.0 Z2.25 </boundaryPoint>)
(<loop> outer )
G1 X8.28 Y-9.37 Z2.25 F3300.0
M101
G1 X9.37 Y-9.37 Z2.25 F2400.0
G1 X9.37 Y9.37 Z2.25 F2400.0
G1 X-9.37 Y9.37 Z2.25 F2400.0
G1 X-9.37 Y-9.37 Z2.25 F2400.0
G1 X7.91 Y-9.37 Z2.25 F2400.0
G1 X8.28 Y-9.37 Z2.25 F2400.0
M103
(</loop>)
(<perimeter> outer )
M108 R1.986
G1 X8.28 Y-9.79 Z2.25 F3300.0
M101
G1 X9.79 Y-9.79 Z2.25 F1200.0
G1 X9.79 Y9.79 Z2.25 F1200.0
G1 X-9.79 Y9.79 Z2.25 F1200.0
G1 X-9.79 Y-9.79 Z2.25 F1200.0
G1 X7.72 Y-9.79 Z2.25 F1200.0
M108 R40.0
M102
G1 X7.91 Y-9.79 Z2.25 F1200.0
G1 X8.28 Y-9.79 Z2.25 F1200.0
M108 R1.986
M103
(</perimeter>)
(</boundaryPerimeter>)
M108 R3.971
G1 X8.94 Y-2.98 Z2.25 F3300.0
M108 R40.0
M101
G1 X9.09 Y-1.4 Z2.25 F3300.0
M108 R3.971
G1 X9.09 Y-8.84 Z2.25 F2400.0
G1 X-9.09 Y-8.84 Z2.25 F2400.0
G1 X-9.09 Y-2.52 Z2.25 F2400.0
M108 R40.0
M102
G1 X-9.09 Y-1.4 Z2.25 F2400.0
M108 R3.971
M103
G1 X-9.09 Y6.32 Z2.25 F3300.0
M108 R40.0
M101
G1 X-9.09 Y7.91 Z2.25 F3300.0
M108 R3.971
G1 X-9.09 Y-0.93 Z2.25 F2400.0
G1 X-7.12 Y-1.55 Z2.25 F2400.0
G1 X-6.84 Y-1.55 Z2.25 F2400.0
G1 X-2.47 Y-4.65 Z2.25 F2400.0
G1 X-2.19 Y-4.65 Z2.25 F2400.0
G1 X2.19 Y-1.55 Z2.25 F2400.0
G1 X9.09 Y-0.93 Z2.25 F2400.0
G1 X9.09 Y7.91 Z2.25 F2400.0
M103
G1 X9.09 Y8.84 Z2.25 F3300.0
M101
G1 X9.09 Y8.38 Z2.25 F2400.0
G1 X2.47 Y4.65 Z2.25 F2400.0
G1 X2.19 Y4.65 Z2.25 F2400.0
G1 X-2.19 Y7.76 Z2.25 F2400.0
G1 X-2.47 Y7.76 Z2.25 F2400.0
G1 X-6.84 Y4.65 Z2.25 F2400.0
G1 X-7.12 Y4.65 Z2.25 F2400.0
G1 X-9.09 Y8.38 Z2.25 F2400.0
G1 X-9.09 Y8.84 Z2.25 F2400.0
M103
(</surroundingLoop>)
(</layer>)
M73 P27 (display progress)
(<layer> 2.55 )
(<surroundingLoop>)
(<boundaryPerimeter>)
(<boundaryPoint> X-10.0 Y-10.0 Z2.55 </boundaryPoint>)
(<boundaryPoint> X10.0 Y-10.0 Z2.55 </boundaryPoint>)
(<boundaryPoint> X10.0 Y10.0 Z2.55 </boundaryPoint>)
(<boundaryPoint> X-10.0 Y10.0 Z2.55 </boundaryPoint>)
(<loop> outer )
G1 X-9.37 Y8.79 Z2.55 F3300.0
M101
G1 X-9.37 Y-9.37 Z2.55 F2400.0
G1 X9.37 Y-9.37 Z2.55 F2400.0
G1 X9.37 Y9.37 Z2.55 F2400.0
G1 X-9.37 Y9.37 Z2.55 F2400.0
G1 X-9.37 Y8.84 Z2.55 F2400.0
G1 X-9.37 Y8.79 Z2.55 F2400.0
M103
(</loop>)
(<perimeter> outer )
M108 R1.986
G1 X-9.79 Y8.84 Z2.55 F3300.0
M101
G1 X-9.79 Y-9.79 Z2.55 F1200.0
G1 X9.79 Y-9.79 Z2.55 F1200.0
G1 X9.79 Y9.79 Z2.55 F1200.0
G1 X-9.79 Y9.79 Z2.55 F1200.0
G1 X-9.79 Y9.4 Z2.55 F1200.0
M108 R40.0
M102
G1 X-9.79 Y8.84 Z2.55 F1200.0
M108 R1.986
M103
(</perimeter>)
(</boundaryPerimeter>)
M108 R3.971
G1 X-8.93 Y-7.49 Z2.55 F3300.0
M108 R40.0
M101
G1 X-8.84 Y-9.09 Z2.55 F3300.0
M108 R3.971
G1 X-6.05 Y-9.09 Z2.55 F2400.0
G1 X-7.11 Y-1.55 Z2.55 F2400.0
G1 X-7.11 Y4.65 Z2.55 F2400.0
G1 X-6.05 Y9.09 Z2.55 F2400.0
G1 X-7.72 Y9.09 Z2.55 F2400.0
M108 R40.0
M102
G1 X-8.84 Y9.09 Z2.55 F2400.0
M108 R3.971
M103
G1 X-7.18 Y9.09 Z2.55 F3300.0
M108 R40.0
M101
G1 X-5.58 Y9.09 Z2.55 F3300.0
M108 R3.971
G1 X-1.4 Y9.09 Z2.55 F2400.0
G1 X-2.46 Y7.76 Z2.55 F2400.0
G1 X-6.85 Y4.65 Z2.55 F2400.0
G1 X-6.85 Y-1.55 Z2.55 F2400.0
G1 X-2.46 Y-4.65 Z2.55 F2400.0
G1 X-1.4 Y-9.09 Z2.55 F2400.0
G1 X-4.46 Y-9.09 Z2.55 F2400.0
M108 R40.0
M102
G1 X-5.58 Y-9.09 Z2.55 F2400.0
M108 R3.971
M103
G1 X1.66 Y-9.09 Z2.55 F3300.0
M108 R40.0
M101
G1 X3.26 Y-9.09 Z2.55 F3300.0
M108 R3.971
G1 X-0.93 Y-9.09 Z2.55 F2400.0
G1 X-2.2 Y-4.65 Z2.55 F2400.0
G1 X2.2 Y-1.55 Z2.55 F2400.0
G1 X2.2 Y4.65 Z2.55 F2400.0
G1 X-2.2 Y7.76 Z2.55 F2400.0
G1 X-0.93 Y9.09 Z2.55 F2400.0
G1 X2.14 Y9.09 Z2.55 F2400.0
M108 R40.0
M102
G1 X3.26 Y9.09 Z2.55 F2400.0
M108 R3.971
M103
G1 X7.95 Y-7.55 Z2.55 F3300.0
M108 R40.0
M101
G1 X8.38 Y-9.09 Z2.55 F3300.0
M108 R3.971
G1 X8.84 Y-9.09 Z2.55 F2400.0
G1 X8.84 Y9.09 Z2.55 F2400.0
G1 X3.72 Y9.09 Z2.55 F2400.0
G1 X2.46 Y4.65 Z2.55 F2400.0
G1 X2.46 Y-1.55 Z2.55 F2400.0
G1 X3.72 Y-9.09 Z2.55 F2400.0
G1 X7.91 Y-9.09 Z2.55 F2400.0
M103
(</surroundingLoop>)
(</layer>)
M73 P30 (display progress)
(<layer> 2.85 )
(<surroundingLoop>)
(<boundaryPerimeter>)
(<boundaryPoint> X-10.0 Y-10.0 Z2.85 </boundaryPoint>)
(<boundaryPoint> X10.0 Y-10.0 Z2.85 </boundaryPoint>)
(<boundaryPoint> X10.0 Y10.0 Z2.85 </boundaryPoint>)
(<boundaryPoint> X-10.0 Y10.0 Z2.85 </boundaryPoint>)
(<loop> outer )
G1 X7.64 Y-9.37 Z2.85 F3300.0
M101
G1 X7.91 Y-9.37 Z2.85 F2400.0
G1 X9.37 Y-9.37 Z2.85 F2400.0
G1 X9.37 Y9.37 Z2.85 F2400.0
G1 X-9.37 Y9.37 Z2.85 F2400.0
G1 X-9.37 Y-9.37 Z2.85 F2400.0
G1 X7.64 Y-9.37 Z2.85 F2400.0
M103
(</loop>)
(<perimeter> outer )
M108 R1.986
G1 X7.64 Y-9.79 Z2.85 F3300.0
M101
G1 X7.91 Y-9.79 Z2.85 F1200.0
G1 X9.79 Y-9.79 Z2.85 F1200.0
G1 X9.79 Y9.79 Z2.85 F1200.0
G1 X-9.79 Y9.79 Z2.85 F1200.0
G1 X-9.79 Y-9.79 Z2.85 F1200.0
G1 X7.08 Y-9.79 Z2.85 F1200.0
M108 R40.0
M102
G1 X7.64 Y-9.79 Z2.85 F1200.0
M108 R1.986
M103
(</perimeter>)
(</boundaryPerimeter>)
M108 R3.971
G1 X8.82 Y-2.97 Z2.85 F3300.0
M108 R40.0
M101
G1 X9.09 Y-1.4 Z2.85 F3300.0
M108 R3.971
G1 X9.09 Y-8.84 Z2.85 F2400.0
G1 X-9.09 Y-8.84 Z2.85 F2400.0
G1 X-9.09 Y-2.52 Z2.85 F2400.0
M108 R40.0
M102
G1 X-9.09 Y-1.4 Z2.85 F2400.0
M108 R3.971
M103
G1 X-9.09 Y6.32 Z2.85 F3300.0
M108 R40.0
M101
G1 X-9.09 Y7.91 Z2.85 F3300.0
M108 R3.971
G1 X-9.09 Y-0.93 Z2.85 F2400.0
G1 X-7.12 Y-1.55 Z2.85 F2400.0
G1 X-6.84 Y-1.55 Z2.85 F2400.0
G1 X-2.47 Y-4.65 Z2.85 F2400.0
G1 X-2.19 Y-4.65 Z2.85 F2400.0
G1 X2.19 Y-1.55 Z2.85 F2400.0
G1 X9.09 Y-0.93 Z2.85 F2400.0
G1 X9.09 Y7.91 Z2.85 F2400.0
M103
G1 X9.09 Y8.84 Z2.85 F3300.0
M101
G1 X9.09 Y8.38 Z2.85 F2400.0
G1 X2.47 Y4.65 Z2.85 F2400.0
G1 X2.19 Y4.65 Z2.85 F2400.0
G1 X-2.19 Y7.76 Z2.85 F2400.0
G1 X-2.47 Y7.76 Z2.85 F2400.0
G1 X-6.84 Y4.65 Z2.85 F2400.0
G1 X-7.12 Y4.65 Z2.85 F2400.0
G1 X-9.09 Y8.38 Z2.85 F2400.0
G1 X-9.09 Y8.84 Z2.85 F2400.0
M103
(</surroundingLoop>)
(</layer>)
M73 P32 (display progress)
(<layer> 3.15 )
(<surroundingLoop>)
(<boundaryPerimeter>)
(<boundaryPoint> X-10.0 Y-10.0 Z3.15 </boundaryPoint>)
(<boundaryPoint> X10.0 Y-10.0 Z3.15 </boundaryPoint>)
(<boundaryPoint> X10.0 Y10.0 Z3.15 </boundaryPoint>)
(<boundaryPoint> X-10.0 Y10.0 Z3.15 </boundaryPoint>)
(<loop> outer )
G1 X-9.37 Y8.59 Z3.15 F3300.0
M101
G1 X-9.37 Y-9.37 Z3.15 F2400.0
G1 X9.37 Y-9.37 Z3.15 F2400.0
G1 X9.37 Y9.37 Z3.15 F2400.0
G1 X-9.37 Y9.37 Z3.15 F2400.0
G1 X-9.37 Y8.84 Z3.15 F2400.0
G1 X-9.37 Y8.59 Z3.15 F2400.0
M103
(</loop>)
(<perimeter> outer )
M108 R1.986
G1 X-9.79 Y8.59 Z3.15 F3300.0
M101
G1 X-9.79 Y-9.79 Z3.15 F1200.0
G1 X9.79 Y-9.79 Z3.15 F1200.0
G1 X9.79 Y9.79 Z3.15 F1200.0
G1 X-9.79 Y9.79 Z3.15 F1200.0
G1 X-9.79 Y9.15 Z3.15 F1200.0
M108 R40.0
M102
G1 X-9.79 Y8.84 Z3.15 F1200.0
G1 X-9.79 Y8.59 Z3.15 F1200.0
M108 R1.986
M103
(</perimeter>)
(</boundaryPerimeter>)
M108 R3.971
G1 X-8.93 Y-7.49 Z3.15 F3300.0
M108 R40.0
M101
G1 X-8.84 Y-9.09 Z3.15 F3300.0
M108 R3.971
G1 X-6.05 Y-9.09 Z3.15 F2400.0
G1 X-7.11 Y-1.55 Z3.15 F2400.0
G1 X-7.11 Y4.65 Z3.15 F2400.0
G1 X-6.05 Y9.09 Z3.15 F2400.0
G1 X-7.72 Y9.09 Z3.15 F2400.0
M108 R40.0
M102
G1 X-8.84 Y9.09 Z3.15 F2400.0
M108 R3.971
M103
G1 X-7.18 Y9.09 Z3.15 F3300.0
M108 R40.0
M101
G1 X-5.58 Y9.09 Z3.15 F3300.0
M108 R3.971
G1 X-1.4 Y9.09 Z3.15 F2400.0
G1 X-2.46 Y7.76 Z3.15 F2400.0
G1 X-6.85 Y4.65 Z3.15 F2400.0
G1 X-6.85 Y-1.55 Z3.15 F2400.0
G1 X-2.46 Y-4.65 Z3.15 F2400.0
G1 X-1.4 Y-9.09 Z3.15 F2400.0
G1 X-4.46 Y-9.09 Z3.15 F2400.0
M108 R40.0
M102
G1 X-5.58 Y-9.09 Z3.15 F2400.0
M108 R3.971
M103
G1 X1.66 Y-9.09 Z3.15 F3300.0
M108 R40.0
M101
G1 X3.26 Y-9.09 Z3.15 F3300.0
M108 R3.971
G1 X-0.93 Y-9.09 Z3.15 F2400.0
G1 X-2.2 Y-4.65 Z3.15 F2400.0
G1 X2.2 Y-1.55 Z3.15 F2400.0
G1 X2.2 Y4.65 Z3.15 F2400.0
G1 X-2.2 Y7.76 Z3.15 F2400.0
G1 X-0.93 Y9.09 Z3.15 F2400.0
G1 X2.14 Y9.09 Z3.15 F2400.0
M108 R40.0
M102
G1 X3.26 Y9.09 Z3.15 F2400.0
M108 R3.971
M103
G1 X7.95 Y-7.55 Z3.15 F3300.0
M108 R40.0
M101
G1 X8.38 Y-9.09 Z3.15 F3300.0
M108 R3.971
G1 X8.84 Y-9.09 Z3.15 F2400.0
G1 X8.84 Y9.09 Z3.15 F2400.0
G1 X3.72 Y9.09 Z3.15 F2400.0
G1 X2.46 Y4.65 Z3.15 F2400.0
G1 X2.46 Y-1.55 Z3.15 F2400.0
G1 X3.72 Y-9.09 Z3.15 F2400.0
G1 X7.91 Y-9.09 Z3.15 F2400.0
M103
(</surroundingLoop>)
(</layer>)
M73 P35 (display progress)
(<layer> 3.45 )
(<surroundingLoop>)
(<boundaryPerimeter>)
(<boundaryPoint> X-10.0 Y-10.0 Z3.45 </boundaryPoint>)
(<boundaryPoint> X10.0 Y-10.0 Z3.45 </boundaryPoint>)
(<boundaryPoint> X10.0 Y10.0 Z3.45 </boundaryPoint>)
(<boundaryPoint> X-10.0 Y10.0 Z3.45 </boundaryPoint>)
(<loop> outer )
G1 X7.84 Y-9.37 Z3.45 F3300.0
M101
G1 X7.91 Y-9.37 Z3.45 F2400.0
G1 X9.37 Y-9.37 Z3.45 F2400.0
G1 X9.37 Y9.37 Z3.45 F2400.0
G1 X-9.37 Y9.37 Z3.45 F2400.0
G1 X-9.37 Y-9.37 Z3.45 F2400.0
G1 X7.84 Y-9.37 Z3.45 F2400.0
M103
(</loop>)
(<perimeter> outer )
M108 R1.986
G1 X7.91 Y-9.79 Z3.45 F3300.0
M101
G1 X9.79 Y-9.79 Z3.45 F1200.0
G1 X9.79 Y9.79 Z3.45 F1200.0
G1 X-9.79 Y9.79 Z3.45 F1200.0
G1 X-9.79 Y-9.79 Z3.45 F1200.0
G1 X7.35 Y-9.79 Z3.45 F1200.0
M108 R40.0
M102
G1 X7.91 Y-9.79 Z3.45 F1200.0
M108 R1.986
M103
(</perimeter>)
(</boundaryPerimeter>)
M108 R3.971
G1 X8.87 Y-2.98 Z3.45 F3300.0
M108 R40.0
M101
G1 X9.09 Y-1.4 Z3.45 F3300.0
M108 R3.971
G1 X9.09 Y-8.84 Z3.45 F2400.0
G1 X-9.09 Y-8.84 Z3.45 F2400.0
G1 X-9.09 Y-2.52 Z3.45 F2400.0
M108 R40.0
M102
G1 X-9.09 Y-1.4 Z3.45 F2400.0
M108 R3.971
M103
G1 X-9.09 Y6.32 Z3.45 F3300.0
M108 R40.0
M101
G1 X-9.09 Y7.91 Z3.45 F3300.0
M108 R3.971
G1 X-9.09 Y-0.93 Z3.45 F2400.0
G1 X-7.12 Y-1.55 Z3.45 F2400.0
G1 X-6.84 Y-1.55 Z3.45 F2400.0
G1 X-2.47 Y-4.65 Z3.45 F2400.0
G1 X-2.19 Y-4.65 Z3.45 F2400.0
G1 X2.19 Y-1.55 Z3.45 F2400.0
G1 X9.09 Y-0.93 Z3.45 F2400.0
G1 X9.09 Y7.91 Z3.45 F2400.0
M103
G1 X9.09 Y8.84 Z3.45 F3300.0
M101
G1 X9.09 Y8.38 Z3.45 F2400.0
G1 X2.47 Y4.65 Z3.45 F2400.0
G1 X2.19 Y4.65 Z3.45 F2400.0
G1 X-2.19 Y7.76 Z3.45 F2400.0
G1 X-2.47 Y7.76 Z3.45 F2400.0
G1 X-6.84 Y4.65 Z3.45 F2400.0
G1 X-7.12 Y4.65 Z3.45 F2400.0
G1 X-9.09 Y8.38 Z3.45 F2400.0
G1 X-9.09 Y8.84 Z3.45 F2400.0
M103
(</surroundingLoop>)
(</layer>)
M73 P38 (display progress)
(<layer> 3.75 )
(<surroundingLoop>)
(<boundaryPerimeter>)
(<boundaryPoint> X-10.0 Y-10.0 Z3.75 </boundaryPoint>)
(<boundaryPoint> X10.0 Y-10.0 Z3.75 </boundaryPoint>)
(<boundaryPoint> X10.0 Y10.0 Z3.75 </boundaryPoint>)
(<boundaryPoint> X-10.0 Y10.0 Z3.75 </boundaryPoint>)
(<loop> outer )
G1 X-9.37 Y9.23 Z3.75 F3300.0
M101
G1 X-9.37 Y8.84 Z3.75 F2400.0
G1 X-9.37 Y-9.37 Z3.75 F2400.0
G1 X9.37 Y-9.37 Z3.75 F2400.0
G1 X9.37 Y9.37 Z3.75 F2400.0
G1 X-9.37 Y9.37 Z3.75 F2400.0
G1 X-9.37 Y9.23 Z3.75 F2400.0
M103
(</loop>)
(<perimeter> outer )
M108 R1.986
G1 X-9.79 Y9.23 Z3.75 F3300.0
M101
G1 X-9.79 Y8.84 Z3.75 F1200.0
G1 X-9.79 Y-9.79 Z3.75 F1200.0
G1 X9.79 Y-9.79 Z3.75 F1200.0
G1 X9.79 Y9.79 Z3.75 F1200.0
G1 X-9.79 Y9.79 Z3.75 F1200.0
M108 R40.0
M102
G1 X-9.79 Y9.79 Z3.75 F1200.0
G1 X-9.79 Y9.23 Z3.75 F1200.0
M108 R1.986
M103
(</perimeter>)
(</boundaryPerimeter>)
M108 R3.971
G1 X-8.93 Y-7.49 Z3.75 F3300.0
M108 R40.0
M101
G1 X-8.84 Y-9.09 Z3.75 F3300.0
M108 R3.971
G1 X-6.05 Y-9.09 Z3.75 F2400.0
G1 X-7.11 Y-1.55 Z3.75 F2400.0
G1 X-7.11 Y4.65 Z3.75 F2400.0
G1 X-6.05 Y9.09 Z3.75 F2400.0
G1 X-7.72 Y9.09 Z3.75 F2400.0
M108 R40.0
M102
G1 X-8.84 Y9.09 Z3.75 F2400.0
M108 R3.971
M103
G1 X-7.18 Y9.09 Z3.75 F3300.0
M108 R40.0
M101
G1 X-5.58 Y9.09 Z3.75 F3300.0
M108 R3.971
G1 X-1.4 Y9.09 Z3.75 F2400.0
G1 X-2.46 Y7.76 Z3.75 F2400.0
G1 X-6.85 Y4.65 Z3.75 F2400.0
G1 X-6.85 Y-1.55 Z3.75 F2400.0
G1 X-2.46 Y-4.65 Z3.75 F2400.0
G1 X-1.4 Y-9.09 Z3.75 F2400.0
G1 X-4.46 Y-9.09 Z3.75 F2400.0
M108 R40.0
M102
G1 X-5.58 Y-9.09 Z3.75 F2400.0
M108 R3.971
M103
G1 X1.66 Y-9.09 Z3.75 F3300.0
M108 R40.0
M101
G1 X3.26 Y-9.09 Z3.75 F3300.0
M108 R3.971
G1 X-0.93 Y-9.09 Z3.75 F2400.0
G1 X-2.2 Y-4.65 Z3.75 F2400.0
G1 X2.2 Y-1.55 Z3.75 F2400.0
G1 X2.2 Y4.65 Z3.75 F2400.0
G1 X-2.2 Y7.76 Z3.75 F2400.0
G1 X-0.93 Y9.09 Z3.75 F2400.0
G1 X2.14 Y9.09 Z3.75 F2400.0
M108 R40.0
M102
G1 X3.26 Y9.09 Z3.75 F2400.0
M108 R3.971
M103
G1 X7.95 Y-7.55 Z3.75 F3300.0
M108 R40.0
M101
G1 X8.38 Y-9.09 Z3.75 F3300.0
M108 R3.971
G1 X8.84 Y-9.09 Z3.75 F2400.0
G1 X8.84 Y9.09 Z3.75 F2400.0
G1 X3.72 Y9.09 Z3.75 F2400.0
G1 X2.46 Y4.65 Z3.75 F2400.0
G1 X2.46 Y-1.55 Z3.75 F2400.0
G1 X3.72 Y-9.09 Z3.75 F2400.0
G1 X7.91 Y-9.09 Z3.75 F2400.0
M103
(</surroundingLoop>)
(</layer>)
M73 P41 (display progress)
(<layer> 4.05 )
(<surroundingLoop>)
(<boundaryPerimeter>)
(<boundaryPoint> X-10.0 Y-10.0 Z4.05 </boundaryPoint>)
(<boundaryPoint> X10.0 Y-10.0 Z4.05 </boundaryPoint>)
(<boundaryPoint> X10.0 Y10.0 Z4.05 </boundaryPoint>)
(<boundaryPoint> X-10.0 Y10.0 Z4.05 </boundaryPoint>)
(<loop> outer )
G1 X8.04 Y-9.37 Z4.05 F3300.0
M101
G1 X9.37 Y-9.37 Z4.05 F2400.0
G1 X9.37 Y9.37 Z4.05 F2400.0
G1 X-9.37 Y9.37 Z4.05 F2400.0
G1 X-9.37 Y-9.37 Z4.05 F2400.0
G1 X7.91 Y-9.37 Z4.05 F2400.0
G1 X8.04 Y-9.37 Z4.05 F2400.0
M103
(</loop>)
(<perimeter> outer )
M108 R1.986
G1 X7.91 Y-9.79 Z4.05 F3300.0
M101
G1 X9.79 Y-9.79 Z4.05 F1200.0
G1 X9.79 Y9.79 Z4.05 F1200.0
G1 X-9.79 Y9.79 Z4.05 F1200.0
G1 X-9.79 Y-9.79 Z4.05 F1200.0
G1 X7.35 Y-9.79 Z4.05 F1200.0
M108 R40.0
M102
G1 X7.91 Y-9.79 Z4.05 F1200.0
M108 R1.986
M103
(</perimeter>)
(</boundaryPerimeter>)
M108 R3.971
G1 X8.87 Y-2.98 Z4.05 F3300.0
M108 R40.0
M101
G1 X9.09 Y-1.4 Z4.05 F3300.0
M108 R3.971
G1 X9.09 Y-8.84 Z4.05 F2400.0
G1 X-9.09 Y-8.84 Z4.05 F2400.0
G1 X-9.09 Y-2.52 Z4.05 F2400.0
M108 R40.0
M102
G1 X-9.09 Y-1.4 Z4.05 F2400.0
M108 R3.971
M103
G1 X-9.09 Y6.32 Z4.05 F3300.0
M108 R40.0
M101
G1 X-9.09 Y7.91 Z4.05 F3300.0
M108 R3.971
G1 X-9.09 Y-0.93 Z4.05 F2400.0
G1 X-7.12 Y-1.55 Z4.05 F2400.0
G1 X-6.84 Y-1.55 Z4.05 F2400.0
G1 X-2.47 Y-4.65 Z4.05 F2400.0
G1 X-2.19 Y-4.65 Z4.05 F2400.0
G1 X2.19 Y-1.55 Z4.05 F2400.0
G1 X9.09 Y-0.93 Z4.05 F2400.0
G1 X9.09 Y7.91 Z4.05 F2400.0
M103
G1 X9.09 Y8.84 Z4.05 F3300.0
M101
G1 X9.09 Y8.38 Z4.05 F2400.0
G1 X2.47 Y4.65 Z4.05 F2400.0
G1 X2.19 Y4.65 Z4.05 F2400.0
G1 X-2.19 Y7.76 Z4.05 F2400.0
G1 X-2.47 Y7.76 Z4.05 F2400.0
G1 X-6.84 Y4.65 Z4.05 F2400.0
G1 X-7.12 Y4.65 Z4.05 F2400.0
G1 X-9.09 Y8.38 Z4.05 F2400.0
G1 X-9.09 Y8.84 Z4.05 F2400.0
M103
(</surroundingLoop>)
(</layer>)
M73 P43 (display progress)
(<layer> 4.35 )
(<surroundingLoop>)
(<boundaryPerimeter>)
(<boundaryPoint> X-10.0 Y-10.0 Z4.35 </boundaryPoint>)
(<boundaryPoint> X10.0 Y-10.0 Z4.35 </boundaryPoint>)
(<boundaryPoint> X10.0 Y10.0 Z4.35 </boundaryPoint>)
(<boundaryPoint> X-10.0 Y10.0 Z4.35 </boundaryPoint>)
(<loop> outer )
G1 X-9.37 Y9.04 Z4.35 F3300.0
M101
G1 X-9.37 Y8.84 Z4.35 F2400.0
G1 X-9.37 Y-9.37 Z4.35 F2400.0
G1 X9.37 Y-9.37 Z4.35 F2400.0
G1 X9.37 Y9.37 Z4.35 F2400.0
G1 X-9.37 Y9.37 Z4.35 F2400.0
G1 X-9.37 Y9.04 Z4.35 F2400.0
M103
(</loop>)
(<perimeter> outer )
M108 R1.986
G1 X-9.79 Y8.84 Z4.35 F3300.0
M101
G1 X-9.79 Y-9.79 Z4.35 F1200.0
G1 X9.79 Y-9.79 Z4.35 F1200.0
G1 X9.79 Y9.79 Z4.35 F1200.0
G1 X-9.79 Y9.79 Z4.35 F1200.0
G1 X-9.79 Y9.4 Z4.35 F1200.0
M108 R40.0
M102
G1 X-9.79 Y8.84 Z4.35 F1200.0
M108 R1.986
M103
(</perimeter>)
(</boundaryPerimeter>)
M108 R3.971
G1 X-8.93 Y-7.49 Z4.35 F3300.0
M108 R40.0
M101
G1 X-8.84 Y-9.09 Z4.35 F3300.0
M108 R3.971
G1 X-6.05 Y-9.09 Z4.35 F2400.0
G1 X-7.11 Y-1.55 Z4.35 F2400.0
G1 X-7.11 Y4.65 Z4.35 F2400.0
G1 X-6.05 Y9.09 Z4.35 F2400.0
G1 X-7.72 Y9.09 Z4.35 F2400.0
M108 R40.0
M102
G1 X-8.84 Y9.09 Z4.35 F2400.0
M108 R3.971
M103
G1 X-7.18 Y9.09 Z4.35 F3300.0
M108 R40.0
M101
G1 X-5.58 Y9.09 Z4.35 F3300.0
M108 R3.971
G1 X-1.4 Y9.09 Z4.35 F2400.0
G1 X-2.46 Y7.76 Z4.35 F2400.0
G1 X-6.85 Y4.65 Z4.35 F2400.0
G1 X-6.85 Y-1.55 Z4.35 F2400.0
G1 X-2.46 Y-4.65 Z4.35 F2400.0
G1 X-1.4 Y-9.09 Z4.35 F2400.0
G1 X-4.46 Y-9.09 Z4.35 F2400.0
M108 R40.0
M102
G1 X-5.58 Y-9.09 Z4.35 F2400.0
M108 R3.971
M103
G1 X1.66 Y-9.09 Z4.35 F3300.0
M108 R40.0
M101
G1 X3.26 Y-9.09 Z4.35 F3300.0
M108 R3.971
G1 X-0.93 Y-9.09 Z4.35 F2400.0
G1 X-2.2 Y-4.65 Z4.35 F2400.0
G1 X2.2 Y-1.55 Z4.35 F2400.0
G1 X2.2 Y4.65 Z4.35 F2400.0
G1 X-2.2 Y7.76 Z4.35 F2400.0
G1 X-0.93 Y9.09 Z4.35 F2400.0
G1 X2.14 Y9.09 Z4.35 F2400.0
M108 R40.0
M102
G1 X3.26 Y9.09 Z4.35 F2400.0
M108 R3.971
M103
G1 X7.95 Y-7.55 Z4.35 F3300.0
M108 R40.0
M101
G1 X8.38 Y-9.09 Z4.35 F3300.0
M108 R3.971
G1 X8.84 Y-9.09 Z4.35 F2400.0
G1 X8.84 Y9.09 Z4.35 F2400.0
G1 X3.72 Y9.09 Z4.35 F2400.0
G1 X2.46 Y4.65 Z4.35 F2400.0
G1 X2.46 Y-1.55 Z4.35 F2400.0
G1 X3.72 Y-9.09 Z4.35 F2400.0
G1 X7.91 Y-9.09 Z4.35 F2400.0
M103
(</surroundingLoop>)
(</layer>)
M73 P46 (display progress)
(<layer> 4.65 )
(<surroundingLoop>)
(<boundaryPerimeter>)
(<boundaryPoint> X-10.0 Y-10.0 Z4.65 </boundaryPoint>)
(<boundaryPoint> X10.0 Y-10.0 Z4.65 </boundaryPoint>)
(<boundaryPoint> X10.0 Y10.0 Z4.65 </boundaryPoint>)
(<boundaryPoint> X-10.0 Y10.0 Z4.65 </boundaryPoint>)
(<loop> outer )
G1 X8.24 Y-9.37 Z4.65 F3300.0
M101
G1 X9.37 Y-9.37 Z4.65 F2400.0
G1 X9.37 Y9.37 Z4.65 F2400.0
G1 X-9.37 Y9.37 Z4.65 F2400.0
G1 X-9.37 Y-9.37 Z4.65 F2400.0
G1 X7.91 Y-9.37 Z4.65 F2400.0
G1 X8.24 Y-9.37 Z4.65 F2400.0
M103
(</loop>)
(<perimeter> outer )
M108 R1.986
G1 X8.24 Y-9.79 Z4.65 F3300.0
M101
G1 X9.79 Y-9.79 Z4.65 F1200.0
G1 X9.79 Y9.79 Z4.65 F1200.0
G1 X-9.79 Y9.79 Z4.65 F1200.0
G1 X-9.79 Y-9.79 Z4.65 F1200.0
G1 X7.68 Y-9.79 Z4.65 F1200.0
M108 R40.0
M102
G1 X7.91 Y-9.79 Z4.65 F1200.0
G1 X8.24 Y-9.79 Z4.65 F1200.0
M108 R1.986
M103
(</perimeter>)
(</boundaryPerimeter>)
M108 R3.971
G1 X8.93 Y-2.98 Z4.65 F3300.0
M108 R40.0
M101
G1 X9.09 Y-1.4 Z4.65 F3300.0
M108 R3.971
G1 X9.09 Y-8.84 Z4.65 F2400.0
G1 X-9.09 Y-8.84 Z4.65 F2400.0
G1 X-9.09 Y-2.52 Z4.65 F2400.0
M108 R40.0
M102
G1 X-9.09 Y-1.4 Z4.65 F2400.0
M108 R3.971
M103
G1 X-9.09 Y6.32 Z4.65 F3300.0
M108 R40.0
M101
G1 X-9.09 Y7.91 Z4.65 F3300.0
M108 R3.971
G1 X-9.09 Y-0.93 Z4.65 F2400.0
G1 X-7.12 Y-1.55 Z4.65 F2400.0
G1 X-6.84 Y-1.55 Z4.65 F2400.0
G1 X-2.47 Y-4.65 Z4.65 F2400.0
G1 X-2.19 Y-4.65 Z4.65 F2400.0
G1 X2.19 Y-1.55 Z4.65 F2400.0
G1 X9.09 Y-0.93 Z4.65 F2400.0
G1 X9.09 Y7.91 Z4.65 F2400.0
M103
G1 X9.09 Y8.84 Z4.65 F3300.0
M101
G1 X9.09 Y8.38 Z4.65 F2400.0
G1 X2.47 Y4.65 Z4.65 F2400.0
G1 X2.19 Y4.65 Z4.65 F2400.0
G1 X-2.19 Y7.76 Z4.65 F2400.0
G1 X-2.47 Y7.76 Z4.65 F2400.0
G1 X-6.84 Y4.65 Z4.65 F2400.0
G1 X-7.12 Y4.65 Z4.65 F2400.0
G1 X-9.09 Y8.38 Z4.65 F2400.0
G1 X-9.09 Y8.84 Z4.65 F2400.0
M103
(</surroundingLoop>)
(</layer>)
M73 P49 (display progress)
(<layer> 4.95 )
(<surroundingLoop>)
(<boundaryPerimeter>)
(<boundaryPoint> X-10.0 Y-10.0 Z4.95 </boundaryPoint>)
(<boundaryPoint> X10.0 Y-10.0 Z4.95 </boundaryPoint>)
(<boundaryPoint> X10.0 Y10.0 Z4.95 </boundaryPoint>)
(<boundaryPoint> X-10.0 Y10.0 Z4.95 </boundaryPoint>)
(<loop> outer )
G1 X-9.37 Y8.84 Z4.95 F3300.0
M101
G1 X-9.37 Y-9.37 Z4.95 F2400.0
G1 X9.37 Y-9.37 Z4.95 F2400.0
G1 X9.37 Y9.37 Z4.95 F2400.0
G1 X-9.37 Y9.37 Z4.95 F2400.0
G1 X-9.37 Y8.84 Z4.95 F2400.0
G1 X-9.37 Y8.84 Z4.95 F2400.0
M103
(</loop>)
(<perimeter> outer )
M108 R1.986
G1 X-9.79 Y8.84 Z4.95 F3300.0
M101
G1 X-9.79 Y-9.79 Z4.95 F1200.0
G1 X9.79 Y-9.79 Z4.95 F1200.0
G1 X9.79 Y9.79 Z4.95 F1200.0
G1 X-9.79 Y9.79 Z4.95 F1200.0
G1 X-9.79 Y9.4 Z4.95 F1200.0
M108 R40.0
M102
G1 X-9.79 Y8.84 Z4.95 F1200.0
M108 R1.986
M103
(</perimeter>)
(</boundaryPerimeter>)
M108 R3.971
G1 X-8.93 Y-7.49 Z4.95 F3300.0
M108 R40.0
M101
G1 X-8.84 Y-9.09 Z4.95 F3300.0
M108 R3.971
G1 X-6.05 Y-9.09 Z4.95 F2400.0
G1 X-7.11 Y-1.55 Z4.95 F2400.0
G1 X-7.11 Y4.65 Z4.95 F2400.0
G1 X-6.05 Y9.09 Z4.95 F2400.0
G1 X-7.72 Y9.09 Z4.95 F2400.0
M108 R40.0
M102
G1 X-8.84 Y9.09 Z4.95 F2400.0
M108 R3.971
M103
G1 X-7.18 Y9.09 Z4.95 F3300.0
M108 R40.0
M101
G1 X-5.58 Y9.09 Z4.95 F3300.0
M108 R3.971
G1 X-1.4 Y9.09 Z4.95 F2400.0
G1 X-2.46 Y7.76 Z4.95 F2400.0
G1 X-6.85 Y4.65 Z4.95 F2400.0
G1 X-6.85 Y-1.55 Z4.95 F2400.0
G1 X-2.46 Y-4.65 Z4.95 F2400.0
G1 X-1.4 Y-9.09 Z4.95 F2400.0
G1 X-4.46 Y-9.09 Z4.95 F2400.0
M108 R40.0
M102
G1 X-5.58 Y-9.09 Z4.95 F2400.0
M108 R3.971
M103
G1 X1.66 Y-9.09 Z4.95 F3300.0
M108 R40.0
M101
G1 X3.26 Y-9.09 Z4.95 F3300.0
M108 R3.971
G1 X-0.93 Y-9.09 Z4.95 F2400.0
G1 X-2.2 Y-4.65 Z4.95 F2400.0
G1 X2.2 Y-1.55 Z4.95 F2400.0
G1 X2.2 Y4.65 Z4.95 F2400.0
G1 X-2.2 Y7.76 Z4.95 F2400.0
G1 X-0.93 Y9.09 Z4.95 F2400.0
G1 X2.14 Y9.09 Z4.95 F2400.0
M108 R40.0
M102
G1 X3.26 Y9.09 Z4.95 F2400.0
M108 R3.971
M103
G1 X7.95 Y-7.55 Z4.95 F3300.0
M108 R40.0
M101
G1 X8.38 Y-9.09 Z4.95 F3300.0
M108 R3.971
G1 X8.84 Y-9.09 Z4.95 F2400.0
G1 X8.84 Y9.09 Z4.95 F2400.0
G1 X3.72 Y9.09 Z4.95 F2400.0
G1 X2.46 Y4.65 Z4.95 F2400.0
G1 X2.46 Y-1.55 Z4.95 F2400.0
G1 X3.72 Y-9.09 Z4.95 F2400.0
G1 X7.91 Y-9.09 Z4.95 F2400.0
M103
(</surroundingLoop>)
(</layer>)
M73 P52 (display progress)
(<layer> 5.25 )
(<surroundingLoop>)
(<boundaryPerimeter>)
(<boundaryPoint> X-10.0 Y-10.0 Z5.25 </boundaryPoint>)
(<boundaryPoint> X10.0 Y-10.0 Z5.25 </boundaryPoint>)
(<boundaryPoint> X10.0 Y10.0 Z5.25 </boundaryPoint>)
(<boundaryPoint> X-10.0 Y10.0 Z5.25 </boundaryPoint>)
(<loop> outer )
G1 X7.6 Y-9.37 Z5.25 F3300.0
M101
G1 X7.91 Y-9.37 Z5.25 F2400.0
G1 X9.37 Y-9.37 Z5.25 F2400.0
G1 X9.37 Y9.37 Z5.25 F2400.0
G1 X-9.37 Y9.37 Z5.25 F2400.0
G1 X-9.37 Y-9.37 Z5.25 F2400.0
G1 X7.6 Y-9.37 Z5.25 F2400.0
M103
(</loop>)
(<perimeter> outer )
M108 R1.986
G1 X7.6 Y-9.79 Z5.25 F3300.0
M101
G1 X7.91 Y-9.79 Z5.25 F1200.0
G1 X9.79 Y-9.79 Z5.25 F1200.0
G1 X9.79 Y9.79 Z5.25 F1200.0
G1 X-9.79 Y9.79 Z5.25 F1200.0
G1 X-9.79 Y-9.79 Z5.25 F1200.0
G1 X7.04 Y-9.79 Z5.25 F1200.0
M108 R40.0
M102
G1 X7.6 Y-9.79 Z5.25 F1200.0
M108 R1.986
M103
(</perimeter>)
(</boundaryPerimeter>)
M108 R3.971
G1 X8.81 Y-2.97 Z5.25 F3300.0
M108 R40.0
M101
G1 X9.09 Y-1.4 Z5.25 F3300.0
M108 R3.971
G1 X9.09 Y-8.84 Z5.25 F2400.0
G1 X-9.09 Y-8.84 Z5.25 F2400.0
G1 X-9.09 Y-2.52 Z5.25 F2400.0
M108 R40.0
M102
G1 X-9.09 Y-1.4 Z5.25 F2400.0
M108 R3.971
M103
G1 X-9.09 Y6.32 Z5.25 F3300.0
M108 R40.0
M101
G1 X-9.09 Y7.91 Z5.25 F3300.0
M108 R3.971
G1 X-9.09 Y-0.93 Z5.25 F2400.0
G1 X-7.12 Y-1.55 Z5.25 F2400.0
G1 X-6.84 Y-1.55 Z5.25 F2400.0
G1 X-2.47 Y-4.65 Z5.25 F2400.0
G1 X-2.19 Y-4.65 Z5.25 F2400.0
G1 X2.19 Y-1.55 Z5.25 F2400.0
G1 X9.09 Y-0.93 Z5.25 F2400.0
G1 X9.09 Y7.91 Z5.25 F2400.0
M103
G1 X9.09 Y8.84 Z5.25 F3300.0
M101
G1 X9.09 Y8.38 Z5.25 F2400.0
G1 X2.47 Y4.65 Z5.25 F2400.0
G1 X2.19 Y4.65 Z5.25 F2400.0
G1 X-2.19 Y7.76 Z5.25 F2400.0
G1 X-2.47 Y7.76 Z5.25 F2400.0
G1 X-6.84 Y4.65 Z5.25 F2400.0
G1 X-7.12 Y4.65 Z5.25 F2400.0
G1 X-9.09 Y8.38 Z5.25 F2400.0
G1 X-9.09 Y8.84 Z5.25 F2400.0
M103
(</surroundingLoop>)
(</layer>)
M73 P54 (display progress)
(<layer> 5.55 )
(<surroundingLoop>)
(<boundaryPerimeter>)
(<boundaryPoint> X-10.0 Y-10.0 Z5.55 </boundaryPoint>)
(<boundaryPoint> X10.0 Y-10.0 Z5.55 </boundaryPoint>)
(<boundaryPoint> X10.0 Y10.0 Z5.55 </boundaryPoint>)
(<boundaryPoint> X-10.0 Y10.0 Z5.55 </boundaryPoint>)
(<loop> outer )
G1 X-9.37 Y8.64 Z5.55 F3300.0
M101
G1 X-9.37 Y-9.37 Z5.55 F2400.0
G1 X9.37 Y-9.37 Z5.55 F2400.0
G1 X9.37 Y9.37 Z5.55 F2400.0
G1 X-9.37 Y9.37 Z5.55 F2400.0
G1 X-9.37 Y8.84 Z5.55 F2400.0
G1 X-9.37 Y8.64 Z5.55 F2400.0
M103
(</loop>)
(<perimeter> outer )
M108 R1.986
G1 X-9.79 Y8.84 Z5.55 F3300.0
M101
G1 X-9.79 Y-9.79 Z5.55 F1200.0
G1 X9.79 Y-9.79 Z5.55 F1200.0
G1 X9.79 Y9.79 Z5.55 F1200.0
G1 X-9.79 Y9.79 Z5.55 F1200.0
G1 X-9.79 Y9.4 Z5.55 F1200.0
M108 R40.0
M102
G1 X-9.79 Y8.84 Z5.55 F1200.0
M108 R1.986
M103
(</perimeter>)
(</boundaryPerimeter>)
M108 R3.971
G1 X-8.93 Y-7.49 Z5.55 F3300.0
M108 R40.0
M101
G1 X-8.84 Y-9.09 Z5.55 F3300.0
M108 R3.971
G1 X-6.05 Y-9.09 Z5.55 F2400.0
G1 X-7.11 Y-1.55 Z5.55 F2400.0
G1 X-7.11 Y4.65 Z5.55 F2400.0
G1 X-6.05 Y9.09 Z5.55 F2400.0
G1 X-7.72 Y9.09 Z5.55 F2400.0
M108 R40.0
M102
G1 X-8.84 Y9.09 Z5.55 F2400.0
M108 R3.971
M103
G1 X-7.18 Y9.09 Z5.55 F3300.0
M108 R40.0
M101
G1 X-5.58 Y9.09 Z5.55 F3300.0
M108 R3.971
G1 X-1.4 Y9.09 Z5.55 F2400.0
G1 X-2.46 Y7.76 Z5.55 F2400.0
G1 X-6.85 Y4.65 Z5.55 F2400.0
G1 X-6.85 Y-1.55 Z5.55 F2400.0
G1 X-2.46 Y-4.65 Z5.55 F2400.0
G1 X-1.4 Y-9.09 Z5.55 F2400.0
G1 X-4.46 Y-9.09 Z5.55 F2400.0
M108 R40.0
M102
G1 X-5.58 Y-9.09 Z5.55 F2400.0
M108 R3.971
M103
G1 X1.66 Y-9.09 Z5.55 F3300.0
M108 R40.0
M101
G1 X3.26 Y-9.09 Z5.55 F3300.0
M108 R3.971
G1 X-0.93 Y-9.09 Z5.55 F2400.0
G1 X-2.2 Y-4.65 Z5.55 F2400.0
G1 X2.2 Y-1.55 Z5.55 F2400.0
G1 X2.2 Y4.65 Z5.55 F2400.0
G1 X-2.2 Y7.76 Z5.55 F2400.0
G1 X-0.93 Y9.09 Z5.55 F2400.0
G1 X2.14 Y9.09 Z5.55 F2400.0
M108 R40.0
M102
G1 X3.26 Y9.09 Z5.55 F2400.0
M108 R3.971
M103
G1 X7.95 Y-7.55 Z5.55 F3300.0
M108 R40.0
M101
G1 X8.38 Y-9.09 Z5.55 F3300.0
M108 R3.971
G1 X8.84 Y-9.09 Z5.55 F2400.0
G1 X8.84 Y9.09 Z5.55 F2400.0
G1 X3.72 Y9.09 Z5.55 F2400.0
G1 X2.46 Y4.65 Z5.55 F2400.0
G1 X2.46 Y-1.55 Z5.55 F2400.0
G1 X3.72 Y-9.09 Z5.55 F2400.0
G1 X7.91 Y-9.09 Z5.55 F2400.0
M103
(</surroundingLoop>)
(</layer>)
M73 P57 (display progress)
(<layer> 5.85 )
(<surroundingLoop>)
(<boundaryPerimeter>)
(<boundaryPoint> X-10.0 Y-10.0 Z5.85 </boundaryPoint>)
(<boundaryPoint> X10.0 Y-10.0 Z5.85 </boundaryPoint>)
(<boundaryPoint> X10.0 Y10.0 Z5.85 </boundaryPoint>)
(<boundaryPoint> X-10.0 Y10.0 Z5.85 </boundaryPoint>)
(<loop> outer )
G1 X7.79 Y-9.37 Z5.85 F3300.0
M101
G1 X7.91 Y-9.37 Z5.85 F2400.0
G1 X9.37 Y-9.37 Z5.85 F2400.0
G1 X9.37 Y9.37 Z5.85 F2400.0
G1 X-9.37 Y9.37 Z5.85 F2400.0
G1 X-9.37 Y-9.37 Z5.85 F2400.0
G1 X7.79 Y-9.37 Z5.85 F2400.0
M103
(</loop>)
(<perimeter> outer )
M108 R1.986
G1 X7.91 Y-9.79 Z5.85 F3300.0
M101
G1 X9.79 Y-9.79 Z5.85 F1200.0
G1 X9.79 Y9.79 Z5.85 F1200.0
G1 X-9.79 Y9.79 Z5.85 F1200.0
G1 X-9.79 Y-9.79 Z5.85 F1200.0
G1 X7.35 Y-9.79 Z5.85 F1200.0
M108 R40.0
M102
G1 X7.91 Y-9.79 Z5.85 F1200.0
M108 R1.986
M103
(</perimeter>)
(</boundaryPerimeter>)
M108 R3.971
G1 X8.87 Y-2.98 Z5.85 F3300.0
M108 R40.0
M101
G1 X9.09 Y-1.4 Z5.85 F3300.0
M108 R3.971
G1 X9.09 Y-8.84 Z5.85 F2400.0
G1 X-9.09 Y-8.84 Z5.85 F2400.0
G1 X-9.09 Y-2.52 Z5.85 F2400.0
M108 R40.0
M102
G1 X-9.09 Y-1.4 Z5.85 F2400.0
M108 R3.971
M103
G1 X-9.09 Y6.32 Z5.85 F3300.0
M108 R40.0
M101
G1 X-9.09 Y7.91 Z5.85 F3300.0
M108 R3.971
G1 X-9.09 Y-0.93 Z5.85 F2400.0
G1 X-7.12 Y-1.55 Z5.85 F2400.0
G1 X-6.84 Y-1.55 Z5.85 F2400.0
G1 X-2.47 Y-4.65 Z5.85 F2400.0
G1 X-2.19 Y-4.65 Z5.85 F2400.0
G1 X2.19 Y-1.55 Z5.85 F2400.0
G1 X9.09 Y-0.93 Z5.85 F2400.0
G1 X9.09 Y7.91 Z5.85 F2400.0
M103
G1 X9.09 Y8.84 Z5.85 F3300.0
M101
G1 X9.09 Y8.38 Z5.85 F2400.0
G1 X2.47 Y4.65 Z5.85 F2400.0
G1 X2.19 Y4.65 Z5.85 F2400.0
G1 X-2.19 Y7.76 Z5.85 F2400.0
G1 X-2.47 Y7.76 Z5.85 F2400.0
G1 X-6.84 Y4.65 Z5.85 F2400.0
G1 X-7.12 Y4.65 Z5.85 F2400.0
G1 X-9.09 Y8.38 Z5.85 F2400.0
G1 X-9.09 Y8.84 Z5.85 F2400.0
M103
(</surroundingLoop>)
(</layer>)
M73 P60 (display progress)
(<layer> 6.15 )
(<surroundingLoop>)
(<boundaryPerimeter>)
(<boundaryPoint> X-10.0 Y-10.0 Z6.15 </boundaryPoint>)
(<boundaryPoint> X10.0 Y-10.0 Z6.15 </boundaryPoint>)
(<boundaryPoint> X10.0 Y10.0 Z6.15 </boundaryPoint>)
(<boundaryPoint> X-10.0 Y10.0 Z6.15 </boundaryPoint>)
(<loop> outer )
G1 X-9.37 Y8.44 Z6.15 F3300.0
M101
G1 X-9.37 Y-9.37 Z6.15 F2400.0
G1 X9.37 Y-9.37 Z6.15 F2400.0
G1 X9.37 Y9.37 Z6.15 F2400.0
G1 X-9.37 Y9.37 Z6.15 F2400.0
G1 X-9.37 Y8.84 Z6.15 F2400.0
G1 X-9.37 Y8.44 Z6.15 F2400.0
M103
(</loop>)
(<perimeter> outer )
M108 R1.986
G1 X-9.79 Y8.44 Z6.15 F3300.0
M101
G1 X-9.79 Y-9.79 Z6.15 F1200.0
G1 X9.79 Y-9.79 Z6.15 F1200.0
G1 X9.79 Y9.79 Z6.15 F1200.0
G1 X-9.79 Y9.79 Z6.15 F1200.0
G1 X-9.79 Y9.0 Z6.15 F1200.0
M108 R40.0
M102
G1 X-9.79 Y8.84 Z6.15 F1200.0
G1 X-9.79 Y8.44 Z6.15 F1200.0
M108 R1.986
M103
(</perimeter>)
(</boundaryPerimeter>)
M108 R3.971
G1 X-8.93 Y-7.49 Z6.15 F3300.0
M108 R40.0
M101
G1 X-8.84 Y-9.09 Z6.15 F3300.0
M108 R3.971
G1 X-6.05 Y-9.09 Z6.15 F2400.0
G1 X-7.11 Y-1.55 Z6.15 F2400.0
G1 X-7.11 Y4.65 Z6.15 F2400.0
G1 X-6.05 Y9.09 Z6.15 F2400.0
G1 X-7.72 Y9.09 Z6.15 F2400.0
M108 R40.0
M102
G1 X-8.84 Y9.09 Z6.15 F2400.0
M108 R3.971
M103
G1 X-7.18 Y9.09 Z6.15 F3300.0
M108 R40.0
M101
G1 X-5.58 Y9.09 Z6.15 F3300.0
M108 R3.971
G1 X-1.4 Y9.09 Z6.15 F2400.0
G1 X-2.46 Y7.76 Z6.15 F2400.0
G1 X-6.85 Y4.65 Z6.15 F2400.0
G1 X-6.85 Y-1.55 Z6.15 F2400.0
G1 X-2.46 Y-4.65 Z6.15 F2400.0
G1 X-1.4 Y-9.09 Z6.15 F2400.0
G1 X-4.46 Y-9.09 Z6.15 F2400.0
M108 R40.0
M102
G1 X-5.58 Y-9.09 Z6.15 F2400.0
M108 R3.971
M103
G1 X1.66 Y-9.09 Z6.15 F3300.0
M108 R40.0
M101
G1 X3.26 Y-9.09 Z6.15 F3300.0
M108 R3.971
G1 X-0.93 Y-9.09 Z6.15 F2400.0
G1 X-2.2 Y-4.65 Z6.15 F2400.0
G1 X2.2 Y-1.55 Z6.15 F2400.0
G1 X2.2 Y4.65 Z6.15 F2400.0
G1 X-2.2 Y7.76 Z6.15 F2400.0
G1 X-0.93 Y9.09 Z6.15 F2400.0
G1 X2.14 Y9.09 Z6.15 F2400.0
M108 R40.0
M102
G1 X3.26 Y9.09 Z6.15 F2400.0
M108 R3.971
M103
G1 X7.95 Y-7.55 Z6.15 F3300.0
M108 R40.0
M101
G1 X8.38 Y-9.09 Z6.15 F3300.0
M108 R3.971
G1 X8.84 Y-9.09 Z6.15 F2400.0
G1 X8.84 Y9.09 Z6.15 F2400.0
G1 X3.72 Y9.09 Z6.15 F2400.0
G1 X2.46 Y4.65 Z6.15 F2400.0
G1 X2.46 Y-1.55 Z6.15 F2400.0
G1 X3.72 Y-9.09 Z6.15 F2400.0
G1 X7.91 Y-9.09 Z6.15 F2400.0
M103
(</surroundingLoop>)
(</layer>)
M73 P63 (display progress)
(<layer> 6.45 )
(<surroundingLoop>)
(<boundaryPerimeter>)
(<boundaryPoint> X-10.0 Y-10.0 Z6.45 </boundaryPoint>)
(<boundaryPoint> X10.0 Y-10.0 Z6.45 </boundaryPoint>)
(<boundaryPoint> X10.0 Y10.0 Z6.45 </boundaryPoint>)
(<boundaryPoint> X-10.0 Y10.0 Z6.45 </boundaryPoint>)
(<loop> outer )
G1 X7.99 Y-9.37 Z6.45 F3300.0
M101
G1 X9.37 Y-9.37 Z6.45 F2400.0
G1 X9.37 Y9.37 Z6.45 F2400.0
G1 X-9.37 Y9.37 Z6.45 F2400.0
G1 X-9.37 Y-9.37 Z6.45 F2400.0
G1 X7.91 Y-9.37 Z6.45 F2400.0
G1 X7.99 Y-9.37 Z6.45 F2400.0
M103
(</loop>)
(<perimeter> outer )
M108 R1.986
G1 X7.91 Y-9.79 Z6.45 F3300.0
M101
G1 X9.79 Y-9.79 Z6.45 F1200.0
G1 X9.79 Y9.79 Z6.45 F1200.0
G1 X-9.79 Y9.79 Z6.45 F1200.0
G1 X-9.79 Y-9.79 Z6.45 F1200.0
G1 X7.35 Y-9.79 Z6.45 F1200.0
M108 R40.0
M102
G1 X7.91 Y-9.79 Z6.45 F1200.0
M108 R1.986
M103
(</perimeter>)
(</boundaryPerimeter>)
M108 R3.971
G1 X8.87 Y-2.98 Z6.45 F3300.0
M108 R40.0
M101
G1 X9.09 Y-1.4 Z6.45 F3300.0
M108 R3.971
G1 X9.09 Y-8.84 Z6.45 F2400.0
G1 X-9.09 Y-8.84 Z6.45 F2400.0
G1 X-9.09 Y-2.52 Z6.45 F2400.0
M108 R40.0
M102
G1 X-9.09 Y-1.4 Z6.45 F2400.0
M108 R3.971
M103
G1 X-9.09 Y6.32 Z6.45 F3300.0
M108 R40.0
M101
G1 X-9.09 Y7.91 Z6.45 F3300.0
M108 R3.971
G1 X-9.09 Y-0.93 Z6.45 F2400.0
G1 X-7.12 Y-1.55 Z6.45 F2400.0
G1 X-6.84 Y-1.55 Z6.45 F2400.0
G1 X-2.47 Y-4.65 Z6.45 F2400.0
G1 X-2.19 Y-4.65 Z6.45 F2400.0
G1 X2.19 Y-1.55 Z6.45 F2400.0
G1 X9.09 Y-0.93 Z6.45 F2400.0
G1 X9.09 Y7.91 Z6.45 F2400.0
M103
G1 X9.09 Y8.84 Z6.45 F3300.0
M101
G1 X9.09 Y8.38 Z6.45 F2400.0
G1 X2.47 Y4.65 Z6.45 F2400.0
G1 X2.19 Y4.65 Z6.45 F2400.0
G1 X-2.19 Y7.76 Z6.45 F2400.0
G1 X-2.47 Y7.76 Z6.45 F2400.0
G1 X-6.84 Y4.65 Z6.45 F2400.0
G1 X-7.12 Y4.65 Z6.45 F2400.0
G1 X-9.09 Y8.38 Z6.45 F2400.0
G1 X-9.09 Y8.84 Z6.45 F2400.0
M103
(</surroundingLoop>)
(</layer>)
M73 P65 (display progress)
(<layer> 6.75 )
(<surroundingLoop>)
(<boundaryPerimeter>)
(<boundaryPoint> X-10.0 Y-10.0 Z6.75 </boundaryPoint>)
(<boundaryPoint> X10.0 Y-10.0 Z6.75 </boundaryPoint>)
(<boundaryPoint> X10.0 Y10.0 Z6.75 </boundaryPoint>)
(<boundaryPoint> X-10.0 Y10.0 Z6.75 </boundaryPoint>)
(<loop> outer )
G1 X-9.37 Y9.08 Z6.75 F3300.0
M101
G1 X-9.37 Y8.84 Z6.75 F2400.0
G1 X-9.37 Y-9.37 Z6.75 F2400.0
G1 X9.37 Y-9.37 Z6.75 F2400.0
G1 X9.37 Y9.37 Z6.75 F2400.0
G1 X-9.37 Y9.37 Z6.75 F2400.0
G1 X-9.37 Y9.08 Z6.75 F2400.0
M103
(</loop>)
(<perimeter> outer )
M108 R1.986
G1 X-9.79 Y9.08 Z6.75 F3300.0
M101
G1 X-9.79 Y8.84 Z6.75 F1200.0
G1 X-9.79 Y-9.79 Z6.75 F1200.0
G1 X9.79 Y-9.79 Z6.75 F1200.0
G1 X9.79 Y9.79 Z6.75 F1200.0
G1 X-9.79 Y9.79 Z6.75 F1200.0
G1 X-9.79 Y9.64 Z6.75 F1200.0
M108 R40.0
M102
G1 X-9.79 Y9.08 Z6.75 F1200.0
M108 R1.986
M103
(</perimeter>)
(</boundaryPerimeter>)
M108 R3.971
G1 X-8.93 Y-7.49 Z6.75 F3300.0
M108 R40.0
M101
G1 X-8.84 Y-9.09 Z6.75 F3300.0
M108 R3.971
G1 X-6.05 Y-9.09 Z6.75 F2400.0
G1 X-7.11 Y-1.55 Z6.75 F2400.0
G1 X-7.11 Y4.65 Z6.75 F2400.0
G1 X-6.05 Y9.09 Z6.75 F2400.0
G1 X-7.72 Y9.09 Z6.75 F2400.0
M108 R40.0
M102
G1 X-8.84 Y9.09 Z6.75 F2400.0
M108 R3.971
M103
G1 X-7.18 Y9.09 Z6.75 F3300.0
M108 R40.0
M101
G1 X-5.58 Y9.09 Z6.75 F3300.0
M108 R3.971
G1 X-1.4 Y9.09 Z6.75 F2400.0
G1 X-2.46 Y7.76 Z6.75 F2400.0
G1 X-6.85 Y4.65 Z6.75 F2400.0
G1 X-6.85 Y-1.55 Z6.75 F2400.0
G1 X-2.46 Y-4.65 Z6.75 F2400.0
G1 X-1.4 Y-9.09 Z6.75 F2400.0
G1 X-4.46 Y-9.09 Z6.75 F2400.0
M108 R40.0
M102
G1 X-5.58 Y-9.09 Z6.75 F2400.0
M108 R3.971
M103
G1 X1.66 Y-9.09 Z6.75 F3300.0
M108 R40.0
M101
G1 X3.26 Y-9.09 Z6.75 F3300.0
M108 R3.971
G1 X-0.93 Y-9.09 Z6.75 F2400.0
G1 X-2.2 Y-4.65 Z6.75 F2400.0
G1 X2.2 Y-1.55 Z6.75 F2400.0
G1 X2.2 Y4.65 Z6.75 F2400.0
G1 X-2.2 Y7.76 Z6.75 F2400.0
G1 X-0.93 Y9.09 Z6.75 F2400.0
G1 X2.14 Y9.09 Z6.75 F2400.0
M108 R40.0
M102
G1 X3.26 Y9.09 Z6.75 F2400.0
M108 R3.971
M103
G1 X7.95 Y-7.55 Z6.75 F3300.0
M108 R40.0
M101
G1 X8.38 Y-9.09 Z6.75 F3300.0
M108 R3.971
G1 X8.84 Y-9.09 Z6.75 F2400.0
G1 X8.84 Y9.09 Z6.75 F2400.0
G1 X3.72 Y9.09 Z6.75 F2400.0
G1 X2.46 Y4.65 Z6.75 F2400.0
G1 X2.46 Y-1.55 Z6.75 F2400.0
G1 X3.72 Y-9.09 Z6.75 F2400.0
G1 X7.91 Y-9.09 Z6.75 F2400.0
M103
(</surroundingLoop>)
(</layer>)
M73 P68 (display progress)
(<layer> 7.05 )
(<surroundingLoop>)
(<boundaryPerimeter>)
(<boundaryPoint> X-10.0 Y-10.0 Z7.05 </boundaryPoint>)
(<boundaryPoint> X10.0 Y-10.0 Z7.05 </boundaryPoint>)
(<boundaryPoint> X10.0 Y10.0 Z7.05 </boundaryPoint>)
(<boundaryPoint> X-10.0 Y10.0 Z7.05 </boundaryPoint>)
(<loop> outer )
G1 X8.19 Y-9.37 Z7.05 F3300.0
M101
G1 X9.37 Y-9.37 Z7.05 F2400.0
G1 X9.37 Y9.37 Z7.05 F2400.0
G1 X-9.37 Y9.37 Z7.05 F2400.0
G1 X-9.37 Y-9.37 Z7.05 F2400.0
G1 X7.91 Y-9.37 Z7.05 F2400.0
G1 X8.19 Y-9.37 Z7.05 F2400.0
M103
(</loop>)
(<perimeter> outer )
M108 R1.986
G1 X8.19 Y-9.79 Z7.05 F3300.0
M101
G1 X9.79 Y-9.79 Z7.05 F1200.0
G1 X9.79 Y9.79 Z7.05 F1200.0
G1 X-9.79 Y9.79 Z7.05 F1200.0
G1 X-9.79 Y-9.79 Z7.05 F1200.0
G1 X7.63 Y-9.79 Z7.05 F1200.0
M108 R40.0
M102
G1 X7.91 Y-9.79 Z7.05 F1200.0
G1 X8.19 Y-9.79 Z7.05 F1200.0
M108 R1.986
M103
(</perimeter>)
(</boundaryPerimeter>)
M108 R3.971
G1 X8.92 Y-2.98 Z7.05 F3300.0
M108 R40.0
M101
G1 X9.09 Y-1.4 Z7.05 F3300.0
M108 R3.971
G1 X9.09 Y-8.84 Z7.05 F2400.0
G1 X-9.09 Y-8.84 Z7.05 F2400.0
G1 X-9.09 Y-2.52 Z7.05 F2400.0
M108 R40.0
M102
G1 X-9.09 Y-1.4 Z7.05 F2400.0
M108 R3.971
M103
G1 X-9.09 Y6.32 Z7.05 F3300.0
M108 R40.0
M101
G1 X-9.09 Y7.91 Z7.05 F3300.0
M108 R3.971
G1 X-9.09 Y-0.93 Z7.05 F2400.0
G1 X-7.12 Y-1.55 Z7.05 F2400.0
G1 X-6.84 Y-1.55 Z7.05 F2400.0
G1 X-2.47 Y-4.65 Z7.05 F2400.0
G1 X-2.19 Y-4.65 Z7.05 F2400.0
G1 X2.19 Y-1.55 Z7.05 F2400.0
G1 X9.09 Y-0.93 Z7.05 F2400.0
G1 X9.09 Y7.91 Z7.05 F2400.0
M103
G1 X9.09 Y8.84 Z7.05 F3300.0
M101
G1 X9.09 Y8.38 Z7.05 F2400.0
G1 X2.47 Y4.65 Z7.05 F2400.0
G1 X2.19 Y4.65 Z7.05 F2400.0
G1 X-2.19 Y7.76 Z7.05 F2400.0
G1 X-2.47 Y7.76 Z7.05 F2400.0
G1 X-6.84 Y4.65 Z7.05 F2400.0
G1 X-7.12 Y4.65 Z7.05 F2400.0
G1 X-9.09 Y8.38 Z7.05 F2400.0
G1 X-9.09 Y8.84 Z7.05 F2400.0
M103
(</surroundingLoop>)
(</layer>)
M73 P71 (display progress)
(<layer> 7.35 )
(<surroundingLoop>)
(<boundaryPerimeter>)
(<boundaryPoint> X-10.0 Y-10.0 Z7.35 </boundaryPoint>)
(<boundaryPoint> X10.0 Y-10.0 Z7.35 </boundaryPoint>)
(<boundaryPoint> X10.0 Y10.0 Z7.35 </boundaryPoint>)
(<boundaryPoint> X-10.0 Y10.0 Z7.35 </boundaryPoint>)
(<loop> outer )
G1 X-9.37 Y8.88 Z7.35 F3300.0
M101
G1 X-9.37 Y8.84 Z7.35 F2400.0
G1 X-9.37 Y-9.37 Z7.35 F2400.0
G1 X9.37 Y-9.37 Z7.35 F2400.0
G1 X9.37 Y9.37 Z7.35 F2400.0
G1 X-9.37 Y9.37 Z7.35 F2400.0
G1 X-9.37 Y8.88 Z7.35 F2400.0
M103
(</loop>)
(<perimeter> outer )
M108 R1.986
G1 X-9.79 Y8.84 Z7.35 F3300.0
M101
G1 X-9.79 Y-9.79 Z7.35 F1200.0
G1 X9.79 Y-9.79 Z7.35 F1200.0
G1 X9.79 Y9.79 Z7.35 F1200.0
G1 X-9.79 Y9.79 Z7.35 F1200.0
G1 X-9.79 Y9.4 Z7.35 F1200.0
M108 R40.0
M102
G1 X-9.79 Y8.84 Z7.35 F1200.0
M108 R1.986
M103
(</perimeter>)
(</boundaryPerimeter>)
M108 R3.971
G1 X-8.93 Y-7.49 Z7.35 F3300.0
M108 R40.0
M101
G1 X-8.84 Y-9.09 Z7.35 F3300.0
M108 R3.971
G1 X-6.05 Y-9.09 Z7.35 F2400.0
G1 X-7.11 Y-1.55 Z7.35 F2400.0
G1 X-7.11 Y4.65 Z7.35 F2400.0
G1 X-6.05 Y9.09 Z7.35 F2400.0
G1 X-7.72 Y9.09 Z7.35 F2400.0
M108 R40.0
M102
G1 X-8.84 Y9.09 Z7.35 F2400.0
M108 R3.971
M103
G1 X-7.18 Y9.09 Z7.35 F3300.0
M108 R40.0
M101
G1 X-5.58 Y9.09 Z7.35 F3300.0
M108 R3.971
G1 X-1.4 Y9.09 Z7.35 F2400.0
G1 X-2.46 Y7.76 Z7.35 F2400.0
G1 X-6.85 Y4.65 Z7.35 F2400.0
G1 X-6.85 Y-1.55 Z7.35 F2400.0
G1 X-2.46 Y-4.65 Z7.35 F2400.0
G1 X-1.4 Y-9.09 Z7.35 F2400.0
G1 X-4.46 Y-9.09 Z7.35 F2400.0
M108 R40.0
M102
G1 X-5.58 Y-9.09 Z7.35 F2400.0
M108 R3.971
M103
G1 X1.66 Y-9.09 Z7.35 F3300.0
M108 R40.0
M101
G1 X3.26 Y-9.09 Z7.35 F3300.0
M108 R3.971
G1 X-0.93 Y-9.09 Z7.35 F2400.0
G1 X-2.2 Y-4.65 Z7.35 F2400.0
G1 X2.2 Y-1.55 Z7.35 F2400.0
G1 X2.2 Y4.65 Z7.35 F2400.0
G1 X-2.2 Y7.76 Z7.35 F2400.0
G1 X-0.93 Y9.09 Z7.35 F2400.0
G1 X2.14 Y9.09 Z7.35 F2400.0
M108 R40.0
M102
G1 X3.26 Y9.09 Z7.35 F2400.0
M108 R3.971
M103
G1 X7.95 Y-7.55 Z7.35 F3300.0
M108 R40.0
M101
G1 X8.38 Y-9.09 Z7.35 F3300.0
M108 R3.971
G1 X8.84 Y-9.09 Z7.35 F2400.0
G1 X8.84 Y9.09 Z7.35 F2400.0
G1 X3.72 Y9.09 Z7.35 F2400.0
G1 X2.46 Y4.65 Z7.35 F2400.0
G1 X2.46 Y-1.55 Z7.35 F2400.0
G1 X3.72 Y-9.09 Z7.35 F2400.0
G1 X7.91 Y-9.09 Z7.35 F2400.0
M103
(</surroundingLoop>)
(</layer>)
M73 P74 (display progress)
(<layer> 7.65 )
(<surroundingLoop>)
(<boundaryPerimeter>)
(<boundaryPoint> X-10.0 Y-10.0 Z7.65 </boundaryPoint>)
(<boundaryPoint> X10.0 Y-10.0 Z7.65 </boundaryPoint>)
(<boundaryPoint> X10.0 Y10.0 Z7.65 </boundaryPoint>)
(<boundaryPoint> X-10.0 Y10.0 Z7.65 </boundaryPoint>)
(<loop> outer )
G1 X7.55 Y-9.37 Z7.65 F3300.0
M101
G1 X7.91 Y-9.37 Z7.65 F2400.0
G1 X9.37 Y-9.37 Z7.65 F2400.0
G1 X9.37 Y9.37 Z7.65 F2400.0
G1 X-9.37 Y9.37 Z7.65 F2400.0
G1 X-9.37 Y-9.37 Z7.65 F2400.0
G1 X7.55 Y-9.37 Z7.65 F2400.0
M103
(</loop>)
(<perimeter> outer )
M108 R1.986
G1 X7.55 Y-9.79 Z7.65 F3300.0
M101
G1 X7.91 Y-9.79 Z7.65 F1200.0
G1 X9.79 Y-9.79 Z7.65 F1200.0
G1 X9.79 Y9.79 Z7.65 F1200.0
G1 X-9.79 Y9.79 Z7.65 F1200.0
G1 X-9.79 Y-9.79 Z7.65 F1200.0
G1 X6.99 Y-9.79 Z7.65 F1200.0
M108 R40.0
M102
G1 X7.55 Y-9.79 Z7.65 F1200.0
M108 R1.986
M103
(</perimeter>)
(</boundaryPerimeter>)
M108 R3.971
G1 X8.8 Y-2.96 Z7.65 F3300.0
M108 R40.0
M101
G1 X9.09 Y-1.4 Z7.65 F3300.0
M108 R3.971
G1 X9.09 Y-8.84 Z7.65 F2400.0
G1 X-9.09 Y-8.84 Z7.65 F2400.0
G1 X-9.09 Y-2.52 Z7.65 F2400.0
M108 R40.0
M102
G1 X-9.09 Y-1.4 Z7.65 F2400.0
M108 R3.971
M103
G1 X-9.09 Y6.32 Z7.65 F3300.0
M108 R40.0
M101
G1 X-9.09 Y7.91 Z7.65 F3300.0
M108 R3.971
G1 X-9.09 Y-0.93 Z7.65 F2400.0
G1 X-7.12 Y-1.55 Z7.65 F2400.0
G1 X-6.84 Y-1.55 Z7.65 F2400.0
G1 X-2.47 Y-4.65 Z7.65 F2400.0
G1 X-2.19 Y-4.65 Z7.65 F2400.0
G1 X2.19 Y-1.55 Z7.65 F2400.0
G1 X9.09 Y-0.93 Z7.65 F2400.0
G1 X9.09 Y7.91 Z7.65 F2400.0
M103
G1 X9.09 Y8.84 Z7.65 F3300.0
M101
G1 X9.09 Y8.38 Z7.65 F2400.0
G1 X2.47 Y4.65 Z7.65 F2400.0
G1 X2.19 Y4.65 Z7.65 F2400.0
G1 X-2.19 Y7.76 Z7.65 F2400.0
G1 X-2.47 Y7.76 Z7.65 F2400.0
G1 X-6.84 Y4.65 Z7.65 F2400.0
G1 X-7.12 Y4.65 Z7.65 F2400.0
G1 X-9.09 Y8.38 Z7.65 F2400.0
G1 X-9.09 Y8.84 Z7.65 F2400.0
M103
(</surroundingLoop>)
(</layer>)
M73 P76 (display progress)
(<layer> 7.95 )
(<surroundingLoop>)
(<boundaryPerimeter>)
(<boundaryPoint> X-10.0 Y-10.0 Z7.95 </boundaryPoint>)
(<boundaryPoint> X10.0 Y-10.0 Z7.95 </boundaryPoint>)
(<boundaryPoint> X10.0 Y10.0 Z7.95 </boundaryPoint>)
(<boundaryPoint> X-10.0 Y10.0 Z7.95 </boundaryPoint>)
(<loop> outer )
G1 X-9.37 Y8.69 Z7.95 F3300.0
M101
G1 X-9.37 Y-9.37 Z7.95 F2400.0
G1 X9.37 Y-9.37 Z7.95 F2400.0
G1 X9.37 Y9.37 Z7.95 F2400.0
G1 X-9.37 Y9.37 Z7.95 F2400.0
G1 X-9.37 Y8.84 Z7.95 F2400.0
G1 X-9.37 Y8.69 Z7.95 F2400.0
M103
(</loop>)
(<perimeter> outer )
M108 R1.986
G1 X-9.79 Y8.84 Z7.95 F3300.0
M101
G1 X-9.79 Y-9.79 Z7.95 F1200.0
G1 X9.79 Y-9.79 Z7.95 F1200.0
G1 X9.79 Y9.79 Z7.95 F1200.0
G1 X-9.79 Y9.79 Z7.95 F1200.0
G1 X-9.79 Y9.4 Z7.95 F1200.0
M108 R40.0
M102
G1 X-9.79 Y8.84 Z7.95 F1200.0
M108 R1.986
M103
(</perimeter>)
(</boundaryPerimeter>)
M108 R3.971
G1 X-8.93 Y-7.49 Z7.95 F3300.0
M108 R40.0
M101
G1 X-8.84 Y-9.09 Z7.95 F3300.0
M108 R3.971
G1 X-6.05 Y-9.09 Z7.95 F2400.0
G1 X-7.11 Y-1.55 Z7.95 F2400.0
G1 X-7.11 Y4.65 Z7.95 F2400.0
G1 X-6.05 Y9.09 Z7.95 F2400.0
G1 X-7.72 Y9.09 Z7.95 F2400.0
M108 R40.0
M102
G1 X-8.84 Y9.09 Z7.95 F2400.0
M108 R3.971
M103
G1 X-7.18 Y9.09 Z7.95 F3300.0
M108 R40.0
M101
G1 X-5.58 Y9.09 Z7.95 F3300.0
M108 R3.971
G1 X-1.4 Y9.09 Z7.95 F2400.0
G1 X-2.46 Y7.76 Z7.95 F2400.0
G1 X-6.85 Y4.65 Z7.95 F2400.0
G1 X-6.85 Y-1.55 Z7.95 F2400.0
G1 X-2.46 Y-4.65 Z7.95 F2400.0
G1 X-1.4 Y-9.09 Z7.95 F2400.0
G1 X-4.46 Y-9.09 Z7.95 F2400.0
M108 R40.0
M102
G1 X-5.58 Y-9.09 Z7.95 F2400.0
M108 R3.971
M103
G1 X1.66 Y-9.09 Z7.95 F3300.0
M108 R40.0
M101
G1 X3.26 Y-9.09 Z7.95 F3300.0
M108 R3.971
G1 X-0.93 Y-9.09 Z7.95 F2400.0
G1 X-2.2 Y-4.65 Z7.95 F2400.0
G1 X2.2 Y-1.55 Z7.95 F2400.0
G1 X2.2 Y4.65 Z7.95 F2400.0
G1 X-2.2 Y7.76 Z7.95 F2400.0
G1 X-0.93 Y9.09 Z7.95 F2400.0
G1 X2.14 Y9.09 Z7.95 F2400.0
M108 R40.0
M102
G1 X3.26 Y9.09 Z7.95 F2400.0
M108 R3.971
M103
G1 X7.95 Y-7.55 Z7.95 F3300.0
M108 R40.0
M101
G1 X8.38 Y-9.09 Z7.95 F3300.0
M108 R3.971
G1 X8.84 Y-9.09 Z7.95 F2400.0
G1 X8.84 Y9.09 Z7.95 F2400.0
G1 X3.72 Y9.09 Z7.95 F2400.0
G1 X2.46 Y4.65 Z7.95 F2400.0
G1 X2.46 Y-1.55 Z7.95 F2400.0
G1 X3.72 Y-9.09 Z7.95 F2400.0
G1 X7.91 Y-9.09 Z7.95 F2400.0
M103
(</surroundingLoop>)
(</layer>)
M73 P79 (display progress)
(<layer> 8.25 )
(<surroundingLoop>)
(<boundaryPerimeter>)
(<boundaryPoint> X-10.0 Y-10.0 Z8.25 </boundaryPoint>)
(<boundaryPoint> X10.0 Y-10.0 Z8.25 </boundaryPoint>)
(<boundaryPoint> X10.0 Y10.0 Z8.25 </boundaryPoint>)
(<boundaryPoint> X-10.0 Y10.0 Z8.25 </boundaryPoint>)
(<loop> outer )
G1 X7.75 Y-9.37 Z8.25 F3300.0
M101
G1 X7.91 Y-9.37 Z8.25 F2400.0
G1 X9.37 Y-9.37 Z8.25 F2400.0
G1 X9.37 Y9.37 Z8.25 F2400.0
G1 X-9.37 Y9.37 Z8.25 F2400.0
G1 X-9.37 Y-9.37 Z8.25 F2400.0
G1 X7.75 Y-9.37 Z8.25 F2400.0
M103
(</loop>)
(<perimeter> outer )
M108 R1.986
G1 X7.91 Y-9.79 Z8.25 F3300.0
M101
G1 X9.79 Y-9.79 Z8.25 F1200.0
G1 X9.79 Y9.79 Z8.25 F1200.0
G1 X-9.79 Y9.79 Z8.25 F1200.0
G1 X-9.79 Y-9.79 Z8.25 F1200.0
G1 X7.35 Y-9.79 Z8.25 F1200.0
M108 R40.0
M102
G1 X7.91 Y-9.79 Z8.25 F1200.0
M108 R1.986
M103
(</perimeter>)
(</boundaryPerimeter>)
M108 R3.971
G1 X8.87 Y-2.98 Z8.25 F3300.0
M108 R40.0
M101
G1 X9.09 Y-1.4 Z8.25 F3300.0
M108 R3.971
G1 X9.09 Y-8.84 Z8.25 F2400.0
G1 X-9.09 Y-8.84 Z8.25 F2400.0
G1 X-9.09 Y-2.52 Z8.25 F2400.0
M108 R40.0
M102
G1 X-9.09 Y-1.4 Z8.25 F2400.0
M108 R3.971
M103
G1 X-9.09 Y6.32 Z8.25 F3300.0
M108 R40.0
M101
G1 X-9.09 Y7.91 Z8.25 F3300.0
M108 R3.971
G1 X-9.09 Y-0.93 Z8.25 F2400.0
G1 X-7.12 Y-1.55 Z8.25 F2400.0
G1 X-6.84 Y-1.55 Z8.25 F2400.0
G1 X-2.47 Y-4.65 Z8.25 F2400.0
G1 X-2.19 Y-4.65 Z8.25 F2400.0
G1 X2.19 Y-1.55 Z8.25 F2400.0
G1 X9.09 Y-0.93 Z8.25 F2400.0
G1 X9.09 Y7.91 Z8.25 F2400.0
M103
G1 X9.09 Y8.84 Z8.25 F3300.0
M101
G1 X9.09 Y8.38 Z8.25 F2400.0
G1 X2.47 Y4.65 Z8.25 F2400.0
G1 X2.19 Y4.65 Z8.25 F2400.0
G1 X-2.19 Y7.76 Z8.25 F2400.0
G1 X-2.47 Y7.76 Z8.25 F2400.0
G1 X-6.84 Y4.65 Z8.25 F2400.0
G1 X-7.12 Y4.65 Z8.25 F2400.0
G1 X-9.09 Y8.38 Z8.25 F2400.0
G1 X-9.09 Y8.84 Z8.25 F2400.0
M103
(</surroundingLoop>)
(</layer>)
M73 P82 (display progress)
(<layer> 8.55 )
(<surroundingLoop>)
(<boundaryPerimeter>)
(<boundaryPoint> X-10.0 Y-10.0 Z8.55 </boundaryPoint>)
(<boundaryPoint> X10.0 Y-10.0 Z8.55 </boundaryPoint>)
(<boundaryPoint> X10.0 Y10.0 Z8.55 </boundaryPoint>)
(<boundaryPoint> X-10.0 Y10.0 Z8.55 </boundaryPoint>)
(<loop> outer )
G1 X-9.37 Y8.49 Z8.55 F3300.0
M101
G1 X-9.37 Y-9.37 Z8.55 F2400.0
G1 X9.37 Y-9.37 Z8.55 F2400.0
G1 X9.37 Y9.37 Z8.55 F2400.0
G1 X-9.37 Y9.37 Z8.55 F2400.0
G1 X-9.37 Y8.84 Z8.55 F2400.0
G1 X-9.37 Y8.49 Z8.55 F2400.0
M103
(</loop>)
(<perimeter> outer )
M108 R1.986
G1 X-9.79 Y8.49 Z8.55 F3300.0
M101
G1 X-9.79 Y-9.79 Z8.55 F1200.0
G1 X9.79 Y-9.79 Z8.55 F1200.0
G1 X9.79 Y9.79 Z8.55 F1200.0
G1 X-9.79 Y9.79 Z8.55 F1200.0
G1 X-9.79 Y9.05 Z8.55 F1200.0
M108 R40.0
M102
G1 X-9.79 Y8.84 Z8.55 F1200.0
G1 X-9.79 Y8.49 Z8.55 F1200.0
M108 R1.986
M103
(</perimeter>)
(</boundaryPerimeter>)
M108 R3.971
G1 X-8.93 Y-7.49 Z8.55 F3300.0
M108 R40.0
M101
G1 X-8.84 Y-9.09 Z8.55 F3300.0
M108 R3.971
G1 X-6.05 Y-9.09 Z8.55 F2400.0
G1 X-7.11 Y-1.55 Z8.55 F2400.0
G1 X-7.11 Y4.65 Z8.55 F2400.0
G1 X-6.05 Y9.09 Z8.55 F2400.0
G1 X-7.72 Y9.09 Z8.55 F2400.0
M108 R40.0
M102
G1 X-8.84 Y9.09 Z8.55 F2400.0
M108 R3.971
M103
G1 X-7.18 Y9.09 Z8.55 F3300.0
M108 R40.0
M101
G1 X-5.58 Y9.09 Z8.55 F3300.0
M108 R3.971
G1 X-1.4 Y9.09 Z8.55 F2400.0
G1 X-2.46 Y7.76 Z8.55 F2400.0
G1 X-6.85 Y4.65 Z8.55 F2400.0
G1 X-6.85 Y-1.55 Z8.55 F2400.0
G1 X-2.46 Y-4.65 Z8.55 F2400.0
G1 X-1.4 Y-9.09 Z8.55 F2400.0
G1 X-4.46 Y-9.09 Z8.55 F2400.0
M108 R40.0
M102
G1 X-5.58 Y-9.09 Z8.55 F2400.0
M108 R3.971
M103
G1 X1.66 Y-9.09 Z8.55 F3300.0
M108 R40.0
M101
G1 X3.26 Y-9.09 Z8.55 F3300.0
M108 R3.971
G1 X-0.93 Y-9.09 Z8.55 F2400.0
G1 X-2.2 Y-4.65 Z8.55 F2400.0
G1 X2.2 Y-1.55 Z8.55 F2400.0
G1 X2.2 Y4.65 Z8.55 F2400.0
G1 X-2.2 Y7.76 Z8.55 F2400.0
G1 X-0.93 Y9.09 Z8.55 F2400.0
G1 X2.14 Y9.09 Z8.55 F2400.0
M108 R40.0
M102
G1 X3.26 Y9.09 Z8.55 F2400.0
M108 R3.971
M103
G1 X7.95 Y-7.55 Z8.55 F3300.0
M108 R40.0
M101
G1 X8.38 Y-9.09 Z8.55 F3300.0
M108 R3.971
G1 X8.84 Y-9.09 Z8.55 F2400.0
G1 X8.84 Y9.09 Z8.55 F2400.0
G1 X3.72 Y9.09 Z8.55 F2400.0
G1 X2.46 Y4.65 Z8.55 F2400.0
G1 X2.46 Y-1.55 Z8.55 F2400.0
G1 X3.72 Y-9.09 Z8.55 F2400.0
G1 X7.91 Y-9.09 Z8.55 F2400.0
M103
(</surroundingLoop>)
(</layer>)
M73 P85 (display progress)
(<layer> 8.85 )
(<surroundingLoop>)
(<boundaryPerimeter>)
(<boundaryPoint> X-10.0 Y-10.0 Z8.85 </boundaryPoint>)
(<boundaryPoint> X10.0 Y-10.0 Z8.85 </boundaryPoint>)
(<boundaryPoint> X10.0 Y10.0 Z8.85 </boundaryPoint>)
(<boundaryPoint> X-10.0 Y10.0 Z8.85 </boundaryPoint>)
(<loop> outer )
G1 X7.95 Y-9.37 Z8.85 F3300.0
M101
G1 X9.37 Y-9.37 Z8.85 F2400.0
G1 X9.37 Y9.37 Z8.85 F2400.0
G1 X-9.37 Y9.37 Z8.85 F2400.0
G1 X-9.37 Y-9.37 Z8.85 F2400.0
G1 X7.91 Y-9.37 Z8.85 F2400.0
G1 X7.95 Y-9.37 Z8.85 F2400.0
M103
(</loop>)
(<perimeter> outer )
M108 R1.986
G1 X7.91 Y-9.79 Z8.85 F3300.0
M101
G1 X9.79 Y-9.79 Z8.85 F1200.0
G1 X9.79 Y9.79 Z8.85 F1200.0
G1 X-9.79 Y9.79 Z8.85 F1200.0
G1 X-9.79 Y-9.79 Z8.85 F1200.0
G1 X7.35 Y-9.79 Z8.85 F1200.0
M108 R40.0
M102
G1 X7.91 Y-9.79 Z8.85 F1200.0
M108 R1.986
M103
(</perimeter>)
(</boundaryPerimeter>)
M108 R3.971
G1 X8.87 Y-2.98 Z8.85 F3300.0
M108 R40.0
M101
G1 X9.09 Y-1.4 Z8.85 F3300.0
M108 R3.971
G1 X9.09 Y-8.84 Z8.85 F2400.0
G1 X-9.09 Y-8.84 Z8.85 F2400.0
G1 X-9.09 Y-2.52 Z8.85 F2400.0
M108 R40.0
M102
G1 X-9.09 Y-1.4 Z8.85 F2400.0
M108 R3.971
M103
G1 X-9.09 Y6.32 Z8.85 F3300.0
M108 R40.0
M101
G1 X-9.09 Y7.91 Z8.85 F3300.0
M108 R3.971
G1 X-9.09 Y-0.93 Z8.85 F2400.0
G1 X-7.12 Y-1.55 Z8.85 F2400.0
G1 X-6.84 Y-1.55 Z8.85 F2400.0
G1 X-2.47 Y-4.65 Z8.85 F2400.0
G1 X-2.19 Y-4.65 Z8.85 F2400.0
G1 X2.19 Y-1.55 Z8.85 F2400.0
G1 X9.09 Y-0.93 Z8.85 F2400.0
G1 X9.09 Y7.91 Z8.85 F2400.0
M103
G1 X9.09 Y8.84 Z8.85 F3300.0
M101
G1 X9.09 Y8.38 Z8.85 F2400.0
G1 X2.47 Y4.65 Z8.85 F2400.0
G1 X2.19 Y4.65 Z8.85 F2400.0
G1 X-2.19 Y7.76 Z8.85 F2400.0
G1 X-2.47 Y7.76 Z8.85 F2400.0
G1 X-6.84 Y4.65 Z8.85 F2400.0
G1 X-7.12 Y4.65 Z8.85 F2400.0
G1 X-9.09 Y8.38 Z8.85 F2400.0
G1 X-9.09 Y8.84 Z8.85 F2400.0
M103
(</surroundingLoop>)
(</layer>)
M73 P87 (display progress)
(<layer> 9.15 )
(<surroundingLoop>)
(<boundaryPerimeter>)
(<boundaryPoint> X-10.0 Y-10.0 Z9.15 </boundaryPoint>)
(<boundaryPoint> X10.0 Y-10.0 Z9.15 </boundaryPoint>)
(<boundaryPoint> X10.0 Y10.0 Z9.15 </boundaryPoint>)
(<boundaryPoint> X-10.0 Y10.0 Z9.15 </boundaryPoint>)
(<loop> outer )
G1 X-9.37 Y9.13 Z9.15 F3300.0
M101
G1 X-9.37 Y8.84 Z9.15 F2400.0
G1 X-9.37 Y-9.37 Z9.15 F2400.0
G1 X9.37 Y-9.37 Z9.15 F2400.0
G1 X9.37 Y9.37 Z9.15 F2400.0
G1 X-9.37 Y9.37 Z9.15 F2400.0
G1 X-9.37 Y9.13 Z9.15 F2400.0
M103
(</loop>)
(<perimeter> outer )
M108 R1.986
G1 X-9.79 Y9.13 Z9.15 F3300.0
M101
G1 X-9.79 Y8.84 Z9.15 F1200.0
G1 X-9.79 Y-9.79 Z9.15 F1200.0
G1 X9.79 Y-9.79 Z9.15 F1200.0
G1 X9.79 Y9.79 Z9.15 F1200.0
G1 X-9.79 Y9.79 Z9.15 F1200.0
G1 X-9.79 Y9.69 Z9.15 F1200.0
M108 R40.0
M102
G1 X-9.79 Y9.13 Z9.15 F1200.0
M108 R1.986
M103
(</perimeter>)
(</boundaryPerimeter>)
M108 R3.971
G1 X7.66 Y-7.97 Z9.15 F3300.0
M108 R40.0
M101
G1 X8.8 Y-9.09 Z9.15 F3300.0
M108 R3.971
G1 X8.8 Y9.09 Z9.15 F2400.0
G1 X8.38 Y9.09 Z9.15 F2400.0
G1 X8.38 Y-9.09 Z9.15 F2400.0
G1 X7.96 Y-9.09 Z9.15 F2400.0
G1 X7.96 Y9.09 Z9.15 F2400.0
G1 X7.54 Y9.09 Z9.15 F2400.0
G1 X7.54 Y-9.09 Z9.15 F2400.0
G1 X7.12 Y-9.09 Z9.15 F2400.0
G1 X7.12 Y9.09 Z9.15 F2400.0
G1 X6.7 Y9.09 Z9.15 F2400.0
G1 X6.7 Y-9.09 Z9.15 F2400.0
G1 X6.28 Y-9.09 Z9.15 F2400.0
G1 X6.28 Y9.09 Z9.15 F2400.0
G1 X5.86 Y9.09 Z9.15 F2400.0
G1 X5.86 Y-9.09 Z9.15 F2400.0
G1 X5.45 Y-9.09 Z9.15 F2400.0
G1 X5.45 Y9.09 Z9.15 F2400.0
G1 X5.03 Y9.09 Z9.15 F2400.0
G1 X5.03 Y-9.09 Z9.15 F2400.0
G1 X4.61 Y-9.09 Z9.15 F2400.0
G1 X4.61 Y9.09 Z9.15 F2400.0
G1 X4.19 Y9.09 Z9.15 F2400.0
G1 X4.19 Y-9.09 Z9.15 F2400.0
G1 X3.77 Y-9.09 Z9.15 F2400.0
G1 X3.77 Y9.09 Z9.15 F2400.0
G1 X3.35 Y9.09 Z9.15 F2400.0
G1 X3.35 Y-9.09 Z9.15 F2400.0
G1 X2.93 Y-9.09 Z9.15 F2400.0
G1 X2.93 Y9.09 Z9.15 F2400.0
G1 X2.51 Y9.09 Z9.15 F2400.0
G1 X2.51 Y-9.09 Z9.15 F2400.0
G1 X2.09 Y-9.09 Z9.15 F2400.0
G1 X2.09 Y9.09 Z9.15 F2400.0
G1 X1.68 Y9.09 Z9.15 F2400.0
G1 X1.68 Y-9.09 Z9.15 F2400.0
G1 X1.26 Y-9.09 Z9.15 F2400.0
G1 X1.26 Y9.09 Z9.15 F2400.0
G1 X0.84 Y9.09 Z9.15 F2400.0
G1 X0.84 Y-9.09 Z9.15 F2400.0
G1 X0.42 Y-9.09 Z9.15 F2400.0
G1 X0.42 Y9.09 Z9.15 F2400.0
G1 X0.0 Y9.09 Z9.15 F2400.0
G1 X-0.0 Y-9.09 Z9.15 F2400.0
G1 X-0.42 Y-9.09 Z9.15 F2400.0
G1 X-0.42 Y9.09 Z9.15 F2400.0
G1 X-0.84 Y9.09 Z9.15 F2400.0
G1 X-0.84 Y-9.09 Z9.15 F2400.0
G1 X-1.26 Y-9.09 Z9.15 F2400.0
G1 X-1.26 Y9.09 Z9.15 F2400.0
G1 X-1.68 Y9.09 Z9.15 F2400.0
G1 X-1.68 Y-9.09 Z9.15 F2400.0
G1 X-2.09 Y-9.09 Z9.15 F2400.0
G1 X-2.09 Y9.09 Z9.15 F2400.0
G1 X-2.51 Y9.09 Z9.15 F2400.0
G1 X-2.51 Y-9.09 Z9.15 F2400.0
G1 X-2.93 Y-9.09 Z9.15 F2400.0
G1 X-2.93 Y9.09 Z9.15 F2400.0
G1 X-3.35 Y9.09 Z9.15 F2400.0
G1 X-3.35 Y-9.09 Z9.15 F2400.0
G1 X-3.77 Y-9.09 Z9.15 F2400.0
G1 X-3.77 Y9.09 Z9.15 F2400.0
G1 X-4.19 Y9.09 Z9.15 F2400.0
G1 X-4.19 Y-9.09 Z9.15 F2400.0
G1 X-4.61 Y-9.09 Z9.15 F2400.0
G1 X-4.61 Y9.09 Z9.15 F2400.0
G1 X-5.03 Y9.09 Z9.15 F2400.0
G1 X-5.03 Y-9.09 Z9.15 F2400.0
G1 X-5.45 Y-9.09 Z9.15 F2400.0
G1 X-5.45 Y9.09 Z9.15 F2400.0
G1 X-5.86 Y9.09 Z9.15 F2400.0
G1 X-5.86 Y-9.09 Z9.15 F2400.0
G1 X-6.28 Y-9.09 Z9.15 F2400.0
G1 X-6.28 Y9.09 Z9.15 F2400.0
G1 X-6.7 Y9.09 Z9.15 F2400.0
G1 X-6.7 Y-9.09 Z9.15 F2400.0
G1 X-7.12 Y-9.09 Z9.15 F2400.0
G1 X-7.12 Y9.09 Z9.15 F2400.0
G1 X-7.54 Y9.09 Z9.15 F2400.0
G1 X-7.54 Y-9.09 Z9.15 F2400.0
G1 X-7.96 Y-9.09 Z9.15 F2400.0
G1 X-7.96 Y9.09 Z9.15 F2400.0
G1 X-8.38 Y9.09 Z9.15 F2400.0
G1 X-8.38 Y-9.09 Z9.15 F2400.0
G1 X-8.8 Y-9.09 Z9.15 F2400.0
G1 X-8.8 Y9.09 Z9.15 F2400.0
M103
(</surroundingLoop>)
(</layer>)
M73 P91 (display progress)
(<layer> 9.45 )
(<surroundingLoop>)
(<boundaryPerimeter>)
(<boundaryPoint> X-10.0 Y-10.0 Z9.45 </boundaryPoint>)
(<boundaryPoint> X10.0 Y-10.0 Z9.45 </boundaryPoint>)
(<boundaryPoint> X10.0 Y10.0 Z9.45 </boundaryPoint>)
(<boundaryPoint> X-10.0 Y10.0 Z9.45 </boundaryPoint>)
(<loop> outer )
G1 X-9.03 Y9.37 Z9.45 F3300.0
M101
G1 X-9.37 Y9.37 Z9.45 F2400.0
G1 X-9.37 Y-9.37 Z9.45 F2400.0
G1 X9.37 Y-9.37 Z9.45 F2400.0
G1 X9.37 Y9.37 Z9.45 F2400.0
G1 X-8.8 Y9.37 Z9.45 F2400.0
G1 X-9.03 Y9.37 Z9.45 F2400.0
M103
(</loop>)
(<perimeter> outer )
M108 R1.986
G1 X-9.03 Y9.79 Z9.45 F3300.0
M101
G1 X-9.79 Y9.79 Z9.45 F1200.0
G1 X-9.79 Y-9.79 Z9.45 F1200.0
G1 X9.79 Y-9.79 Z9.45 F1200.0
G1 X9.79 Y9.79 Z9.45 F1200.0
G1 X-8.47 Y9.79 Z9.45 F1200.0
M108 R40.0
M102
G1 X-8.8 Y9.79 Z9.45 F1200.0
G1 X-9.03 Y9.79 Z9.45 F1200.0
M108 R1.986
M103
(</perimeter>)
(</boundaryPerimeter>)
M108 R3.971
G1 X7.49 Y8.88 Z9.45 F3300.0
M108 R40.0
M101
G1 X9.09 Y8.8 Z9.45 F3300.0
M108 R3.971
G1 X-9.09 Y8.8 Z9.45 F2400.0
G1 X-9.09 Y8.38 Z9.45 F2400.0
G1 X9.09 Y8.38 Z9.45 F2400.0
G1 X9.09 Y7.96 Z9.45 F2400.0
G1 X-9.09 Y7.96 Z9.45 F2400.0
G1 X-9.09 Y7.54 Z9.45 F2400.0
G1 X9.09 Y7.54 Z9.45 F2400.0
G1 X9.09 Y7.12 Z9.45 F2400.0
G1 X-9.09 Y7.12 Z9.45 F2400.0
G1 X-9.09 Y6.7 Z9.45 F2400.0
G1 X9.09 Y6.7 Z9.45 F2400.0
G1 X9.09 Y6.28 Z9.45 F2400.0
G1 X-9.09 Y6.28 Z9.45 F2400.0
G1 X-9.09 Y5.86 Z9.45 F2400.0
G1 X9.09 Y5.86 Z9.45 F2400.0
G1 X9.09 Y5.45 Z9.45 F2400.0
G1 X-9.09 Y5.45 Z9.45 F2400.0
G1 X-9.09 Y5.03 Z9.45 F2400.0
G1 X9.09 Y5.03 Z9.45 F2400.0
G1 X9.09 Y4.61 Z9.45 F2400.0
G1 X-9.09 Y4.61 Z9.45 F2400.0
G1 X-9.09 Y4.19 Z9.45 F2400.0
G1 X9.09 Y4.19 Z9.45 F2400.0
G1 X9.09 Y3.77 Z9.45 F2400.0
G1 X-9.09 Y3.77 Z9.45 F2400.0
G1 X-9.09 Y3.35 Z9.45 F2400.0
G1 X9.09 Y3.35 Z9.45 F2400.0
G1 X9.09 Y2.93 Z9.45 F2400.0
G1 X-9.09 Y2.93 Z9.45 F2400.0
G1 X-9.09 Y2.51 Z9.45 F2400.0
G1 X9.09 Y2.51 Z9.45 F2400.0
G1 X9.09 Y2.09 Z9.45 F2400.0
G1 X-9.09 Y2.09 Z9.45 F2400.0
G1 X-9.09 Y1.68 Z9.45 F2400.0
G1 X9.09 Y1.68 Z9.45 F2400.0
G1 X9.09 Y1.26 Z9.45 F2400.0
G1 X-9.09 Y1.26 Z9.45 F2400.0
G1 X-9.09 Y0.84 Z9.45 F2400.0
G1 X9.09 Y0.84 Z9.45 F2400.0
G1 X9.09 Y0.42 Z9.45 F2400.0
G1 X-9.09 Y0.42 Z9.45 F2400.0
G1 X-9.09 Y0.0 Z9.45 F2400.0
G1 X9.09 Y-0.0 Z9.45 F2400.0
G1 X9.09 Y-0.42 Z9.45 F2400.0
G1 X-9.09 Y-0.42 Z9.45 F2400.0
G1 X-9.09 Y-0.84 Z9.45 F2400.0
G1 X9.09 Y-0.84 Z9.45 F2400.0
G1 X9.09 Y-1.26 Z9.45 F2400.0
G1 X-9.09 Y-1.26 Z9.45 F2400.0
G1 X-9.09 Y-1.68 Z9.45 F2400.0
G1 X9.09 Y-1.68 Z9.45 F2400.0
G1 X9.09 Y-2.09 Z9.45 F2400.0
G1 X-9.09 Y-2.09 Z9.45 F2400.0
G1 X-9.09 Y-2.51 Z9.45 F2400.0
G1 X9.09 Y-2.51 Z9.45 F2400.0
G1 X9.09 Y-2.93 Z9.45 F2400.0
G1 X-9.09 Y-2.93 Z9.45 F2400.0
G1 X-9.09 Y-3.35 Z9.45 F2400.0
G1 X9.09 Y-3.35 Z9.45 F2400.0
G1 X9.09 Y-3.77 Z9.45 F2400.0
G1 X-9.09 Y-3.77 Z9.45 F2400.0
G1 X-9.09 Y-4.19 Z9.45 F2400.0
G1 X9.09 Y-4.19 Z9.45 F2400.0
G1 X9.09 Y-4.61 Z9.45 F2400.0
G1 X-9.09 Y-4.61 Z9.45 F2400.0
G1 X-9.09 Y-5.03 Z9.45 F2400.0
G1 X9.09 Y-5.03 Z9.45 F2400.0
G1 X9.09 Y-5.45 Z9.45 F2400.0
G1 X-9.09 Y-5.45 Z9.45 F2400.0
G1 X-9.09 Y-5.86 Z9.45 F2400.0
G1 X9.09 Y-5.86 Z9.45 F2400.0
G1 X9.09 Y-6.28 Z9.45 F2400.0
G1 X-9.09 Y-6.28 Z9.45 F2400.0
G1 X-9.09 Y-6.7 Z9.45 F2400.0
G1 X9.09 Y-6.7 Z9.45 F2400.0
G1 X9.09 Y-7.12 Z9.45 F2400.0
G1 X-9.09 Y-7.12 Z9.45 F2400.0
G1 X-9.09 Y-7.54 Z9.45 F2400.0
G1 X9.09 Y-7.54 Z9.45 F2400.0
G1 X9.09 Y-7.96 Z9.45 F2400.0
G1 X-9.09 Y-7.96 Z9.45 F2400.0
G1 X-9.09 Y-8.38 Z9.45 F2400.0
G1 X9.09 Y-8.38 Z9.45 F2400.0
G1 X9.09 Y-8.8 Z9.45 F2400.0
G1 X-9.09 Y-8.8 Z9.45 F2400.0
M103
(</surroundingLoop>)
(</layer>)
M73 P95 (display progress)
(<layer> 9.75 )
(<surroundingLoop>)
(<boundaryPerimeter>)
(<boundaryPoint> X-10.0 Y-10.0 Z9.75 </boundaryPoint>)
(<boundaryPoint> X10.0 Y-10.0 Z9.75 </boundaryPoint>)
(<boundaryPoint> X10.0 Y10.0 Z9.75 </boundaryPoint>)
(<boundaryPoint> X-10.0 Y10.0 Z9.75 </boundaryPoint>)
(<loop> outer )
G1 X-9.37 Y-8.71 Z9.75 F3300.0
M101
G1 X-9.37 Y-8.8 Z9.75 F2400.0
G1 X-9.37 Y-9.37 Z9.75 F2400.0
G1 X9.37 Y-9.37 Z9.75 F2400.0
G1 X9.37 Y9.37 Z9.75 F2400.0
G1 X-9.37 Y9.37 Z9.75 F2400.0
G1 X-9.37 Y-8.71 Z9.75 F2400.0
M103
(</loop>)
(<perimeter> outer )
M108 R1.986
G1 X-9.79 Y-8.8 Z9.75 F3300.0
M101
G1 X-9.79 Y-9.79 Z9.75 F1200.0
G1 X9.79 Y-9.79 Z9.75 F1200.0
G1 X9.79 Y9.79 Z9.75 F1200.0
G1 X-9.79 Y9.79 Z9.75 F1200.0
G1 X-9.79 Y-8.24 Z9.75 F1200.0
M108 R40.0
M102
G1 X-9.79 Y-8.8 Z9.75 F1200.0
M108 R1.986
M103
(</perimeter>)
(</boundaryPerimeter>)
M108 R3.971
G1 X7.2 Y-9.06 Z9.75 F3300.0
M108 R40.0
M101
G1 X8.8 Y-9.09 Z9.75 F3300.0
M108 R3.971
G1 X8.8 Y9.09 Z9.75 F2400.0
G1 X8.38 Y9.09 Z9.75 F2400.0
G1 X8.38 Y-9.09 Z9.75 F2400.0
G1 X7.96 Y-9.09 Z9.75 F2400.0
G1 X7.96 Y9.09 Z9.75 F2400.0
G1 X7.54 Y9.09 Z9.75 F2400.0
G1 X7.54 Y-9.09 Z9.75 F2400.0
G1 X7.12 Y-9.09 Z9.75 F2400.0
G1 X7.12 Y9.09 Z9.75 F2400.0
G1 X6.7 Y9.09 Z9.75 F2400.0
G1 X6.7 Y-9.09 Z9.75 F2400.0
G1 X6.28 Y-9.09 Z9.75 F2400.0
G1 X6.28 Y9.09 Z9.75 F2400.0
G1 X5.86 Y9.09 Z9.75 F2400.0
G1 X5.86 Y-9.09 Z9.75 F2400.0
G1 X5.45 Y-9.09 Z9.75 F2400.0
G1 X5.45 Y9.09 Z9.75 F2400.0
G1 X5.03 Y9.09 Z9.75 F2400.0
G1 X5.03 Y-9.09 Z9.75 F2400.0
G1 X4.61 Y-9.09 Z9.75 F2400.0
G1 X4.61 Y9.09 Z9.75 F2400.0
G1 X4.19 Y9.09 Z9.75 F2400.0
G1 X4.19 Y-9.09 Z9.75 F2400.0
G1 X3.77 Y-9.09 Z9.75 F2400.0
G1 X3.77 Y9.09 Z9.75 F2400.0
G1 X3.35 Y9.09 Z9.75 F2400.0
G1 X3.35 Y-9.09 Z9.75 F2400.0
G1 X2.93 Y-9.09 Z9.75 F2400.0
G1 X2.93 Y9.09 Z9.75 F2400.0
G1 X2.51 Y9.09 Z9.75 F2400.0
G1 X2.51 Y-9.09 Z9.75 F2400.0
G1 X2.09 Y-9.09 Z9.75 F2400.0
G1 X2.09 Y9.09 Z9.75 F2400.0
G1 X1.68 Y9.09 Z9.75 F2400.0
G1 X1.68 Y-9.09 Z9.75 F2400.0
G1 X1.26 Y-9.09 Z9.75 F2400.0
G1 X1.26 Y9.09 Z9.75 F2400.0
G1 X0.84 Y9.09 Z9.75 F2400.0
G1 X0.84 Y-9.09 Z9.75 F2400.0
G1 X0.42 Y-9.09 Z9.75 F2400.0
G1 X0.42 Y9.09 Z9.75 F2400.0
G1 X0.0 Y9.09 Z9.75 F2400.0
G1 X-0.0 Y-9.09 Z9.75 F2400.0
G1 X-0.42 Y-9.09 Z9.75 F2400.0
G1 X-0.42 Y9.09 Z9.75 F2400.0
G1 X-0.84 Y9.09 Z9.75 F2400.0
G1 X-0.84 Y-9.09 Z9.75 F2400.0
G1 X-1.26 Y-9.09 Z9.75 F2400.0
G1 X-1.26 Y9.09 Z9.75 F2400.0
G1 X-1.68 Y9.09 Z9.75 F2400.0
G1 X-1.68 Y-9.09 Z9.75 F2400.0
G1 X-2.09 Y-9.09 Z9.75 F2400.0
G1 X-2.09 Y9.09 Z9.75 F2400.0
G1 X-2.51 Y9.09 Z9.75 F2400.0
G1 X-2.51 Y-9.09 Z9.75 F2400.0
G1 X-2.93 Y-9.09 Z9.75 F2400.0
G1 X-2.93 Y9.09 Z9.75 F2400.0
G1 X-3.35 Y9.09 Z9.75 F2400.0
G1 X-3.35 Y-9.09 Z9.75 F2400.0
G1 X-3.77 Y-9.09 Z9.75 F2400.0
G1 X-3.77 Y9.09 Z9.75 F2400.0
G1 X-4.19 Y9.09 Z9.75 F2400.0
G1 X-4.19 Y-9.09 Z9.75 F2400.0
G1 X-4.61 Y-9.09 Z9.75 F2400.0
G1 X-4.61 Y9.09 Z9.75 F2400.0
G1 X-5.03 Y9.09 Z9.75 F2400.0
G1 X-5.03 Y-9.09 Z9.75 F2400.0
G1 X-5.45 Y-9.09 Z9.75 F2400.0
G1 X-5.45 Y9.09 Z9.75 F2400.0
G1 X-5.86 Y9.09 Z9.75 F2400.0
G1 X-5.86 Y-9.09 Z9.75 F2400.0
G1 X-6.28 Y-9.09 Z9.75 F2400.0
G1 X-6.28 Y9.09 Z9.75 F2400.0
G1 X-6.7 Y9.09 Z9.75 F2400.0
G1 X-6.7 Y-9.09 Z9.75 F2400.0
G1 X-7.12 Y-9.09 Z9.75 F2400.0
G1 X-7.12 Y9.09 Z9.75 F2400.0
G1 X-7.54 Y9.09 Z9.75 F2400.0
G1 X-7.54 Y-9.09 Z9.75 F2400.0
G1 X-7.96 Y-9.09 Z9.75 F2400.0
G1 X-7.96 Y9.09 Z9.75 F2400.0
G1 X-8.38 Y9.09 Z9.75 F2400.0
G1 X-8.38 Y-9.09 Z9.75 F2400.0
G1 X-8.8 Y-9.09 Z9.75 F2400.0
G1 X-8.8 Y9.09 Z9.75 F2400.0
M103
(</surroundingLoop>)
(</layer>)
(</extrusion>)
M104 S0
;M113 S0.0
(******* End.gcode*******)
M73 P100 (end  build progress )
G0 Z155
M18
M109 S0 T0 (Cool down HBP)
M104 S0 T0 (Cool down Right Extruder)
M104 S0 T0 (Cool down Left Extruder)
G162 X Y F2500
M18
M70 P5 ( We <3 Making Things!)
M72 P1  ( Play Ta-Da song )
(*********end End.gcode*******)
