(** This GCode was generated by ReplicatorG 0033-beta **)
(*  using Skeinforge (35)  *)
(*  for a Dual headed The Replicator  *)
(*  on 2012/02/27 11:38:34 (-0500) *)
(**** start.gcode for The Replicator, dual head ****)
M73 P0 (enable build progress)
G21 (set units to mm)
G90 (set positioning to absolute)
G10 P1 X16.55 Y0 Z-0.3 (Designate T0 Offset)
G10 P2 X-16.5 Y0 Z-0.3 (Designate T1 Offset)
G54 (Recall offset cooridinate system)
(**** begin homing ****)
G162 X Y F2500 (home XY axes maximum)
G161 Z F1100 (home Z axis minimum)
G92 Z-5 (set Z to -5)
G1 Z0.0 (move Z to "0")
G161 Z F100 (home Z axis minimum)
M132 X Y Z A B (Recall stored home offsets for XYZAB axis)
(**** end homing ****)
G1 X112 Y-73 Z1 F3300.0 (move to waiting position)
G130 X0 Y0 A0 B0 (Lower stepper Vrefs while heating)
M109 S100 T0 (set HBP temperature)
M6 T0 (wait for toolhead, and HBP to reach temperature)
M104 S220 T0 (set extruder temperature)
M6 T0 (wait for toolhead, and HBP to reach temperature)
G130 X127 Y127 A127 B127 (Set Stepper motor Vref to defaults)
M108 R3.0 T0
G0 X112 Y-73 (Position Nozzle)
G0 Z0.2      (Position Height)
M108 R4.0    (Set Extruder Speed)
M101         (Start Extruder)
G4 P1500     (Create Anchor)
(**** end of start.gcode ****)
(<creation> skeinforge </creation>)
(<version> 10.11.05 </version>)
(<extruderInitialization>)
(<craftTypeName> extrusion </craftTypeName>)
M105
(<bridgeWidthMultiplier> 1.0 </bridgeWidthMultiplier>)
(<decimalPlacesCarried> 3 </decimalPlacesCarried>)
(<layerThickness> 0.3 </layerThickness>)
(<threadSequenceString> loops perimeter infill </threadSequenceString>)
(<operatingFeedRatePerSecond> 40.0 </operatingFeedRatePerSecond>)
(<operatingFlowRate> 4.10330672782 </operatingFlowRate>)
(<orbitalFeedRatePerSecond> 20.0 </orbitalFeedRatePerSecond>)
(<travelFeedRatePerSecond> 55.0 </travelFeedRatePerSecond>)
(<perimeterWidth> 0.419 </perimeterWidth>)
(<profileName> ABS </profileName>)
(<procedureDone> carve </procedureDone>)
(<procedureDone> preface </procedureDone>)
(<procedureDone> inset </procedureDone>)
(<procedureDone> fill </procedureDone>)
(<procedureDone> speed </procedureDone>)
(<procedureDone> raft </procedureDone>)
(<procedureDone> jitter </procedureDone>)
(<procedureDone> comb </procedureDone>)
(<procedureDone> cool </procedureDone>)
(<procedureDone> reversal </procedureDone>)
(<procedureDone> export </procedureDone>)
(</extruderInitialization>)
(<extrusion>)
;M113 S1.0
M108 R4.103
M73 P0 (display progress)
(<layer> 0.528 )
M108 R2.462
G1 X-30.73 Y-1.98 Z0.53 F371.901
M101
G1 X-30.73 Y1.8 Z0.53 F371.901
M108 R40.0
M102
G1 X-30.73 Y1.98 Z0.53 F371.901
M108 R2.462
M103
G1 X-27.72 Y9.35 Z0.53 F371.901
M108 R40.0
M101
G1 X-27.65 Y9.52 Z0.53 F371.901
M108 R2.462
G1 X-27.65 Y-9.52 Z0.53 F371.901
G1 X-24.58 Y-11.4 Z0.53 F371.901
G1 X-24.58 Y13.29 Z0.53 F371.901
G1 X-21.51 Y18.95 Z0.53 F371.901
G1 X-21.51 Y-18.95 Z0.53 F371.901
G1 X-18.44 Y-22.72 Z0.53 F371.901
G1 X-18.44 Y22.72 Z0.53 F371.901
G1 X-15.36 Y24.6 Z0.53 F371.901
G1 X-15.36 Y-24.6 Z0.53 F371.901
G1 X-12.29 Y-24.6 Z0.53 F371.901
G1 X-12.29 Y24.6 Z0.53 F371.901
G1 X-9.22 Y26.49 Z0.53 F371.901
G1 X-9.22 Y-26.49 Z0.53 F371.901
G1 X-6.14 Y-26.49 Z0.53 F371.901
G1 X-6.14 Y26.49 Z0.53 F371.901
G1 X-3.07 Y24.6 Z0.53 F371.901
G1 X-3.07 Y-26.49 Z0.53 F371.901
G1 X0.0 Y-24.6 Z0.53 F371.901
G1 X0.0 Y24.6 Z0.53 F371.901
G1 X3.07 Y26.49 Z0.53 F371.901
G1 X3.07 Y-24.6 Z0.53 F371.901
G1 X6.14 Y-26.49 Z0.53 F371.901
G1 X6.14 Y26.49 Z0.53 F371.901
G1 X9.22 Y26.49 Z0.53 F371.901
G1 X9.22 Y-26.49 Z0.53 F371.901
G1 X12.29 Y-24.6 Z0.53 F371.901
G1 X12.29 Y24.6 Z0.53 F371.901
G1 X15.36 Y24.6 Z0.53 F371.901
G1 X15.36 Y-24.6 Z0.53 F371.901
G1 X18.44 Y-22.72 Z0.53 F371.901
G1 X18.44 Y22.72 Z0.53 F371.901
G1 X21.51 Y18.95 Z0.53 F371.901
G1 X21.51 Y-18.95 Z0.53 F371.901
G1 X24.58 Y-13.29 Z0.53 F371.901
G1 X24.58 Y11.4 Z0.53 F371.901
G1 X27.65 Y9.52 Z0.53 F371.901
G1 X27.65 Y-9.35 Z0.53 F371.901
M108 R40.0
M102
G1 X27.65 Y-9.52 Z0.53 F371.901
M108 R2.462
M103
G1 X30.66 Y-2.14 Z0.53 F371.901
M108 R40.0
M101
G1 X30.73 Y-1.98 Z0.53 F371.901
M108 R2.462
G1 X30.73 Y1.8 Z0.53 F371.901
M108 R40.0
M102
G1 X30.73 Y1.98 Z0.53 F371.901
M108 R2.462
M103
M108 R4.103
(</layer>)
M73 P0 (display progress)
(<layer> 1.092 )
M108 R2.872
G1 X-8.86 Y-26.09 Z1.09 F1111.111
M108 R40.0
M101
G1 X-9.29 Y-26.4 Z1.09 F1111.111
M108 R2.872
G1 X8.77 Y-26.4 Z1.09 F1111.111
M108 R40.0
M102
G1 X9.29 Y-26.4 Z1.09 F1111.111
M108 R2.872
M103
G1 X27.45 Y3.31 Z1.09 F1111.111
M108 R40.0
M101
G1 X27.73 Y3.77 Z1.09 F1111.111
M108 R2.872
G1 X-27.73 Y3.77 Z1.09 F1111.111
G1 X-27.73 Y5.66 Z1.09 F1111.111
G1 X27.73 Y5.66 Z1.09 F1111.111
G1 X27.73 Y7.54 Z1.09 F1111.111
G1 X-27.73 Y7.54 Z1.09 F1111.111
G1 X-27.73 Y9.43 Z1.09 F1111.111
G1 X27.73 Y9.43 Z1.09 F1111.111
G1 X24.66 Y11.31 Z1.09 F1111.111
G1 X-24.66 Y11.31 Z1.09 F1111.111
G1 X-24.66 Y13.2 Z1.09 F1111.111
G1 X21.58 Y13.2 Z1.09 F1111.111
G1 X21.58 Y15.08 Z1.09 F1111.111
G1 X-21.58 Y15.08 Z1.09 F1111.111
G1 X-21.58 Y16.97 Z1.09 F1111.111
G1 X21.58 Y16.97 Z1.09 F1111.111
G1 X21.58 Y18.86 Z1.09 F1111.111
G1 X-21.58 Y18.86 Z1.09 F1111.111
G1 X-18.51 Y20.74 Z1.09 F1111.111
G1 X18.51 Y20.74 Z1.09 F1111.111
G1 X18.51 Y22.63 Z1.09 F1111.111
G1 X-18.51 Y22.63 Z1.09 F1111.111
G1 X-15.44 Y24.51 Z1.09 F1111.111
G1 X14.92 Y24.51 Z1.09 F1111.111
M108 R40.0
M102
G1 X15.44 Y24.51 Z1.09 F1111.111
M108 R2.872
M103
G1 X9.81 Y26.24 Z1.09 F1111.111
M108 R40.0
M101
G1 X9.29 Y26.4 Z1.09 F1111.111
M108 R2.872
G1 X-8.77 Y26.4 Z1.09 F1111.111
M108 R40.0
M102
G1 X-9.29 Y26.4 Z1.09 F1111.111
M108 R2.872
M103
G1 X-15.38 Y-23.98 Z1.09 F1111.111
M108 R40.0
M101
G1 X-15.44 Y-24.51 Z1.09 F1111.111
M108 R2.872
G1 X15.44 Y-24.51 Z1.09 F1111.111
G1 X18.51 Y-22.63 Z1.09 F1111.111
G1 X-18.51 Y-22.63 Z1.09 F1111.111
G1 X-18.51 Y-20.74 Z1.09 F1111.111
G1 X18.51 Y-20.74 Z1.09 F1111.111
G1 X21.58 Y-18.86 Z1.09 F1111.111
G1 X-21.58 Y-18.86 Z1.09 F1111.111
G1 X-21.58 Y-16.97 Z1.09 F1111.111
G1 X21.58 Y-16.97 Z1.09 F1111.111
G1 X21.58 Y-15.08 Z1.09 F1111.111
G1 X-21.58 Y-15.08 Z1.09 F1111.111
G1 X-21.58 Y-13.2 Z1.09 F1111.111
G1 X24.66 Y-13.2 Z1.09 F1111.111
G1 X24.66 Y-11.31 Z1.09 F1111.111
G1 X-24.66 Y-11.31 Z1.09 F1111.111
G1 X-27.73 Y-9.43 Z1.09 F1111.111
G1 X27.73 Y-9.43 Z1.09 F1111.111
G1 X27.73 Y-7.54 Z1.09 F1111.111
G1 X-27.73 Y-7.54 Z1.09 F1111.111
G1 X-27.73 Y-5.66 Z1.09 F1111.111
G1 X27.73 Y-5.66 Z1.09 F1111.111
G1 X27.73 Y-3.77 Z1.09 F1111.111
G1 X-27.73 Y-3.77 Z1.09 F1111.111
G1 X-30.8 Y-1.89 Z1.09 F1111.111
G1 X30.8 Y-1.89 Z1.09 F1111.111
G1 X30.8 Y0.0 Z1.09 F1111.111
G1 X-30.8 Y0.0 Z1.09 F1111.111
G1 X-30.8 Y1.89 Z1.09 F1111.111
G1 X30.28 Y1.89 Z1.09 F1111.111
M108 R40.0
M102
G1 X30.8 Y1.89 Z1.09 F1111.111
M108 R2.872
M103
M108 R4.103
(</layer>)
M73 P0 (display progress)
(<layer> 1.632 )
M108 R2.872
G1 X-8.85 Y-26.09 Z1.63 F1111.111
M108 R40.0
M101
G1 X-9.29 Y-26.4 Z1.63 F1111.111
M108 R2.872
G1 X8.77 Y-26.4 Z1.63 F1111.111
M108 R40.0
M102
G1 X9.29 Y-26.4 Z1.63 F1111.111
M108 R2.872
M103
G1 X27.45 Y3.31 Z1.63 F1111.111
M108 R40.0
M101
G1 X27.73 Y3.77 Z1.63 F1111.111
M108 R2.872
G1 X-27.73 Y3.77 Z1.63 F1111.111
G1 X-27.73 Y5.66 Z1.63 F1111.111
G1 X27.73 Y5.66 Z1.63 F1111.111
G1 X27.73 Y7.54 Z1.63 F1111.111
G1 X-27.73 Y7.54 Z1.63 F1111.111
G1 X-27.73 Y9.43 Z1.63 F1111.111
G1 X27.73 Y9.43 Z1.63 F1111.111
G1 X24.66 Y11.31 Z1.63 F1111.111
G1 X-24.66 Y11.31 Z1.63 F1111.111
G1 X-24.66 Y13.2 Z1.63 F1111.111
G1 X21.58 Y13.2 Z1.63 F1111.111
G1 X21.58 Y15.08 Z1.63 F1111.111
G1 X-21.58 Y15.08 Z1.63 F1111.111
G1 X-21.58 Y16.97 Z1.63 F1111.111
G1 X21.58 Y16.97 Z1.63 F1111.111
G1 X21.58 Y18.86 Z1.63 F1111.111
G1 X-21.58 Y18.86 Z1.63 F1111.111
G1 X-18.51 Y20.74 Z1.63 F1111.111
G1 X18.51 Y20.74 Z1.63 F1111.111
G1 X18.51 Y22.63 Z1.63 F1111.111
G1 X-18.51 Y22.63 Z1.63 F1111.111
G1 X-15.44 Y24.51 Z1.63 F1111.111
G1 X14.92 Y24.51 Z1.63 F1111.111
M108 R40.0
M102
G1 X15.44 Y24.51 Z1.63 F1111.111
M108 R2.872
M103
G1 X9.81 Y26.24 Z1.63 F1111.111
M108 R40.0
M101
G1 X9.29 Y26.4 Z1.63 F1111.111
M108 R2.872
G1 X-8.77 Y26.4 Z1.63 F1111.111
M108 R40.0
M102
G1 X-9.29 Y26.4 Z1.63 F1111.111
M108 R2.872
M103
G1 X-15.38 Y-23.98 Z1.63 F1111.111
M108 R40.0
M101
G1 X-15.44 Y-24.51 Z1.63 F1111.111
M108 R2.872
G1 X15.44 Y-24.51 Z1.63 F1111.111
G1 X18.51 Y-22.63 Z1.63 F1111.111
G1 X-18.51 Y-22.63 Z1.63 F1111.111
G1 X-18.51 Y-20.74 Z1.63 F1111.111
G1 X18.51 Y-20.74 Z1.63 F1111.111
G1 X21.58 Y-18.86 Z1.63 F1111.111
G1 X-21.58 Y-18.86 Z1.63 F1111.111
G1 X-21.58 Y-16.97 Z1.63 F1111.111
G1 X21.58 Y-16.97 Z1.63 F1111.111
G1 X21.58 Y-15.08 Z1.63 F1111.111
G1 X-21.58 Y-15.08 Z1.63 F1111.111
G1 X-21.58 Y-13.2 Z1.63 F1111.111
G1 X24.66 Y-13.2 Z1.63 F1111.111
G1 X24.66 Y-11.31 Z1.63 F1111.111
G1 X-24.66 Y-11.31 Z1.63 F1111.111
G1 X-27.73 Y-9.43 Z1.63 F1111.111
G1 X27.73 Y-9.43 Z1.63 F1111.111
G1 X27.73 Y-7.54 Z1.63 F1111.111
G1 X-27.73 Y-7.54 Z1.63 F1111.111
G1 X-27.73 Y-5.66 Z1.63 F1111.111
G1 X27.73 Y-5.66 Z1.63 F1111.111
G1 X27.73 Y-3.77 Z1.63 F1111.111
G1 X-27.73 Y-3.77 Z1.63 F1111.111
G1 X-30.8 Y-1.89 Z1.63 F1111.111
G1 X30.8 Y-1.89 Z1.63 F1111.111
G1 X30.8 Y0.0 Z1.63 F1111.111
G1 X-30.8 Y0.0 Z1.63 F1111.111
G1 X-30.8 Y1.89 Z1.63 F1111.111
G1 X30.28 Y1.89 Z1.63 F1111.111
M108 R40.0
M102
G1 X30.8 Y1.89 Z1.63 F1111.111
M108 R2.872
M103
M108 R4.103
(</layer>)
(<raftLayerEnd> </raftLayerEnd>)
M73 P1 (display progress)
(<layer> 1.89 )
(<surroundingLoop>)
(<boundaryPerimeter>)
(<boundaryPoint> X23.373 Y5.258 Z1.89 </boundaryPoint>)
(<boundaryPoint> X20.847 Y8.548 Z1.89 </boundaryPoint>)
(<boundaryPoint> X18.716 Y10.21 Z1.89 </boundaryPoint>)
(<boundaryPoint> X17.842 Y11.67 Z1.89 </boundaryPoint>)
(<boundaryPoint> X17.385 Y14.333 Z1.89 </boundaryPoint>)
(<boundaryPoint> X15.678 Y18.114 Z1.89 </boundaryPoint>)
(<boundaryPoint> X11.947 Y21.464 Z1.89 </boundaryPoint>)
(<boundaryPoint> X7.133 Y22.87 Z1.89 </boundaryPoint>)
(<boundaryPoint> X3.021 Y22.328 Z1.89 </boundaryPoint>)
(<boundaryPoint> X0.516 Y21.313 Z1.89 </boundaryPoint>)
(<boundaryPoint> X-1.185 Y21.286 Z1.89 </boundaryPoint>)
(<boundaryPoint> X-3.72 Y22.222 Z1.89 </boundaryPoint>)
(<boundaryPoint> X-7.848 Y22.635 Z1.89 </boundaryPoint>)
(<boundaryPoint> X-12.615 Y21.078 Z1.89 </boundaryPoint>)
(<boundaryPoint> X-16.239 Y17.612 Z1.89 </boundaryPoint>)
(<boundaryPoint> X-17.826 Y13.78 Z1.89 </boundaryPoint>)
(<boundaryPoint> X-18.2 Y11.104 Z1.89 </boundaryPoint>)
(<boundaryPoint> X-19.027 Y9.617 Z1.89 </boundaryPoint>)
(<boundaryPoint> X-21.105 Y7.889 Z1.89 </boundaryPoint>)
(<boundaryPoint> X-23.526 Y4.521 Z1.89 </boundaryPoint>)
(<boundaryPoint> X-24.561 Y-0.386 Z1.89 </boundaryPoint>)
(<boundaryPoint> X-23.373 Y-5.258 Z1.89 </boundaryPoint>)
(<boundaryPoint> X-20.847 Y-8.548 Z1.89 </boundaryPoint>)
(<boundaryPoint> X-18.716 Y-10.21 Z1.89 </boundaryPoint>)
(<boundaryPoint> X-17.842 Y-11.67 Z1.89 </boundaryPoint>)
(<boundaryPoint> X-17.385 Y-14.333 Z1.89 </boundaryPoint>)
(<boundaryPoint> X-15.678 Y-18.114 Z1.89 </boundaryPoint>)
(<boundaryPoint> X-11.947 Y-21.464 Z1.89 </boundaryPoint>)
(<boundaryPoint> X-7.133 Y-22.87 Z1.89 </boundaryPoint>)
(<boundaryPoint> X-3.021 Y-22.328 Z1.89 </boundaryPoint>)
(<boundaryPoint> X-0.516 Y-21.313 Z1.89 </boundaryPoint>)
(<boundaryPoint> X1.185 Y-21.286 Z1.89 </boundaryPoint>)
(<boundaryPoint> X3.72 Y-22.222 Z1.89 </boundaryPoint>)
(<boundaryPoint> X7.848 Y-22.635 Z1.89 </boundaryPoint>)
(<boundaryPoint> X12.615 Y-21.078 Z1.89 </boundaryPoint>)
(<boundaryPoint> X16.239 Y-17.612 Z1.89 </boundaryPoint>)
(<boundaryPoint> X17.826 Y-13.78 Z1.89 </boundaryPoint>)
(<boundaryPoint> X18.2 Y-11.104 Z1.89 </boundaryPoint>)
(<boundaryPoint> X19.027 Y-9.617 Z1.89 </boundaryPoint>)
(<boundaryPoint> X21.105 Y-7.889 Z1.89 </boundaryPoint>)
(<boundaryPoint> X23.526 Y-4.521 Z1.89 </boundaryPoint>)
(<boundaryPoint> X24.561 Y0.386 Z1.89 </boundaryPoint>)
(<loop> outer )
M108 R3.693
G1 X25.04 Y0.67 Z1.83 F3300.0
M108 R40.0
M101
G1 X23.48 Y0.35 Z1.89 F3300.0
M108 R3.693
G1 X23.49 Y0.37 Z1.89 F2160.0
G1 X22.41 Y4.79 Z1.89 F2160.0
G1 X20.1 Y7.8 Z1.89 F2160.0
G1 X17.92 Y9.5 Z1.89 F2160.0
G1 X16.84 Y11.3 Z1.89 F2160.0
G1 X16.38 Y14.02 Z1.89 F2160.0
G1 X14.81 Y17.48 Z1.89 F2160.0
G1 X11.43 Y20.52 Z1.89 F2160.0
G1 X7.05 Y21.8 Z1.89 F2160.0
G1 X3.29 Y21.31 Z1.89 F2160.0
G1 X0.73 Y20.27 Z1.89 F2160.0
G1 X-0.32 Y20.25 Z1.89 F2160.0
G1 X-1.36 Y20.24 Z1.89 F2160.0
G1 X-3.96 Y21.19 Z1.89 F2160.0
G1 X-7.73 Y21.57 Z1.89 F2160.0
G1 X-12.06 Y20.16 Z1.89 F2160.0
G1 X-15.36 Y17.01 Z1.89 F2160.0
G1 X-16.81 Y13.5 Z1.89 F2160.0
G1 X-17.19 Y10.77 Z1.89 F2160.0
G1 X-18.21 Y8.94 Z1.89 F2160.0
G1 X-20.33 Y7.17 Z1.89 F2160.0
G1 X-22.55 Y4.09 Z1.89 F2160.0
G1 X-23.49 Y-0.37 Z1.89 F2160.0
G1 X-22.41 Y-4.79 Z1.89 F2160.0
G1 X-20.1 Y-7.8 Z1.89 F2160.0
G1 X-17.92 Y-9.5 Z1.89 F2160.0
G1 X-16.84 Y-11.3 Z1.89 F2160.0
G1 X-16.38 Y-14.02 Z1.89 F2160.0
G1 X-14.81 Y-17.48 Z1.89 F2160.0
G1 X-11.43 Y-20.52 Z1.89 F2160.0
G1 X-7.05 Y-21.8 Z1.89 F2160.0
G1 X-3.29 Y-21.31 Z1.89 F2160.0
G1 X-0.73 Y-20.27 Z1.89 F2160.0
G1 X1.36 Y-20.24 Z1.89 F2160.0
G1 X3.96 Y-21.19 Z1.89 F2160.0
G1 X7.73 Y-21.57 Z1.89 F2160.0
G1 X12.06 Y-20.16 Z1.89 F2160.0
G1 X15.36 Y-17.01 Z1.89 F2160.0
G1 X16.81 Y-13.5 Z1.89 F2160.0
G1 X17.19 Y-10.77 Z1.89 F2160.0
G1 X18.21 Y-8.94 Z1.89 F2160.0
G1 X20.33 Y-7.17 Z1.89 F2160.0
G1 X22.55 Y-4.09 Z1.89 F2160.0
G1 X23.48 Y0.35 Z1.89 F2160.0
M103
(</loop>)
(<loop> outer )
G1 X23.92 Y0.38 Z1.89 F3300.0
M101
G1 X22.79 Y4.98 Z1.89 F2160.0
G1 X20.4 Y8.1 Z1.89 F2160.0
G1 X18.24 Y9.79 Z1.89 F2160.0
G1 X17.24 Y11.45 Z1.89 F2160.0
G1 X16.78 Y14.15 Z1.89 F2160.0
G1 X15.16 Y17.73 Z1.89 F2160.0
G1 X11.63 Y20.9 Z1.89 F2160.0
G1 X7.08 Y22.23 Z1.89 F2160.0
G1 X3.18 Y21.71 Z1.89 F2160.0
G1 X0.64 Y20.69 Z1.89 F2160.0
G1 X-0.33 Y20.67 Z1.89 F2160.0
G1 X-1.29 Y20.66 Z1.89 F2160.0
G1 X-3.86 Y21.61 Z1.89 F2160.0
G1 X-7.78 Y22.0 Z1.89 F2160.0
G1 X-12.28 Y20.52 Z1.89 F2160.0
G1 X-15.71 Y17.25 Z1.89 F2160.0
G1 X-17.21 Y13.61 Z1.89 F2160.0
G1 X-17.59 Y10.9 Z1.89 F2160.0
G1 X-18.54 Y9.21 Z1.89 F2160.0
G1 X-20.64 Y7.46 Z1.89 F2160.0
G1 X-22.94 Y4.26 Z1.89 F2160.0
G1 X-23.92 Y-0.38 Z1.89 F2160.0
G1 X-22.79 Y-4.98 Z1.89 F2160.0
G1 X-20.4 Y-8.1 Z1.89 F2160.0
G1 X-18.24 Y-9.79 Z1.89 F2160.0
G1 X-17.24 Y-11.45 Z1.89 F2160.0
G1 X-16.78 Y-14.15 Z1.89 F2160.0
G1 X-15.16 Y-17.73 Z1.89 F2160.0
G1 X-11.63 Y-20.9 Z1.89 F2160.0
G1 X-7.08 Y-22.23 Z1.89 F2160.0
G1 X-3.18 Y-21.71 Z1.89 F2160.0
G1 X-0.64 Y-20.69 Z1.89 F2160.0
G1 X1.29 Y-20.66 Z1.89 F2160.0
G1 X3.86 Y-21.61 Z1.89 F2160.0
G1 X7.78 Y-22.0 Z1.89 F2160.0
G1 X12.28 Y-20.52 Z1.89 F2160.0
G1 X15.71 Y-17.25 Z1.89 F2160.0
G1 X17.21 Y-13.61 Z1.89 F2160.0
G1 X17.59 Y-10.9 Z1.89 F2160.0
G1 X18.54 Y-9.21 Z1.89 F2160.0
G1 X20.64 Y-7.46 Z1.89 F2160.0
G1 X22.94 Y-4.26 Z1.89 F2160.0
G1 X23.92 Y0.38 Z1.89 F2160.0
M103
(</loop>)
(<perimeter> outer )
M108 R2.052
M108 R1.847
G1 X24.35 Y0.38 Z1.89 F3300.0
M101
G1 X23.18 Y5.17 Z1.89 F1080.0
G1 X20.7 Y8.4 Z1.89 F1080.0
G1 X18.56 Y10.07 Z1.89 F1080.0
G1 X17.64 Y11.6 Z1.89 F1080.0
G1 X17.18 Y14.27 Z1.89 F1080.0
G1 X15.51 Y17.99 Z1.89 F1080.0
G1 X11.84 Y21.28 Z1.89 F1080.0
G1 X7.12 Y22.66 Z1.89 F1080.0
G1 X3.08 Y22.12 Z1.89 F1080.0
G1 X0.56 Y21.1 Z1.89 F1080.0
G1 X-0.34 Y21.09 Z1.89 F1080.0
G1 X-1.22 Y21.08 Z1.89 F1080.0
G1 X-3.77 Y22.02 Z1.89 F1080.0
G1 X-7.83 Y22.42 Z1.89 F1080.0
G1 X-12.51 Y20.89 Z1.89 F1080.0
G1 X-16.06 Y17.49 Z1.89 F1080.0
G1 X-17.62 Y13.72 Z1.89 F1080.0
G1 X-18.0 Y11.04 Z1.89 F1080.0
G1 X-18.86 Y9.48 Z1.89 F1080.0
G1 X-20.95 Y7.75 Z1.89 F1080.0
G1 X-23.33 Y4.43 Z1.89 F1080.0
G1 X-24.35 Y-0.38 Z1.89 F1080.0
G1 X-23.18 Y-5.17 Z1.89 F1080.0
G1 X-20.7 Y-8.4 Z1.89 F1080.0
G1 X-18.56 Y-10.07 Z1.89 F1080.0
G1 X-17.64 Y-11.6 Z1.89 F1080.0
G1 X-17.18 Y-14.27 Z1.89 F1080.0
G1 X-15.51 Y-17.99 Z1.89 F1080.0
G1 X-11.84 Y-21.28 Z1.89 F1080.0
G1 X-7.12 Y-22.66 Z1.89 F1080.0
G1 X-3.08 Y-22.12 Z1.89 F1080.0
G1 X-0.56 Y-21.1 Z1.89 F1080.0
G1 X1.22 Y-21.08 Z1.89 F1080.0
G1 X3.77 Y-22.02 Z1.89 F1080.0
G1 X7.83 Y-22.42 Z1.89 F1080.0
G1 X12.51 Y-20.89 Z1.89 F1080.0
G1 X16.06 Y-17.49 Z1.89 F1080.0
G1 X17.62 Y-13.72 Z1.89 F1080.0
G1 X18.0 Y-11.04 Z1.89 F1080.0
G1 X18.86 Y-9.48 Z1.89 F1080.0
G1 X20.95 Y-7.75 Z1.89 F1080.0
G1 X23.33 Y-4.43 Z1.89 F1080.0
G1 X24.24 Y-0.11 Z1.89 F1080.0
M108 R40.0
M102
G1 X24.35 Y0.38 Z1.89 F1080.0
M108 R1.847
M103
(</perimeter>)
(</boundaryPerimeter>)
M108 R4.103
M108 R3.693
G1 X2.33 Y-19.0 Z1.89 F2970.0
M108 R40.0
M101
G1 X1.26 Y-19.95 Z1.89 F2970.0
M108 R3.693
G1 X1.26 Y20.18 Z1.89 F2160.0
G1 X0.84 Y20.01 Z1.89 F2160.0
G1 X0.84 Y-19.96 Z1.89 F2160.0
G1 X0.42 Y-19.97 Z1.89 F2160.0
G1 X0.42 Y19.98 Z1.89 F2160.0
G1 X0.0 Y19.97 Z1.89 F2160.0
G1 X-0.0 Y-19.97 Z1.89 F2160.0
G1 X-0.42 Y-19.98 Z1.89 F2160.0
G1 X-0.42 Y19.97 Z1.89 F2160.0
G1 X-0.84 Y19.96 Z1.89 F2160.0
G1 X-0.84 Y-20.01 Z1.89 F2160.0
G1 X-1.26 Y-20.18 Z1.89 F2160.0
G1 X-1.26 Y18.95 Z1.89 F2160.0
M108 R40.0
M102
G1 X-1.26 Y19.95 Z1.89 F2160.0
M108 R3.693
M103
M108 R40.0
M101
G1 X-2.51 Y20.36 Z1.89 F2729.11
M108 R3.693
G1 X-2.51 Y-20.68 Z1.89 F2160.0
G1 X-2.93 Y-20.86 Z1.89 F2160.0
G1 X-2.93 Y20.51 Z1.89 F2160.0
G1 X-3.35 Y20.67 Z1.89 F2160.0
G1 X-3.35 Y-21.02 Z1.89 F2160.0
M103
G1 X-3.77 Y-21.08 Z1.89 F2970.0
M101
G1 X-3.77 Y20.82 Z1.89 F2160.0
G1 X-4.19 Y20.93 Z1.89 F2160.0
G1 X-4.19 Y-21.14 Z1.89 F2160.0
M103
G1 X-4.61 Y-21.19 Z1.89 F2970.0
M101
G1 X-4.61 Y20.97 Z1.89 F2160.0
G1 X-5.03 Y21.01 Z1.89 F2160.0
G1 X-5.03 Y-20.24 Z1.89 F2160.0
M108 R40.0
M102
G1 X-5.03 Y-21.25 Z1.89 F2160.0
M108 R3.693
M103
G1 X-5.7 Y-21.32 Z1.89 F2970.0
M108 R40.0
M101
G1 X-7.12 Y-21.49 Z1.89 F2970.0
M108 R3.693
G1 X-7.12 Y21.22 Z1.89 F2160.0
G1 X-7.54 Y21.27 Z1.89 F2160.0
G1 X-7.54 Y-20.36 Z1.89 F2160.0
M108 R40.0
M102
G1 X-7.54 Y-21.36 Z1.89 F2160.0
M108 R3.693
M103
G1 X-8.26 Y-21.15 Z1.89 F2970.0
M108 R40.0
M101
G1 X-9.63 Y-20.75 Z1.89 F2970.0
M108 R3.693
G1 X-9.63 Y20.65 Z1.89 F2160.0
G1 X-10.05 Y20.51 Z1.89 F2160.0
G1 X-10.05 Y-20.63 Z1.89 F2160.0
M103
G1 X-10.47 Y-20.51 Z1.89 F2970.0
M101
G1 X-10.47 Y20.38 Z1.89 F2160.0
G1 X-10.89 Y20.24 Z1.89 F2160.0
G1 X-10.89 Y-20.39 Z1.89 F2160.0
G1 X-11.31 Y-20.25 Z1.89 F2160.0
G1 X-11.31 Y20.1 Z1.89 F2160.0
G1 X-11.73 Y19.97 Z1.89 F2160.0
G1 X-11.73 Y-19.87 Z1.89 F2160.0
G1 X-12.15 Y-19.49 Z1.89 F2160.0
G1 X-12.15 Y19.68 Z1.89 F2160.0
G1 X-12.57 Y19.28 Z1.89 F2160.0
G1 X-12.57 Y-19.12 Z1.89 F2160.0
G1 X-12.98 Y-18.74 Z1.89 F2160.0
G1 X-12.98 Y18.88 Z1.89 F2160.0
G1 X-13.4 Y18.48 Z1.89 F2160.0
G1 X-13.4 Y-18.36 Z1.89 F2160.0
G1 X-13.82 Y-17.99 Z1.89 F2160.0
G1 X-13.82 Y18.08 Z1.89 F2160.0
G1 X-14.24 Y17.68 Z1.89 F2160.0
G1 X-14.24 Y-17.61 Z1.89 F2160.0
G1 X-14.66 Y-17.13 Z1.89 F2160.0
G1 X-14.66 Y17.28 Z1.89 F2160.0
G1 X-15.08 Y16.88 Z1.89 F2160.0
G1 X-15.08 Y-15.19 Z1.89 F2160.0
M108 R40.0
M102
G1 X-15.08 Y-16.2 Z1.89 F2160.0
M108 R3.693
M103
M108 R40.0
M101
G1 X-15.5 Y-15.27 Z1.89 F2106.635
M108 R3.693
G1 X-15.5 Y14.91 Z1.89 F2160.0
M108 R40.0
M102
G1 X-15.5 Y15.92 Z1.89 F2160.0
M108 R3.693
M103
M108 R40.0
M101
G1 X-15.92 Y14.91 Z1.89 F2263.457
M108 R3.693
G1 X-15.92 Y-13.34 Z1.89 F2160.0
M108 R40.0
M102
G1 X-15.92 Y-14.35 Z1.89 F2160.0
M108 R3.693
M103
G1 X-16.01 Y-13.96 Z1.89 F2970.0
M108 R40.0
M101
G1 X-16.34 Y-12.57 Z1.89 F2970.0
M108 R3.693
G1 X-16.34 Y12.89 Z1.89 F2160.0
M108 R40.0
M102
G1 X-16.34 Y13.9 Z1.89 F2160.0
M108 R3.693
M103
G1 X-16.47 Y13.22 Z1.89 F2970.0
M108 R40.0
M101
G1 X-16.75 Y11.82 Z1.89 F2970.0
M108 R3.693
G1 X-16.75 Y-10.89 Z1.89 F2160.0
G1 X-17.17 Y-10.19 Z1.89 F2160.0
G1 X-17.17 Y10.21 Z1.89 F2160.0
G1 X-17.59 Y9.46 Z1.89 F2160.0
G1 X-17.59 Y-9.49 Z1.89 F2160.0
G1 X-18.01 Y-9.07 Z1.89 F2160.0
G1 X-18.01 Y8.73 Z1.89 F2160.0
G1 X-18.43 Y8.38 Z1.89 F2160.0
G1 X-18.43 Y-8.74 Z1.89 F2160.0
G1 X-18.85 Y-8.42 Z1.89 F2160.0
G1 X-18.85 Y8.03 Z1.89 F2160.0
G1 X-19.27 Y7.68 Z1.89 F2160.0
G1 X-19.27 Y-8.09 Z1.89 F2160.0
G1 X-19.69 Y-7.76 Z1.89 F2160.0
G1 X-19.69 Y7.33 Z1.89 F2160.0
G1 X-20.11 Y6.99 Z1.89 F2160.0
G1 X-20.11 Y-7.33 Z1.89 F2160.0
G1 X-20.52 Y-6.78 Z1.89 F2160.0
G1 X-20.52 Y6.41 Z1.89 F2160.0
G1 X-20.94 Y5.83 Z1.89 F2160.0
G1 X-20.94 Y-6.23 Z1.89 F2160.0
G1 X-21.36 Y-5.69 Z1.89 F2160.0
G1 X-21.36 Y5.25 Z1.89 F2160.0
G1 X-21.78 Y4.67 Z1.89 F2160.0
G1 X-21.78 Y-5.14 Z1.89 F2160.0
G1 X-22.2 Y-4.44 Z1.89 F2160.0
G1 X-22.2 Y3.08 Z1.89 F2160.0
M108 R40.0
M102
G1 X-22.2 Y4.08 Z1.89 F2160.0
M108 R3.693
M103
G1 X-22.28 Y3.76 Z1.89 F2970.0
M108 R40.0
M101
G1 X-22.62 Y2.36 Z1.89 F2970.0
M108 R3.693
G1 X-22.62 Y-1.72 Z1.89 F2160.0
M108 R40.0
M102
G1 X-22.62 Y-2.73 Z1.89 F2160.0
M108 R3.693
M103
G1 X-22.7 Y-2.4 Z1.89 F2970.0
M108 R40.0
M101
G1 X-23.04 Y-1.01 Z1.89 F2970.0
M108 R3.693
G1 X-23.04 Y-0.63 Z1.89 F2160.0
M108 R40.0
M102
G1 X-23.04 Y0.38 Z1.89 F2160.0
M108 R3.693
M103
G1 X-9.61 Y19.74 Z1.89 F2970.0
M108 R40.0
M101
G1 X-8.8 Y20.92 Z1.89 F2970.0
M108 R3.693
G1 X-8.8 Y-21.0 Z1.89 F2160.0
G1 X-9.21 Y-20.87 Z1.89 F2160.0
G1 X-9.21 Y19.78 Z1.89 F2160.0
M108 R40.0
M102
G1 X-9.21 Y20.79 Z1.89 F2160.0
M108 R3.693
M103
M108 R40.0
M101
G1 X-7.96 Y21.2 Z1.89 F2733.569
M108 R3.693
G1 X-7.96 Y-21.24 Z1.89 F2160.0
G1 X-8.38 Y-21.12 Z1.89 F2160.0
G1 X-8.38 Y20.05 Z1.89 F2160.0
M108 R40.0
M102
G1 X-8.38 Y21.06 Z1.89 F2160.0
M108 R3.693
M103
G1 X-6.88 Y21.06 Z1.89 F2970.0
M108 R40.0
M101
G1 X-5.45 Y21.06 Z1.89 F2970.0
M108 R3.693
G1 X-5.45 Y-21.3 Z1.89 F2160.0
G1 X-5.86 Y-21.36 Z1.89 F2160.0
G1 X-5.86 Y21.1 Z1.89 F2160.0
G1 X-6.28 Y21.14 Z1.89 F2160.0
G1 X-6.28 Y-21.41 Z1.89 F2160.0
G1 X-6.7 Y-21.47 Z1.89 F2160.0
G1 X-6.7 Y20.17 Z1.89 F2160.0
M108 R40.0
M102
G1 X-6.7 Y21.18 Z1.89 F2160.0
M108 R3.693
M103
G1 X0.66 Y20.62 Z1.89 F2970.0
M108 R40.0
M101
G1 X2.09 Y20.52 Z1.89 F2970.0
M108 R3.693
G1 X2.09 Y-20.2 Z1.89 F2160.0
G1 X1.68 Y-20.05 Z1.89 F2160.0
G1 X1.68 Y19.34 Z1.89 F2160.0
M108 R40.0
M102
G1 X1.68 Y20.34 Z1.89 F2160.0
M108 R3.693
M103
G1 X2.02 Y20.48 Z1.89 F2970.0
M108 R40.0
M101
G1 X3.35 Y21.02 Z1.89 F2970.0
M108 R3.693
G1 X3.35 Y-20.67 Z1.89 F2160.0
G1 X2.93 Y-20.51 Z1.89 F2160.0
G1 X2.93 Y20.86 Z1.89 F2160.0
G1 X2.51 Y20.68 Z1.89 F2160.0
G1 X2.51 Y-19.35 Z1.89 F2160.0
M108 R40.0
M102
G1 X2.51 Y-20.36 Z1.89 F2160.0
M108 R3.693
M103
G1 X5.29 Y-20.9 Z1.89 F2970.0
M108 R40.0
M101
G1 X6.7 Y-21.18 Z1.89 F2970.0
M108 R3.693
G1 X6.7 Y21.47 Z1.89 F2160.0
G1 X6.28 Y21.41 Z1.89 F2160.0
G1 X6.28 Y-21.14 Z1.89 F2160.0
G1 X5.86 Y-21.1 Z1.89 F2160.0
G1 X5.86 Y21.36 Z1.89 F2160.0
G1 X5.45 Y21.3 Z1.89 F2160.0
G1 X5.45 Y-20.05 Z1.89 F2160.0
M108 R40.0
M102
G1 X5.45 Y-21.06 Z1.89 F2160.0
M108 R3.693
M103
G1 X6.94 Y-21.06 Z1.89 F2970.0
M108 R40.0
M101
G1 X8.38 Y-21.06 Z1.89 F2970.0
M108 R3.693
G1 X8.38 Y21.12 Z1.89 F2160.0
G1 X7.96 Y21.24 Z1.89 F2160.0
G1 X7.96 Y-20.19 Z1.89 F2160.0
M108 R40.0
M102
G1 X7.96 Y-21.2 Z1.89 F2160.0
M108 R3.693
M103
M108 R40.0
M101
G1 X9.21 Y-20.79 Z1.89 F2733.569
M108 R3.693
G1 X9.21 Y20.87 Z1.89 F2160.0
G1 X8.8 Y21.0 Z1.89 F2160.0
G1 X8.8 Y-19.92 Z1.89 F2160.0
M108 R40.0
M102
G1 X8.8 Y-20.92 Z1.89 F2160.0
M108 R3.693
M103
G1 X14.35 Y-16.78 Z1.89 F2970.0
M108 R40.0
M101
G1 X15.5 Y-15.92 Z1.89 F2970.0
M108 R3.693
G1 X15.5 Y14.27 Z1.89 F2160.0
M108 R40.0
M102
G1 X15.5 Y15.27 Z1.89 F2160.0
M108 R3.693
M103
G1 X16.29 Y-10.34 Z1.89 F2970.0
M108 R40.0
M101
G1 X16.34 Y-11.78 Z1.89 F2970.0
M108 R3.693
G1 X16.34 Y12.57 Z1.89 F2160.0
G1 X16.15 Y13.37 Z1.89 F2160.0
M108 R40.0
M102
G1 X15.92 Y14.35 Z1.89 F2160.0
M108 R3.693
M103
G1 X15.92 Y13.95 Z1.89 F2970.0
M108 R40.0
M101
G1 X15.92 Y12.52 Z1.89 F2970.0
M108 R3.693
G1 X15.92 Y-13.9 Z1.89 F2160.0
M108 R40.0
M102
G1 X15.92 Y-14.91 Z1.89 F2160.0
M108 R3.693
M103
G1 X21.56 Y-3.6 Z1.89 F2970.0
M108 R40.0
M101
G1 X22.2 Y-2.31 Z1.89 F2970.0
M108 R3.693
G1 X22.2 Y4.44 Z1.89 F2160.0
G1 X21.78 Y5.14 Z1.89 F2160.0
G1 X21.78 Y-4.67 Z1.89 F2160.0
G1 X21.36 Y-5.25 Z1.89 F2160.0
G1 X21.36 Y5.69 Z1.89 F2160.0
G1 X20.94 Y6.23 Z1.89 F2160.0
G1 X20.94 Y-5.83 Z1.89 F2160.0
G1 X20.52 Y-6.41 Z1.89 F2160.0
G1 X20.52 Y6.78 Z1.89 F2160.0
G1 X20.11 Y7.33 Z1.89 F2160.0
G1 X20.11 Y-6.99 Z1.89 F2160.0
G1 X19.69 Y-7.33 Z1.89 F2160.0
G1 X19.69 Y7.76 Z1.89 F2160.0
G1 X19.27 Y8.09 Z1.89 F2160.0
G1 X19.27 Y-7.68 Z1.89 F2160.0
G1 X18.85 Y-8.03 Z1.89 F2160.0
G1 X18.85 Y8.42 Z1.89 F2160.0
G1 X18.43 Y8.74 Z1.89 F2160.0
G1 X18.43 Y-8.38 Z1.89 F2160.0
G1 X18.01 Y-8.73 Z1.89 F2160.0
G1 X18.01 Y9.07 Z1.89 F2160.0
G1 X17.59 Y9.49 Z1.89 F2160.0
G1 X17.59 Y-9.46 Z1.89 F2160.0
G1 X17.17 Y-10.21 Z1.89 F2160.0
G1 X17.17 Y10.19 Z1.89 F2160.0
G1 X16.75 Y10.89 Z1.89 F2160.0
G1 X16.75 Y-11.82 Z1.89 F2160.0
G1 X16.54 Y-12.91 Z1.89 F2160.0
M108 R40.0
M102
G1 X16.34 Y-13.9 Z1.89 F2160.0
M108 R3.693
M103
G1 X22.11 Y1.38 Z1.89 F2970.0
M108 R40.0
M101
G1 X22.62 Y2.73 Z1.89 F2970.0
M108 R3.693
G1 X22.62 Y-2.36 Z1.89 F2160.0
G1 X22.44 Y-3.1 Z1.89 F2160.0
M108 R40.0
M102
G1 X22.2 Y-4.08 Z1.89 F2160.0
M108 R3.693
M103
G1 X22.72 Y-1.78 Z1.89 F2970.0
M108 R40.0
M101
G1 X23.04 Y-0.38 Z1.89 F2970.0
M108 R3.693
G1 X23.04 Y-0.0 Z1.89 F2160.0
M108 R40.0
M102
G1 X23.04 Y1.01 Z1.89 F2160.0
M108 R3.693
M103
G1 X15.75 Y14.93 Z1.89 F2970.0
M108 R40.0
M101
G1 X15.08 Y16.2 Z1.89 F2970.0
M108 R3.693
G1 X15.08 Y-16.88 Z1.89 F2160.0
G1 X14.66 Y-17.28 Z1.89 F2160.0
G1 X14.66 Y17.13 Z1.89 F2160.0
G1 X14.24 Y17.61 Z1.89 F2160.0
G1 X14.24 Y-17.68 Z1.89 F2160.0
G1 X13.82 Y-18.08 Z1.89 F2160.0
G1 X13.82 Y17.99 Z1.89 F2160.0
G1 X13.4 Y18.36 Z1.89 F2160.0
G1 X13.4 Y-18.48 Z1.89 F2160.0
G1 X12.98 Y-18.88 Z1.89 F2160.0
G1 X12.98 Y18.74 Z1.89 F2160.0
G1 X12.57 Y19.12 Z1.89 F2160.0
G1 X12.57 Y-19.28 Z1.89 F2160.0
G1 X12.15 Y-19.68 Z1.89 F2160.0
G1 X12.15 Y19.49 Z1.89 F2160.0
G1 X11.73 Y19.87 Z1.89 F2160.0
G1 X11.73 Y-19.97 Z1.89 F2160.0
G1 X11.31 Y-20.1 Z1.89 F2160.0
G1 X11.31 Y20.25 Z1.89 F2160.0
G1 X10.89 Y20.39 Z1.89 F2160.0
G1 X10.89 Y-20.24 Z1.89 F2160.0
G1 X10.47 Y-20.38 Z1.89 F2160.0
G1 X10.47 Y20.51 Z1.89 F2160.0
M103
G1 X10.05 Y20.63 Z1.89 F2970.0
M101
G1 X10.05 Y-20.51 Z1.89 F2160.0
G1 X9.63 Y-20.65 Z1.89 F2160.0
G1 X9.63 Y19.74 Z1.89 F2160.0
M108 R40.0
M102
G1 X9.63 Y20.75 Z1.89 F2160.0
M108 R3.693
M103
G1 X8.92 Y20.96 Z1.89 F2970.0
M108 R40.0
M101
G1 X7.54 Y21.36 Z1.89 F2970.0
M108 R3.693
G1 X7.54 Y-21.27 Z1.89 F2160.0
G1 X7.12 Y-21.22 Z1.89 F2160.0
G1 X7.12 Y20.48 Z1.89 F2160.0
M108 R40.0
M102
G1 X7.12 Y21.49 Z1.89 F2160.0
M108 R3.693
M103
G1 X6.45 Y21.41 Z1.89 F2970.0
M108 R40.0
M101
G1 X5.03 Y21.25 Z1.89 F2970.0
M108 R3.693
G1 X5.03 Y-21.01 Z1.89 F2160.0
G1 X4.61 Y-20.97 Z1.89 F2160.0
G1 X4.61 Y21.19 Z1.89 F2160.0
M103
G1 X4.19 Y21.14 Z1.89 F2970.0
M101
G1 X4.19 Y-20.93 Z1.89 F2160.0
G1 X3.77 Y-20.82 Z1.89 F2160.0
G1 X3.77 Y20.07 Z1.89 F2160.0
M108 R40.0
M102
G1 X3.77 Y21.08 Z1.89 F2160.0
M108 R3.693
M103
G1 X-1.49 Y-18.92 Z1.89 F2970.0
M108 R40.0
M101
G1 X-1.68 Y-20.34 Z1.89 F2970.0
M108 R3.693
G1 X-1.68 Y20.05 Z1.89 F2160.0
G1 X-2.09 Y20.2 Z1.89 F2160.0
G1 X-2.09 Y-20.52 Z1.89 F2160.0
M103
(</surroundingLoop>)
(</layer>)
M73 P4 (display progress)
(<layer> 2.19 )
(<surroundingLoop>)
(<boundaryPerimeter>)
(<boundaryPoint> X23.2 Y5.99 Z2.19 </boundaryPoint>)
(<boundaryPoint> X20.571 Y9.2 Z2.19 </boundaryPoint>)
(<boundaryPoint> X18.389 Y10.794 Z2.19 </boundaryPoint>)
(<boundaryPoint> X17.47 Y12.226 Z2.19 </boundaryPoint>)
(<boundaryPoint> X16.929 Y14.874 Z2.19 </boundaryPoint>)
(<boundaryPoint> X15.104 Y18.6 Z2.19 </boundaryPoint>)
(<boundaryPoint> X11.268 Y21.832 Z2.19 </boundaryPoint>)
(<boundaryPoint> X6.412 Y23.087 Z2.19 </boundaryPoint>)
(<boundaryPoint> X2.318 Y22.415 Z2.19 </boundaryPoint>)
(<boundaryPoint> X-0.154 Y21.322 Z2.19 </boundaryPoint>)
(<boundaryPoint> X-1.854 Y21.242 Z2.19 </boundaryPoint>)
(<boundaryPoint> X-4.417 Y22.098 Z2.19 </boundaryPoint>)
(<boundaryPoint> X-8.556 Y22.381 Z2.19 </boundaryPoint>)
(<boundaryPoint> X-13.273 Y20.675 Z2.19 </boundaryPoint>)
(<boundaryPoint> X-16.788 Y17.096 Z2.19 </boundaryPoint>)
(<boundaryPoint> X-18.253 Y13.215 Z2.19 </boundaryPoint>)
(<boundaryPoint> X-18.543 Y10.528 Z2.19 </boundaryPoint>)
(<boundaryPoint> X-19.323 Y9.016 Z2.19 </boundaryPoint>)
(<boundaryPoint> X-21.346 Y7.223 Z2.19 </boundaryPoint>)
(<boundaryPoint> X-23.66 Y3.78 Z2.19 </boundaryPoint>)
(<boundaryPoint> X-24.541 Y-1.157 Z2.19 </boundaryPoint>)
(<boundaryPoint> X-23.2 Y-5.99 Z2.19 </boundaryPoint>)
(<boundaryPoint> X-20.571 Y-9.2 Z2.19 </boundaryPoint>)
(<boundaryPoint> X-18.389 Y-10.794 Z2.19 </boundaryPoint>)
(<boundaryPoint> X-17.47 Y-12.226 Z2.19 </boundaryPoint>)
(<boundaryPoint> X-16.929 Y-14.874 Z2.19 </boundaryPoint>)
(<boundaryPoint> X-15.104 Y-18.6 Z2.19 </boundaryPoint>)
(<boundaryPoint> X-11.268 Y-21.832 Z2.19 </boundaryPoint>)
(<boundaryPoint> X-6.412 Y-23.087 Z2.19 </boundaryPoint>)
(<boundaryPoint> X-2.318 Y-22.415 Z2.19 </boundaryPoint>)
(<boundaryPoint> X0.154 Y-21.322 Z2.19 </boundaryPoint>)
(<boundaryPoint> X1.854 Y-21.242 Z2.19 </boundaryPoint>)
(<boundaryPoint> X4.417 Y-22.098 Z2.19 </boundaryPoint>)
(<boundaryPoint> X8.556 Y-22.381 Z2.19 </boundaryPoint>)
(<boundaryPoint> X13.273 Y-20.675 Z2.19 </boundaryPoint>)
(<boundaryPoint> X16.788 Y-17.096 Z2.19 </boundaryPoint>)
(<boundaryPoint> X18.253 Y-13.215 Z2.19 </boundaryPoint>)
(<boundaryPoint> X18.543 Y-10.528 Z2.19 </boundaryPoint>)
(<boundaryPoint> X19.323 Y-9.016 Z2.19 </boundaryPoint>)
(<boundaryPoint> X21.346 Y-7.223 Z2.19 </boundaryPoint>)
(<boundaryPoint> X23.66 Y-3.78 Z2.19 </boundaryPoint>)
(<boundaryPoint> X24.541 Y1.157 Z2.19 </boundaryPoint>)
(<loop> outer )
M108 R4.103
G1 X-2.17 Y-21.2 Z2.19 F3300.0
M101
G1 X-1.85 Y-21.06 Z2.19 F2400.0
G1 X-0.09 Y-20.29 Z2.19 F2400.0
G1 X2.0 Y-20.19 Z2.19 F2400.0
G1 X4.62 Y-21.06 Z2.19 F2400.0
G1 X8.41 Y-21.32 Z2.19 F2400.0
G1 X12.69 Y-19.77 Z2.19 F2400.0
G1 X15.89 Y-16.52 Z2.19 F2400.0
G1 X17.23 Y-12.97 Z2.19 F2400.0
G1 X17.52 Y-10.22 Z2.19 F2400.0
G1 X18.48 Y-8.36 Z2.19 F2400.0
G1 X20.55 Y-6.53 Z2.19 F2400.0
G1 X22.67 Y-3.38 Z2.19 F2400.0
G1 X23.47 Y1.11 Z2.19 F2400.0
G1 X22.25 Y5.5 Z2.19 F2400.0
G1 X19.84 Y8.43 Z2.19 F2400.0
G1 X17.61 Y10.06 Z2.19 F2400.0
G1 X16.48 Y11.82 Z2.19 F2400.0
G1 X15.93 Y14.53 Z2.19 F2400.0
G1 X14.26 Y17.94 Z2.19 F2400.0
G1 X10.78 Y20.88 Z2.19 F2400.0
G1 X6.36 Y22.02 Z2.19 F2400.0
G1 X2.62 Y21.4 Z2.19 F2400.0
G1 X0.09 Y20.29 Z2.19 F2400.0
G1 X-2.0 Y20.19 Z2.19 F2400.0
G1 X-4.62 Y21.06 Z2.19 F2400.0
G1 X-8.41 Y21.32 Z2.19 F2400.0
G1 X-12.69 Y19.77 Z2.19 F2400.0
G1 X-15.89 Y16.52 Z2.19 F2400.0
G1 X-17.23 Y12.97 Z2.19 F2400.0
G1 X-17.52 Y10.22 Z2.19 F2400.0
G1 X-18.48 Y8.36 Z2.19 F2400.0
G1 X-20.55 Y6.53 Z2.19 F2400.0
G1 X-22.67 Y3.38 Z2.19 F2400.0
G1 X-23.47 Y-1.11 Z2.19 F2400.0
G1 X-22.25 Y-5.5 Z2.19 F2400.0
G1 X-19.84 Y-8.43 Z2.19 F2400.0
G1 X-17.61 Y-10.06 Z2.19 F2400.0
G1 X-16.48 Y-11.82 Z2.19 F2400.0
G1 X-15.93 Y-14.53 Z2.19 F2400.0
G1 X-14.26 Y-17.94 Z2.19 F2400.0
G1 X-10.78 Y-20.88 Z2.19 F2400.0
G1 X-6.36 Y-22.02 Z2.19 F2400.0
G1 X-2.62 Y-21.4 Z2.19 F2400.0
G1 X-2.17 Y-21.2 Z2.19 F2400.0
M103
(</loop>)
(<loop> outer )
G1 X-2.0 Y-21.59 Z2.19 F3300.0
M101
G1 X-1.68 Y-21.45 Z2.19 F2400.0
G1 X0.01 Y-20.7 Z2.19 F2400.0
G1 X1.94 Y-20.61 Z2.19 F2400.0
G1 X4.54 Y-21.48 Z2.19 F2400.0
G1 X8.47 Y-21.75 Z2.19 F2400.0
G1 X12.93 Y-20.13 Z2.19 F2400.0
G1 X16.25 Y-16.75 Z2.19 F2400.0
G1 X17.64 Y-13.07 Z2.19 F2400.0
G1 X17.93 Y-10.34 Z2.19 F2400.0
G1 X18.82 Y-8.62 Z2.19 F2400.0
G1 X20.87 Y-6.81 Z2.19 F2400.0
G1 X23.07 Y-3.54 Z2.19 F2400.0
G1 X23.9 Y1.13 Z2.19 F2400.0
G1 X22.63 Y5.69 Z2.19 F2400.0
G1 X20.14 Y8.74 Z2.19 F2400.0
G1 X17.92 Y10.36 Z2.19 F2400.0
G1 X16.88 Y11.98 Z2.19 F2400.0
G1 X16.33 Y14.67 Z2.19 F2400.0
G1 X14.6 Y18.2 Z2.19 F2400.0
G1 X10.97 Y21.26 Z2.19 F2400.0
G1 X6.38 Y22.45 Z2.19 F2400.0
G1 X2.5 Y21.81 Z2.19 F2400.0
G1 X-0.01 Y20.7 Z2.19 F2400.0
G1 X-1.94 Y20.61 Z2.19 F2400.0
G1 X-4.54 Y21.48 Z2.19 F2400.0
G1 X-8.47 Y21.75 Z2.19 F2400.0
G1 X-12.93 Y20.13 Z2.19 F2400.0
G1 X-16.25 Y16.75 Z2.19 F2400.0
G1 X-17.64 Y13.07 Z2.19 F2400.0
G1 X-17.93 Y10.34 Z2.19 F2400.0
G1 X-18.82 Y8.62 Z2.19 F2400.0
G1 X-20.87 Y6.81 Z2.19 F2400.0
G1 X-23.07 Y3.54 Z2.19 F2400.0
G1 X-23.9 Y-1.13 Z2.19 F2400.0
G1 X-22.63 Y-5.69 Z2.19 F2400.0
G1 X-20.14 Y-8.74 Z2.19 F2400.0
G1 X-17.92 Y-10.36 Z2.19 F2400.0
G1 X-16.88 Y-11.98 Z2.19 F2400.0
G1 X-16.33 Y-14.67 Z2.19 F2400.0
G1 X-14.6 Y-18.2 Z2.19 F2400.0
G1 X-10.97 Y-21.26 Z2.19 F2400.0
G1 X-6.38 Y-22.45 Z2.19 F2400.0
G1 X-2.5 Y-21.81 Z2.19 F2400.0
G1 X-2.0 Y-21.59 Z2.19 F2400.0
M103
(</loop>)
(<perimeter> outer )
M108 R2.052
G1 X-1.83 Y-21.97 Z2.19 F3300.0
M101
G1 X-1.51 Y-21.83 Z2.19 F1200.0
G1 X0.1 Y-21.11 Z2.19 F1200.0
G1 X1.88 Y-21.03 Z2.19 F1200.0
G1 X4.46 Y-21.89 Z2.19 F1200.0
G1 X8.53 Y-22.17 Z2.19 F1200.0
G1 X13.16 Y-20.49 Z2.19 F1200.0
G1 X16.61 Y-16.98 Z2.19 F1200.0
G1 X18.05 Y-13.17 Z2.19 F1200.0
G1 X18.34 Y-10.47 Z2.19 F1200.0
G1 X19.16 Y-8.88 Z2.19 F1200.0
G1 X21.19 Y-7.08 Z2.19 F1200.0
G1 X23.46 Y-3.7 Z2.19 F1200.0
G1 X24.33 Y1.15 Z2.19 F1200.0
G1 X23.01 Y5.89 Z2.19 F1200.0
G1 X20.43 Y9.05 Z2.19 F1200.0
G1 X18.23 Y10.65 Z2.19 F1200.0
G1 X17.27 Y12.15 Z2.19 F1200.0
G1 X16.73 Y14.81 Z2.19 F1200.0
G1 X14.94 Y18.47 Z2.19 F1200.0
G1 X11.17 Y21.64 Z2.19 F1200.0
G1 X6.4 Y22.87 Z2.19 F1200.0
G1 X2.38 Y22.21 Z2.19 F1200.0
G1 X-0.1 Y21.11 Z2.19 F1200.0
G1 X-1.88 Y21.03 Z2.19 F1200.0
G1 X-4.46 Y21.89 Z2.19 F1200.0
G1 X-8.53 Y22.17 Z2.19 F1200.0
G1 X-13.16 Y20.49 Z2.19 F1200.0
G1 X-16.61 Y16.98 Z2.19 F1200.0
G1 X-18.05 Y13.17 Z2.19 F1200.0
G1 X-18.34 Y10.47 Z2.19 F1200.0
G1 X-19.16 Y8.88 Z2.19 F1200.0
G1 X-21.19 Y7.08 Z2.19 F1200.0
G1 X-23.46 Y3.7 Z2.19 F1200.0
G1 X-24.33 Y-1.15 Z2.19 F1200.0
G1 X-23.01 Y-5.89 Z2.19 F1200.0
G1 X-20.43 Y-9.05 Z2.19 F1200.0
G1 X-18.23 Y-10.65 Z2.19 F1200.0
G1 X-17.27 Y-12.15 Z2.19 F1200.0
G1 X-16.73 Y-14.81 Z2.19 F1200.0
G1 X-14.94 Y-18.47 Z2.19 F1200.0
G1 X-11.17 Y-21.64 Z2.19 F1200.0
G1 X-6.4 Y-22.87 Z2.19 F1200.0
G1 X-2.38 Y-22.21 Z2.19 F1200.0
G1 X-2.34 Y-22.2 Z2.19 F1200.0
M108 R40.0
M102
G1 X-1.83 Y-21.97 Z2.19 F1200.0
M108 R2.052
M103
(</perimeter>)
(</boundaryPerimeter>)
M108 R4.103
G1 X-7.8 Y-21.16 Z2.19 F3300.0
M108 R40.0
M101
G1 X-9.38 Y-20.94 Z2.19 F3300.0
M108 R4.103
G1 X-3.4 Y-20.94 Z2.19 F2400.0
M108 R40.0
M102
G1 X-2.29 Y-20.94 Z2.19 F2400.0
M108 R4.103
M103
M108 R40.0
M101
G1 X-1.34 Y-20.52 Z2.19 F2142.523
M108 R4.103
G1 X-9.63 Y-20.52 Z2.19 F2400.0
M108 R40.0
M102
G1 X-10.75 Y-20.52 Z2.19 F2400.0
M108 R4.103
M103
G1 X-5.71 Y-21.16 Z2.19 F3300.0
M108 R40.0
M101
G1 X-4.13 Y-21.36 Z2.19 F3300.0
M108 R4.103
G1 X-6.64 Y-21.36 Z2.19 F2400.0
M108 R40.0
M102
G1 X-7.76 Y-21.36 Z2.19 F2400.0
M108 R4.103
M103
G1 X-13.66 Y-16.88 Z2.19 F3300.0
M108 R40.0
M101
G1 X-14.94 Y-15.92 Z2.19 F3300.0
M108 R4.103
G1 X15.81 Y-15.92 Z2.19 F2400.0
G1 X15.65 Y-16.34 Z2.19 F2400.0
G1 X-14.73 Y-16.34 Z2.19 F2400.0
G1 X-14.52 Y-16.75 Z2.19 F2400.0
G1 X15.26 Y-16.75 Z2.19 F2400.0
G1 X14.84 Y-17.17 Z2.19 F2400.0
G1 X-14.32 Y-17.17 Z2.19 F2400.0
G1 X-14.11 Y-17.59 Z2.19 F2400.0
G1 X14.43 Y-17.59 Z2.19 F2400.0
G1 X14.02 Y-18.01 Z2.19 F2400.0
G1 X-13.73 Y-18.01 Z2.19 F2400.0
G1 X-13.24 Y-18.43 Z2.19 F2400.0
G1 X13.61 Y-18.43 Z2.19 F2400.0
G1 X13.2 Y-18.85 Z2.19 F2400.0
G1 X-12.74 Y-18.85 Z2.19 F2400.0
G1 X-12.24 Y-19.27 Z2.19 F2400.0
G1 X12.79 Y-19.27 Z2.19 F2400.0
G1 X12.09 Y-19.69 Z2.19 F2400.0
G1 X-11.75 Y-19.69 Z2.19 F2400.0
G1 X-11.25 Y-20.11 Z2.19 F2400.0
G1 X-1.51 Y-20.11 Z2.19 F2400.0
M108 R40.0
M102
G1 X-0.39 Y-20.11 Z2.19 F2400.0
M108 R4.103
M103
G1 X1.06 Y-20.11 Z2.19 F3300.0
M108 R40.0
M101
G1 X2.66 Y-20.11 Z2.19 F3300.0
M108 R4.103
G1 X9.81 Y-20.11 Z2.19 F2400.0
M108 R40.0
M102
G1 X10.93 Y-20.11 Z2.19 F2400.0
M108 R4.103
M103
M108 R40.0
M101
G1 X9.77 Y-20.52 Z2.19 F2547.875
M108 R4.103
G1 X5.03 Y-20.52 Z2.19 F2400.0
M108 R40.0
M102
G1 X3.91 Y-20.52 Z2.19 F2400.0
M108 R4.103
M103
G1 X5.49 Y-20.73 Z2.19 F3300.0
M108 R40.0
M101
G1 X7.07 Y-20.94 Z2.19 F3300.0
M108 R4.103
G1 X7.49 Y-20.94 Z2.19 F2400.0
M108 R40.0
M102
G1 X8.61 Y-20.94 Z2.19 F2400.0
M108 R4.103
M103
G1 X15.77 Y-14.09 Z2.19 F3300.0
M108 R40.0
M101
G1 X16.92 Y-12.98 Z2.19 F3300.0
M108 R4.103
G1 X-15.96 Y-12.98 Z2.19 F2400.0
M103
G1 X-15.87 Y-13.4 Z2.19 F3300.0
M101
G1 X16.76 Y-13.4 Z2.19 F2400.0
G1 X16.6 Y-13.82 Z2.19 F2400.0
G1 X-15.78 Y-13.82 Z2.19 F2400.0
M103
G1 X-15.7 Y-14.24 Z2.19 F3300.0
M101
G1 X16.44 Y-14.24 Z2.19 F2400.0
G1 X16.28 Y-14.66 Z2.19 F2400.0
G1 X-15.55 Y-14.66 Z2.19 F2400.0
M103
G1 X-15.35 Y-15.08 Z2.19 F3300.0
M101
G1 X16.13 Y-15.08 Z2.19 F2400.0
G1 X15.97 Y-15.5 Z2.19 F2400.0
G1 X-14.02 Y-15.5 Z2.19 F2400.0
M108 R40.0
M102
G1 X-15.14 Y-15.5 Z2.19 F2400.0
M108 R4.103
M103
G1 X-16.7 Y-11.54 Z2.19 F3300.0
M108 R40.0
M101
G1 X-17.28 Y-10.05 Z2.19 F3300.0
M108 R4.103
G1 X17.29 Y-10.05 Z2.19 F2400.0
G1 X17.21 Y-10.47 Z2.19 F2400.0
G1 X-17.01 Y-10.47 Z2.19 F2400.0
G1 X-16.74 Y-10.89 Z2.19 F2400.0
G1 X17.16 Y-10.89 Z2.19 F2400.0
G1 X17.12 Y-11.31 Z2.19 F2400.0
G1 X-16.48 Y-11.31 Z2.19 F2400.0
G1 X-16.21 Y-11.73 Z2.19 F2400.0
G1 X17.07 Y-11.73 Z2.19 F2400.0
G1 X17.03 Y-12.15 Z2.19 F2400.0
G1 X-16.13 Y-12.15 Z2.19 F2400.0
G1 X-16.04 Y-12.57 Z2.19 F2400.0
G1 X15.86 Y-12.57 Z2.19 F2400.0
M108 R40.0
M102
G1 X16.98 Y-12.57 Z2.19 F2400.0
M108 R4.103
M103
G1 X21.94 Y-3.09 Z2.19 F3300.0
M108 R40.0
M101
G1 X22.68 Y-1.68 Z2.19 F3300.0
M108 R4.103
G1 X-23.02 Y-1.68 Z2.19 F2400.0
G1 X-22.9 Y-2.09 Z2.19 F2400.0
G1 X21.49 Y-2.09 Z2.19 F2400.0
M108 R40.0
M102
G1 X22.61 Y-2.09 Z2.19 F2400.0
M108 R4.103
M103
G1 X22.63 Y-1.99 Z2.19 F3300.0
M108 R40.0
M101
G1 X22.91 Y-0.42 Z2.19 F3300.0
M108 R4.103
G1 X-23.06 Y-0.42 Z2.19 F2400.0
G1 X-23.13 Y-0.84 Z2.19 F2400.0
G1 X22.83 Y-0.84 Z2.19 F2400.0
G1 X22.76 Y-1.26 Z2.19 F2400.0
G1 X-22.01 Y-1.26 Z2.19 F2400.0
M108 R40.0
M102
G1 X-23.13 Y-1.26 Z2.19 F2400.0
M108 R4.103
M103
M108 R40.0
M101
G1 X-22.98 Y0.0 Z2.19 F2619.141
M108 R4.103
G1 X21.86 Y0.0 Z2.19 F2400.0
M108 R40.0
M102
G1 X22.98 Y-0.0 Z2.19 F2400.0
M108 R4.103
M103
M108 R40.0
M101
G1 X23.13 Y1.26 Z2.19 F2619.141
M108 R4.103
G1 X-22.76 Y1.26 Z2.19 F2400.0
G1 X-22.83 Y0.84 Z2.19 F2400.0
G1 X23.13 Y0.84 Z2.19 F2400.0
G1 X23.06 Y0.42 Z2.19 F2400.0
G1 X-21.79 Y0.42 Z2.19 F2400.0
M108 R40.0
M102
G1 X-22.91 Y0.42 Z2.19 F2400.0
M108 R4.103
M103
G1 X-22.89 Y0.52 Z2.19 F3300.0
M108 R40.0
M101
G1 X-22.61 Y2.09 Z2.19 F3300.0
M108 R4.103
G1 X22.9 Y2.09 Z2.19 F2400.0
G1 X23.02 Y1.68 Z2.19 F2400.0
G1 X-21.56 Y1.68 Z2.19 F2400.0
M108 R40.0
M102
G1 X-22.68 Y1.68 Z2.19 F2400.0
M108 R4.103
M103
G1 X-22.74 Y-0.92 Z2.19 F3300.0
M108 R40.0
M101
G1 X-22.78 Y-2.51 Z2.19 F3300.0
M108 R4.103
G1 X22.53 Y-2.51 Z2.19 F2400.0
G1 X22.46 Y-2.93 Z2.19 F2400.0
G1 X-22.67 Y-2.93 Z2.19 F2400.0
M103
G1 X-22.55 Y-3.35 Z2.19 F3300.0
M101
G1 X22.34 Y-3.35 Z2.19 F2400.0
G1 X22.06 Y-3.77 Z2.19 F2400.0
G1 X-22.43 Y-3.77 Z2.19 F2400.0
G1 X-22.32 Y-4.19 Z2.19 F2400.0
G1 X21.78 Y-4.19 Z2.19 F2400.0
G1 X21.5 Y-4.61 Z2.19 F2400.0
G1 X-22.2 Y-4.61 Z2.19 F2400.0
M103
G1 X-22.09 Y-5.03 Z2.19 F3300.0
M101
G1 X21.22 Y-5.03 Z2.19 F2400.0
G1 X20.94 Y-5.45 Z2.19 F2400.0
G1 X-21.92 Y-5.45 Z2.19 F2400.0
G1 X-21.58 Y-5.86 Z2.19 F2400.0
G1 X20.65 Y-5.86 Z2.19 F2400.0
G1 X20.37 Y-6.28 Z2.19 F2400.0
G1 X-21.24 Y-6.28 Z2.19 F2400.0
G1 X-20.89 Y-6.7 Z2.19 F2400.0
G1 X19.93 Y-6.7 Z2.19 F2400.0
G1 X19.45 Y-7.12 Z2.19 F2400.0
G1 X-20.55 Y-7.12 Z2.19 F2400.0
G1 X-20.21 Y-7.54 Z2.19 F2400.0
G1 X18.98 Y-7.54 Z2.19 F2400.0
G1 X18.51 Y-7.96 Z2.19 F2400.0
G1 X-19.87 Y-7.96 Z2.19 F2400.0
G1 X-19.44 Y-8.38 Z2.19 F2400.0
G1 X18.15 Y-8.38 Z2.19 F2400.0
G1 X17.94 Y-8.8 Z2.19 F2400.0
G1 X-18.86 Y-8.8 Z2.19 F2400.0
G1 X-18.29 Y-9.21 Z2.19 F2400.0
G1 X17.72 Y-9.21 Z2.19 F2400.0
G1 X17.5 Y-9.63 Z2.19 F2400.0
G1 X-16.6 Y-9.63 Z2.19 F2400.0
M108 R40.0
M102
G1 X-17.72 Y-9.63 Z2.19 F2400.0
M108 R4.103
M103
G1 X-17.04 Y10.97 Z2.19 F3300.0
M108 R40.0
M101
G1 X-16.98 Y12.57 Z2.19 F3300.0
M108 R4.103
G1 X16.04 Y12.57 Z2.19 F2400.0
G1 X16.13 Y12.15 Z2.19 F2400.0
G1 X-17.03 Y12.15 Z2.19 F2400.0
G1 X-17.07 Y11.73 Z2.19 F2400.0
G1 X16.21 Y11.73 Z2.19 F2400.0
G1 X16.48 Y11.31 Z2.19 F2400.0
G1 X-17.12 Y11.31 Z2.19 F2400.0
G1 X-17.16 Y10.89 Z2.19 F2400.0
G1 X16.74 Y10.89 Z2.19 F2400.0
G1 X17.01 Y10.47 Z2.19 F2400.0
G1 X-17.21 Y10.47 Z2.19 F2400.0
G1 X-17.29 Y10.05 Z2.19 F2400.0
G1 X17.28 Y10.05 Z2.19 F2400.0
M103
G1 X17.72 Y9.63 Z2.19 F3300.0
M101
G1 X-17.5 Y9.63 Z2.19 F2400.0
G1 X-17.72 Y9.21 Z2.19 F2400.0
G1 X18.29 Y9.21 Z2.19 F2400.0
G1 X18.86 Y8.8 Z2.19 F2400.0
G1 X-17.94 Y8.8 Z2.19 F2400.0
G1 X-18.15 Y8.38 Z2.19 F2400.0
G1 X19.44 Y8.38 Z2.19 F2400.0
G1 X19.87 Y7.96 Z2.19 F2400.0
G1 X-18.51 Y7.96 Z2.19 F2400.0
G1 X-18.98 Y7.54 Z2.19 F2400.0
G1 X20.21 Y7.54 Z2.19 F2400.0
G1 X20.55 Y7.12 Z2.19 F2400.0
G1 X-19.45 Y7.12 Z2.19 F2400.0
G1 X-19.93 Y6.7 Z2.19 F2400.0
G1 X20.89 Y6.7 Z2.19 F2400.0
G1 X21.24 Y6.28 Z2.19 F2400.0
G1 X-20.37 Y6.28 Z2.19 F2400.0
G1 X-20.65 Y5.86 Z2.19 F2400.0
G1 X21.58 Y5.86 Z2.19 F2400.0
G1 X21.92 Y5.45 Z2.19 F2400.0
G1 X-20.94 Y5.45 Z2.19 F2400.0
G1 X-21.22 Y5.03 Z2.19 F2400.0
G1 X22.09 Y5.03 Z2.19 F2400.0
M103
G1 X22.2 Y4.61 Z2.19 F3300.0
M101
G1 X-21.5 Y4.61 Z2.19 F2400.0
G1 X-21.78 Y4.19 Z2.19 F2400.0
G1 X22.32 Y4.19 Z2.19 F2400.0
G1 X22.43 Y3.77 Z2.19 F2400.0
G1 X-22.06 Y3.77 Z2.19 F2400.0
G1 X-22.34 Y3.35 Z2.19 F2400.0
G1 X22.55 Y3.35 Z2.19 F2400.0
M103
G1 X22.67 Y2.93 Z2.19 F3300.0
M101
G1 X-22.46 Y2.93 Z2.19 F2400.0
G1 X-22.53 Y2.51 Z2.19 F2400.0
G1 X21.66 Y2.51 Z2.19 F2400.0
M108 R40.0
M102
G1 X22.78 Y2.51 Z2.19 F2400.0
M108 R4.103
M103
G1 X16.83 Y11.65 Z2.19 F3300.0
M108 R40.0
M101
G1 X15.96 Y12.98 Z2.19 F3300.0
M108 R4.103
G1 X-15.8 Y12.98 Z2.19 F2400.0
M108 R40.0
M102
G1 X-16.92 Y12.98 Z2.19 F2400.0
M108 R4.103
M103
G1 X-4.08 Y19.39 Z2.19 F3300.0
M108 R40.0
M101
G1 X-2.66 Y20.11 Z2.19 F3300.0
M108 R4.103
G1 X-9.81 Y20.11 Z2.19 F2400.0
M108 R40.0
M102
G1 X-10.93 Y20.11 Z2.19 F2400.0
M108 R4.103
M103
M108 R40.0
M101
G1 X-9.77 Y20.52 Z2.19 F2547.875
M108 R4.103
G1 X-5.03 Y20.52 Z2.19 F2400.0
M108 R40.0
M102
G1 X-3.91 Y20.52 Z2.19 F2400.0
M108 R4.103
M103
G1 X-5.49 Y20.73 Z2.19 F3300.0
M108 R40.0
M101
G1 X-7.07 Y20.94 Z2.19 F3300.0
M108 R4.103
G1 X-7.49 Y20.94 Z2.19 F2400.0
M108 R40.0
M102
G1 X-8.61 Y20.94 Z2.19 F2400.0
M108 R4.103
M103
G1 X-1.2 Y20.25 Z2.19 F3300.0
M108 R40.0
M101
G1 X0.39 Y20.11 Z2.19 F3300.0
M108 R4.103
G1 X11.25 Y20.11 Z2.19 F2400.0
G1 X11.75 Y19.69 Z2.19 F2400.0
G1 X-12.09 Y19.69 Z2.19 F2400.0
G1 X-12.79 Y19.27 Z2.19 F2400.0
G1 X12.24 Y19.27 Z2.19 F2400.0
G1 X12.74 Y18.85 Z2.19 F2400.0
G1 X-13.2 Y18.85 Z2.19 F2400.0
G1 X-13.61 Y18.43 Z2.19 F2400.0
G1 X13.24 Y18.43 Z2.19 F2400.0
G1 X13.73 Y18.01 Z2.19 F2400.0
G1 X-14.02 Y18.01 Z2.19 F2400.0
G1 X-14.43 Y17.59 Z2.19 F2400.0
G1 X14.11 Y17.59 Z2.19 F2400.0
G1 X14.32 Y17.17 Z2.19 F2400.0
G1 X-14.84 Y17.17 Z2.19 F2400.0
G1 X-15.26 Y16.75 Z2.19 F2400.0
G1 X14.52 Y16.75 Z2.19 F2400.0
G1 X14.73 Y16.34 Z2.19 F2400.0
G1 X-15.65 Y16.34 Z2.19 F2400.0
G1 X-15.81 Y15.92 Z2.19 F2400.0
G1 X14.94 Y15.92 Z2.19 F2400.0
M103
G1 X15.14 Y15.5 Z2.19 F3300.0
M101
G1 X-15.97 Y15.5 Z2.19 F2400.0
G1 X-16.13 Y15.08 Z2.19 F2400.0
G1 X15.35 Y15.08 Z2.19 F2400.0
M103
G1 X15.55 Y14.66 Z2.19 F3300.0
M101
G1 X-16.28 Y14.66 Z2.19 F2400.0
G1 X-16.44 Y14.24 Z2.19 F2400.0
G1 X15.7 Y14.24 Z2.19 F2400.0
M103
G1 X15.78 Y13.82 Z2.19 F3300.0
M101
G1 X-16.6 Y13.82 Z2.19 F2400.0
G1 X-16.76 Y13.4 Z2.19 F2400.0
G1 X14.75 Y13.4 Z2.19 F2400.0
M108 R40.0
M102
G1 X15.87 Y13.4 Z2.19 F2400.0
M108 R4.103
M103
G1 X5.52 Y20.08 Z2.19 F3300.0
M108 R40.0
M101
G1 X4.18 Y20.94 Z2.19 F3300.0
M108 R4.103
G1 X9.38 Y20.94 Z2.19 F2400.0
G1 X9.68 Y20.85 Z2.19 F2400.0
M108 R40.0
M102
G1 X10.75 Y20.52 Z2.19 F2400.0
M108 R4.103
M103
M108 R40.0
M101
G1 X9.32 Y20.52 Z2.19 F2966.897
M108 R4.103
G1 X2.46 Y20.52 Z2.19 F2400.0
M108 R40.0
M102
G1 X1.34 Y20.52 Z2.19 F2400.0
M108 R4.103
M103
G1 X6.18 Y21.16 Z2.19 F3300.0
M108 R40.0
M101
G1 X7.76 Y21.36 Z2.19 F3300.0
M108 R4.103
G1 X4.13 Y21.36 Z2.19 F2400.0
G1 X2.29 Y20.94 Z2.19 F2400.0
M103
(</surroundingLoop>)
(</layer>)
(<operatingLayerEnd> </operatingLayerEnd>)
M73 P6 (display progress)
(<layer> 2.49 )
(<surroundingLoop>)
(<boundaryPerimeter>)
(<boundaryPoint> X23.678 Y4.301 Z2.49 </boundaryPoint>)
(<boundaryPoint> X22.995 Y6.714 Z2.49 </boundaryPoint>)
(<boundaryPoint> X21.59 Y8.241 Z2.49 </boundaryPoint>)
(<boundaryPoint> X20.268 Y9.84 Z2.49 </boundaryPoint>)
(<boundaryPoint> X18.037 Y11.364 Z2.49 </boundaryPoint>)
(<boundaryPoint> X17.073 Y12.766 Z2.49 </boundaryPoint>)
(<boundaryPoint> X16.449 Y15.395 Z2.49 </boundaryPoint>)
(<boundaryPoint> X15.431 Y17.203 Z2.49 </boundaryPoint>)
(<boundaryPoint> X14.509 Y19.061 Z2.49 </boundaryPoint>)
(<boundaryPoint> X12.501 Y20.564 Z2.49 </boundaryPoint>)
(<boundaryPoint> X10.575 Y22.17 Z2.49 </boundaryPoint>)
(<boundaryPoint> X8.114 Y22.657 Z2.49 </boundaryPoint>)
(<boundaryPoint> X5.683 Y23.272 Z2.49 </boundaryPoint>)
(<boundaryPoint> X3.658 Y22.819 Z2.49 </boundaryPoint>)
(<boundaryPoint> X1.613 Y22.472 Z2.49 </boundaryPoint>)
(<boundaryPoint> X-0.823 Y21.302 Z2.49 </boundaryPoint>)
(<boundaryPoint> X-2.519 Y21.169 Z2.49 </boundaryPoint>)
(<boundaryPoint> X-5.108 Y21.943 Z2.49 </boundaryPoint>)
(<boundaryPoint> X-7.183 Y21.965 Z2.49 </boundaryPoint>)
(<boundaryPoint> X-9.253 Y22.096 Z2.49 </boundaryPoint>)
(<boundaryPoint> X-11.559 Y21.109 Z2.49 </boundaryPoint>)
(<boundaryPoint> X-13.913 Y20.243 Z2.49 </boundaryPoint>)
(<boundaryPoint> X-15.564 Y18.356 Z2.49 </boundaryPoint>)
(<boundaryPoint> X-17.312 Y16.557 Z2.49 </boundaryPoint>)
(<boundaryPoint> X-17.932 Y14.577 Z2.49 </boundaryPoint>)
(<boundaryPoint> X-18.655 Y12.633 Z2.49 </boundaryPoint>)
(<boundaryPoint> X-18.86 Y9.938 Z2.49 </boundaryPoint>)
(<boundaryPoint> X-19.592 Y8.403 Z2.49 </boundaryPoint>)
(<boundaryPoint> X-21.558 Y6.548 Z2.49 </boundaryPoint>)
(<boundaryPoint> X-22.614 Y4.762 Z2.49 </boundaryPoint>)
(<boundaryPoint> X-23.762 Y3.035 Z2.49 </boundaryPoint>)
(<boundaryPoint> X-24.06 Y0.544 Z2.49 </boundaryPoint>)
(<boundaryPoint> X-24.487 Y-1.927 Z2.49 </boundaryPoint>)
(<boundaryPoint> X-23.678 Y-4.301 Z2.49 </boundaryPoint>)
(<boundaryPoint> X-22.995 Y-6.714 Z2.49 </boundaryPoint>)
(<boundaryPoint> X-21.59 Y-8.241 Z2.49 </boundaryPoint>)
(<boundaryPoint> X-20.268 Y-9.84 Z2.49 </boundaryPoint>)
(<boundaryPoint> X-18.037 Y-11.364 Z2.49 </boundaryPoint>)
(<boundaryPoint> X-17.073 Y-12.766 Z2.49 </boundaryPoint>)
(<boundaryPoint> X-16.449 Y-15.395 Z2.49 </boundaryPoint>)
(<boundaryPoint> X-15.431 Y-17.203 Z2.49 </boundaryPoint>)
(<boundaryPoint> X-14.509 Y-19.061 Z2.49 </boundaryPoint>)
(<boundaryPoint> X-12.501 Y-20.564 Z2.49 </boundaryPoint>)
(<boundaryPoint> X-10.575 Y-22.17 Z2.49 </boundaryPoint>)
(<boundaryPoint> X-8.114 Y-22.657 Z2.49 </boundaryPoint>)
(<boundaryPoint> X-5.683 Y-23.272 Z2.49 </boundaryPoint>)
(<boundaryPoint> X-3.658 Y-22.819 Z2.49 </boundaryPoint>)
(<boundaryPoint> X-1.613 Y-22.472 Z2.49 </boundaryPoint>)
(<boundaryPoint> X0.823 Y-21.302 Z2.49 </boundaryPoint>)
(<boundaryPoint> X2.519 Y-21.169 Z2.49 </boundaryPoint>)
(<boundaryPoint> X5.108 Y-21.943 Z2.49 </boundaryPoint>)
(<boundaryPoint> X7.183 Y-21.965 Z2.49 </boundaryPoint>)
(<boundaryPoint> X9.253 Y-22.096 Z2.49 </boundaryPoint>)
(<boundaryPoint> X11.559 Y-21.109 Z2.49 </boundaryPoint>)
(<boundaryPoint> X13.913 Y-20.243 Z2.49 </boundaryPoint>)
(<boundaryPoint> X15.564 Y-18.356 Z2.49 </boundaryPoint>)
(<boundaryPoint> X17.312 Y-16.557 Z2.49 </boundaryPoint>)
(<boundaryPoint> X17.932 Y-14.577 Z2.49 </boundaryPoint>)
(<boundaryPoint> X18.655 Y-12.633 Z2.49 </boundaryPoint>)
(<boundaryPoint> X18.86 Y-9.938 Z2.49 </boundaryPoint>)
(<boundaryPoint> X19.592 Y-8.403 Z2.49 </boundaryPoint>)
(<boundaryPoint> X21.558 Y-6.548 Z2.49 </boundaryPoint>)
(<boundaryPoint> X22.614 Y-4.762 Z2.49 </boundaryPoint>)
(<boundaryPoint> X23.762 Y-3.035 Z2.49 </boundaryPoint>)
(<boundaryPoint> X24.06 Y-0.544 Z2.49 </boundaryPoint>)
(<boundaryPoint> X24.487 Y1.927 Z2.49 </boundaryPoint>)
(<loop> outer )
G1 X2.0 Y21.48 Z2.49 F3300.0
M101
G1 X1.94 Y21.47 Z2.49 F2400.0
G1 X-0.55 Y20.27 Z2.49 F2400.0
G1 X-2.63 Y20.11 Z2.49 F2400.0
G1 X-5.27 Y20.9 Z2.49 F2400.0
G1 X-9.07 Y21.04 Z2.49 F2400.0
G1 X-13.3 Y19.36 Z2.49 F2400.0
G1 X-16.39 Y16.01 Z2.49 F2400.0
G1 X-17.62 Y12.41 Z2.49 F2400.0
G1 X-17.83 Y9.66 Z2.49 F2400.0
G1 X-18.73 Y7.78 Z2.49 F2400.0
G1 X-20.74 Y5.88 Z2.49 F2400.0
G1 X-22.75 Y2.66 Z2.49 F2400.0
G1 X-23.41 Y-1.84 Z2.49 F2400.0
G1 X-22.06 Y-6.19 Z2.49 F2400.0
G1 X-19.56 Y-9.06 Z2.49 F2400.0
G1 X-17.29 Y-10.61 Z2.49 F2400.0
G1 X-16.1 Y-12.33 Z2.49 F2400.0
G1 X-15.46 Y-15.02 Z2.49 F2400.0
G1 X-13.68 Y-18.37 Z2.49 F2400.0
G1 X-10.11 Y-21.2 Z2.49 F2400.0
G1 X-5.67 Y-22.2 Z2.49 F2400.0
G1 X-1.94 Y-21.47 Z2.49 F2400.0
G1 X0.55 Y-20.27 Z2.49 F2400.0
G1 X2.63 Y-20.11 Z2.49 F2400.0
G1 X5.27 Y-20.9 Z2.49 F2400.0
G1 X9.07 Y-21.04 Z2.49 F2400.0
G1 X13.3 Y-19.36 Z2.49 F2400.0
G1 X16.39 Y-16.01 Z2.49 F2400.0
G1 X17.62 Y-12.41 Z2.49 F2400.0
G1 X17.83 Y-9.66 Z2.49 F2400.0
G1 X18.73 Y-7.78 Z2.49 F2400.0
G1 X20.74 Y-5.88 Z2.49 F2400.0
G1 X22.75 Y-2.66 Z2.49 F2400.0
G1 X23.41 Y1.84 Z2.49 F2400.0
G1 X22.06 Y6.19 Z2.49 F2400.0
G1 X19.56 Y9.06 Z2.49 F2400.0
G1 X17.29 Y10.61 Z2.49 F2400.0
G1 X16.1 Y12.33 Z2.49 F2400.0
G1 X15.46 Y15.02 Z2.49 F2400.0
G1 X13.68 Y18.37 Z2.49 F2400.0
G1 X10.11 Y21.2 Z2.49 F2400.0
G1 X5.67 Y22.2 Z2.49 F2400.0
G1 X2.17 Y21.51 Z2.49 F2400.0
G1 X2.0 Y21.48 Z2.49 F2400.0
M103
(</loop>)
(<loop> outer )
G1 X1.8 Y21.87 Z2.49 F3300.0
M101
G1 X-0.66 Y20.68 Z2.49 F2400.0
G1 X-2.59 Y20.53 Z2.49 F2400.0
G1 X-5.2 Y21.32 Z2.49 F2400.0
G1 X-9.14 Y21.46 Z2.49 F2400.0
G1 X-13.55 Y19.71 Z2.49 F2400.0
G1 X-16.76 Y16.23 Z2.49 F2400.0
G1 X-18.04 Y12.5 Z2.49 F2400.0
G1 X-18.24 Y9.77 Z2.49 F2400.0
G1 X-19.07 Y8.03 Z2.49 F2400.0
G1 X-21.06 Y6.15 Z2.49 F2400.0
G1 X-23.16 Y2.81 Z2.49 F2400.0
G1 X-23.84 Y-1.88 Z2.49 F2400.0
G1 X-22.43 Y-6.4 Z2.49 F2400.0
G1 X-19.84 Y-9.37 Z2.49 F2400.0
G1 X-17.59 Y-10.91 Z2.49 F2400.0
G1 X-16.49 Y-12.51 Z2.49 F2400.0
G1 X-15.86 Y-15.16 Z2.49 F2400.0
G1 X-14.01 Y-18.65 Z2.49 F2400.0
G1 X-10.3 Y-21.59 Z2.49 F2400.0
G1 X-5.67 Y-22.63 Z2.49 F2400.0
G1 X-1.8 Y-21.87 Z2.49 F2400.0
G1 X0.66 Y-20.68 Z2.49 F2400.0
G1 X2.59 Y-20.53 Z2.49 F2400.0
G1 X5.2 Y-21.32 Z2.49 F2400.0
G1 X9.14 Y-21.46 Z2.49 F2400.0
G1 X13.55 Y-19.71 Z2.49 F2400.0
G1 X16.76 Y-16.23 Z2.49 F2400.0
G1 X18.04 Y-12.5 Z2.49 F2400.0
G1 X18.24 Y-9.77 Z2.49 F2400.0
G1 X19.07 Y-8.03 Z2.49 F2400.0
G1 X21.06 Y-6.15 Z2.49 F2400.0
G1 X23.16 Y-2.81 Z2.49 F2400.0
G1 X23.84 Y1.88 Z2.49 F2400.0
G1 X22.43 Y6.4 Z2.49 F2400.0
G1 X19.84 Y9.37 Z2.49 F2400.0
G1 X17.59 Y10.91 Z2.49 F2400.0
G1 X16.49 Y12.51 Z2.49 F2400.0
G1 X15.86 Y15.16 Z2.49 F2400.0
G1 X14.01 Y18.65 Z2.49 F2400.0
G1 X10.3 Y21.59 Z2.49 F2400.0
G1 X5.67 Y22.63 Z2.49 F2400.0
G1 X2.09 Y21.92 Z2.49 F2400.0
G1 X1.8 Y21.87 Z2.49 F2400.0
M103
(</loop>)
(<perimeter> outer )
M108 R2.052
G1 X1.68 Y22.27 Z2.49 F3300.0
M101
G1 X-0.77 Y21.1 Z2.49 F1200.0
G1 X-2.54 Y20.96 Z2.49 F1200.0
G1 X-5.14 Y21.73 Z2.49 F1200.0
G1 X-7.19 Y21.76 Z2.49 F1200.0
G1 X-9.22 Y21.88 Z2.49 F1200.0
G1 X-11.48 Y20.91 Z2.49 F1200.0
G1 X-13.79 Y20.07 Z2.49 F1200.0
G1 X-15.41 Y18.21 Z2.49 F1200.0
G1 X-17.13 Y16.45 Z2.49 F1200.0
G1 X-17.73 Y14.51 Z2.49 F1200.0
G1 X-18.45 Y12.59 Z2.49 F1200.0
G1 X-18.65 Y9.88 Z2.49 F1200.0
G1 X-19.42 Y8.28 Z2.49 F1200.0
G1 X-21.39 Y6.42 Z2.49 F1200.0
G1 X-22.44 Y4.65 Z2.49 F1200.0
G1 X-23.56 Y2.96 Z2.49 F1200.0
G1 X-23.85 Y0.51 Z2.49 F1200.0
G1 X-24.27 Y-1.91 Z2.49 F1200.0
G1 X-23.48 Y-4.24 Z2.49 F1200.0
G1 X-22.81 Y-6.61 Z2.49 F1200.0
G1 X-21.43 Y-8.1 Z2.49 F1200.0
G1 X-20.13 Y-9.68 Z2.49 F1200.0
G1 X-17.89 Y-11.21 Z2.49 F1200.0
G1 X-16.88 Y-12.68 Z2.49 F1200.0
G1 X-16.25 Y-15.32 Z2.49 F1200.0
G1 X-15.25 Y-17.11 Z2.49 F1200.0
G1 X-14.34 Y-18.92 Z2.49 F1200.0
G1 X-12.37 Y-20.4 Z2.49 F1200.0
G1 X-10.48 Y-21.98 Z2.49 F1200.0
G1 X-8.07 Y-22.45 Z2.49 F1200.0
G1 X-5.68 Y-23.06 Z2.49 F1200.0
G1 X-3.7 Y-22.61 Z2.49 F1200.0
G1 X-1.68 Y-22.27 Z2.49 F1200.0
G1 X0.77 Y-21.1 Z2.49 F1200.0
G1 X2.54 Y-20.96 Z2.49 F1200.0
G1 X5.14 Y-21.73 Z2.49 F1200.0
G1 X7.19 Y-21.76 Z2.49 F1200.0
G1 X9.22 Y-21.88 Z2.49 F1200.0
G1 X11.48 Y-20.91 Z2.49 F1200.0
G1 X13.79 Y-20.07 Z2.49 F1200.0
G1 X15.41 Y-18.21 Z2.49 F1200.0
G1 X17.13 Y-16.45 Z2.49 F1200.0
G1 X17.73 Y-14.51 Z2.49 F1200.0
G1 X18.45 Y-12.59 Z2.49 F1200.0
G1 X18.65 Y-9.88 Z2.49 F1200.0
G1 X19.42 Y-8.28 Z2.49 F1200.0
G1 X21.39 Y-6.42 Z2.49 F1200.0
G1 X22.44 Y-4.65 Z2.49 F1200.0
G1 X23.56 Y-2.96 Z2.49 F1200.0
G1 X23.85 Y-0.51 Z2.49 F1200.0
G1 X24.27 Y1.91 Z2.49 F1200.0
G1 X23.48 Y4.24 Z2.49 F1200.0
G1 X22.81 Y6.61 Z2.49 F1200.0
G1 X21.43 Y8.1 Z2.49 F1200.0
G1 X20.13 Y9.68 Z2.49 F1200.0
G1 X17.89 Y11.21 Z2.49 F1200.0
G1 X16.88 Y12.68 Z2.49 F1200.0
G1 X16.25 Y15.32 Z2.49 F1200.0
G1 X15.25 Y17.11 Z2.49 F1200.0
G1 X14.34 Y18.92 Z2.49 F1200.0
G1 X12.37 Y20.4 Z2.49 F1200.0
G1 X10.48 Y21.98 Z2.49 F1200.0
G1 X8.07 Y22.45 Z2.49 F1200.0
G1 X5.68 Y23.06 Z2.49 F1200.0
G1 X3.7 Y22.61 Z2.49 F1200.0
G1 X2.23 Y22.36 Z2.49 F1200.0
M108 R40.0
M102
G1 X2.02 Y22.33 Z2.49 F1200.0
G1 X1.68 Y22.27 Z2.49 F1200.0
M108 R2.052
M103
(</perimeter>)
(</boundaryPerimeter>)
M108 R4.103
G1 X1.92 Y22.15 Z2.49 F3300.0
M108 R40.0
M101
G1 X3.35 Y21.45 Z2.49 F3300.0
M108 R4.103
G1 X3.35 Y-20.03 Z2.49 F2400.0
G1 X2.93 Y-19.9 Z2.49 F2400.0
G1 X2.93 Y21.37 Z2.49 F2400.0
G1 X2.51 Y21.29 Z2.49 F2400.0
G1 X2.51 Y-19.83 Z2.49 F2400.0
G1 X2.09 Y-19.87 Z2.49 F2400.0
G1 X2.09 Y21.21 Z2.49 F2400.0
G1 X1.68 Y21.02 Z2.49 F2400.0
G1 X1.68 Y-19.9 Z2.49 F2400.0
M103
G1 X1.26 Y-19.93 Z2.49 F3300.0
M101
G1 X1.26 Y20.82 Z2.49 F2400.0
G1 X0.84 Y20.62 Z2.49 F2400.0
G1 X0.84 Y-19.96 Z2.49 F2400.0
G1 X0.42 Y-20.02 Z2.49 F2400.0
G1 X0.42 Y20.42 Z2.49 F2400.0
M103
G1 X0.0 Y20.22 Z2.49 F3300.0
M101
G1 X-0.0 Y-20.22 Z2.49 F2400.0
M103
G1 X-0.42 Y-20.42 Z2.49 F3300.0
M101
G1 X-0.42 Y20.02 Z2.49 F2400.0
G1 X-0.84 Y19.96 Z2.49 F2400.0
G1 X-0.84 Y-20.62 Z2.49 F2400.0
G1 X-1.26 Y-20.82 Z2.49 F2400.0
G1 X-1.26 Y19.93 Z2.49 F2400.0
M103
G1 X-1.68 Y19.9 Z2.49 F3300.0
M101
G1 X-1.68 Y-21.02 Z2.49 F2400.0
G1 X-2.09 Y-21.21 Z2.49 F2400.0
G1 X-2.09 Y19.87 Z2.49 F2400.0
G1 X-2.51 Y19.83 Z2.49 F2400.0
G1 X-2.51 Y-21.29 Z2.49 F2400.0
G1 X-2.93 Y-21.37 Z2.49 F2400.0
G1 X-2.93 Y19.9 Z2.49 F2400.0
G1 X-3.35 Y20.03 Z2.49 F2400.0
G1 X-3.35 Y-21.45 Z2.49 F2400.0
M103
G1 X-3.77 Y-21.54 Z2.49 F3300.0
M101
G1 X-3.77 Y19.03 Z2.49 F2400.0
M108 R40.0
M102
G1 X-3.77 Y20.15 Z2.49 F2400.0
M108 R4.103
M103
G1 X-4.17 Y-20.02 Z2.49 F3300.0
M108 R40.0
M101
G1 X-4.19 Y-21.62 Z2.49 F3300.0
M108 R4.103
G1 X-4.19 Y20.28 Z2.49 F2400.0
G1 X-4.61 Y20.4 Z2.49 F2400.0
G1 X-4.61 Y-21.7 Z2.49 F2400.0
G1 X-5.03 Y-21.78 Z2.49 F2400.0
G1 X-5.03 Y20.53 Z2.49 F2400.0
G1 X-5.45 Y20.62 Z2.49 F2400.0
G1 X-5.45 Y-21.86 Z2.49 F2400.0
G1 X-5.86 Y-21.86 Z2.49 F2400.0
G1 X-5.86 Y19.52 Z2.49 F2400.0
M108 R40.0
M102
G1 X-5.86 Y20.64 Z2.49 F2400.0
M108 R4.103
M103
G1 X-6.27 Y-20.17 Z2.49 F3300.0
M108 R40.0
M101
G1 X-6.28 Y-21.77 Z2.49 F3300.0
M108 R4.103
G1 X-6.28 Y20.65 Z2.49 F2400.0
M103
G1 X-6.7 Y20.67 Z2.49 F3300.0
M101
G1 X-6.7 Y-21.67 Z2.49 F2400.0
G1 X-7.12 Y-21.58 Z2.49 F2400.0
G1 X-7.12 Y20.68 Z2.49 F2400.0
G1 X-7.54 Y20.7 Z2.49 F2400.0
G1 X-7.54 Y-21.48 Z2.49 F2400.0
G1 X-7.96 Y-21.39 Z2.49 F2400.0
G1 X-7.96 Y20.71 Z2.49 F2400.0
G1 X-8.38 Y20.73 Z2.49 F2400.0
G1 X-8.38 Y-21.3 Z2.49 F2400.0
M103
G1 X-8.8 Y-21.2 Z2.49 F3300.0
M101
G1 X-8.8 Y20.74 Z2.49 F2400.0
G1 X-9.21 Y20.67 Z2.49 F2400.0
G1 X-9.21 Y-21.11 Z2.49 F2400.0
M103
G1 X-9.63 Y-21.01 Z2.49 F3300.0
M101
G1 X-9.63 Y20.51 Z2.49 F2400.0
M103
G1 X-10.05 Y20.34 Z2.49 F3300.0
M101
G1 X-10.05 Y-20.88 Z2.49 F2400.0
G1 X-10.47 Y-20.55 Z2.49 F2400.0
G1 X-10.47 Y20.17 Z2.49 F2400.0
G1 X-10.89 Y20.01 Z2.49 F2400.0
G1 X-10.89 Y-20.22 Z2.49 F2400.0
G1 X-11.31 Y-19.89 Z2.49 F2400.0
G1 X-11.31 Y19.84 Z2.49 F2400.0
M103
G1 X-11.73 Y19.67 Z2.49 F3300.0
M101
G1 X-11.73 Y-19.55 Z2.49 F2400.0
G1 X-12.15 Y-19.22 Z2.49 F2400.0
G1 X-12.15 Y19.51 Z2.49 F2400.0
M103
G1 X-12.57 Y19.34 Z2.49 F3300.0
M101
G1 X-12.57 Y-18.89 Z2.49 F2400.0
G1 X-12.98 Y-18.56 Z2.49 F2400.0
G1 X-12.98 Y19.17 Z2.49 F2400.0
G1 X-13.4 Y18.82 Z2.49 F2400.0
G1 X-13.4 Y-18.23 Z2.49 F2400.0
G1 X-13.82 Y-17.5 Z2.49 F2400.0
G1 X-13.82 Y18.37 Z2.49 F2400.0
G1 X-14.24 Y17.92 Z2.49 F2400.0
G1 X-14.24 Y-16.71 Z2.49 F2400.0
G1 X-14.66 Y-15.92 Z2.49 F2400.0
G1 X-14.66 Y17.46 Z2.49 F2400.0
G1 X-15.08 Y17.01 Z2.49 F2400.0
G1 X-15.08 Y-14.01 Z2.49 F2400.0
M108 R40.0
M102
G1 X-15.08 Y-15.13 Z2.49 F2400.0
M108 R4.103
M103
M108 R40.0
M101
G1 X-15.5 Y-13.63 Z2.49 F3220.258
M108 R4.103
G1 X-15.5 Y16.55 Z2.49 F2400.0
G1 X-15.92 Y16.1 Z2.49 F2400.0
G1 X-15.92 Y-12.1 Z2.49 F2400.0
G1 X-16.34 Y-11.49 Z2.49 F2400.0
G1 X-16.34 Y14.16 Z2.49 F2400.0
M108 R40.0
M102
G1 X-16.34 Y15.28 Z2.49 F2400.0
M108 R4.103
M103
M108 R40.0
M101
G1 X-16.75 Y14.06 Z2.49 F2672.768
M108 R4.103
G1 X-16.75 Y-10.88 Z2.49 F2400.0
G1 X-17.17 Y-10.34 Z2.49 F2400.0
G1 X-17.17 Y11.72 Z2.49 F2400.0
M108 R40.0
M102
G1 X-17.17 Y12.84 Z2.49 F2400.0
M108 R4.103
M103
G1 X-17.39 Y11.08 Z2.49 F3300.0
M108 R40.0
M101
G1 X-17.59 Y9.5 Z2.49 F3300.0
M108 R4.103
G1 X-17.59 Y-10.05 Z2.49 F2400.0
G1 X-18.01 Y-9.77 Z2.49 F2400.0
G1 X-18.01 Y8.62 Z2.49 F2400.0
M103
G1 X-18.43 Y7.74 Z2.49 F3300.0
M101
G1 X-18.43 Y-9.48 Z2.49 F2400.0
G1 X-18.85 Y-9.2 Z2.49 F2400.0
G1 X-18.85 Y7.27 Z2.49 F2400.0
G1 X-19.27 Y6.88 Z2.49 F2400.0
G1 X-19.27 Y-8.91 Z2.49 F2400.0
G1 X-19.69 Y-8.48 Z2.49 F2400.0
G1 X-19.69 Y6.48 Z2.49 F2400.0
G1 X-20.11 Y6.09 Z2.49 F2400.0
G1 X-20.11 Y-8.0 Z2.49 F2400.0
G1 X-20.52 Y-7.51 Z2.49 F2400.0
G1 X-20.52 Y5.68 Z2.49 F2400.0
G1 X-20.94 Y5.01 Z2.49 F2400.0
G1 X-20.94 Y-7.03 Z2.49 F2400.0
G1 X-21.36 Y-6.55 Z2.49 F2400.0
G1 X-21.36 Y4.35 Z2.49 F2400.0
G1 X-21.78 Y3.68 Z2.49 F2400.0
G1 X-21.78 Y-4.95 Z2.49 F2400.0
M108 R40.0
M102
G1 X-21.78 Y-6.07 Z2.49 F2400.0
M108 R4.103
M103
M108 R40.0
M101
G1 X-22.2 Y-4.77 Z2.49 F2825.908
M108 R4.103
G1 X-22.2 Y1.89 Z2.49 F2400.0
M108 R40.0
M102
G1 X-22.2 Y3.01 Z2.49 F2400.0
M108 R4.103
M103
M108 R40.0
M101
G1 X-22.62 Y1.61 Z2.49 F3016.955
M108 R4.103
G1 X-22.62 Y-2.31 Z2.49 F2400.0
M108 R40.0
M102
G1 X-22.62 Y-3.43 Z2.49 F2400.0
M108 R4.103
M103
G1 X-23.04 Y-2.08 Z2.49 F3300.0
M101
G1 X-23.04 Y-1.25 Z2.49 F2400.0
M103
G1 X2.47 Y-19.23 Z2.49 F3300.0
M108 R40.0
M101
G1 X3.77 Y-20.15 Z2.49 F3300.0
M108 R4.103
G1 X3.77 Y20.41 Z2.49 F2400.0
M108 R40.0
M102
G1 X3.77 Y21.54 Z2.49 F2400.0
M108 R4.103
M103
G1 X5.79 Y-19.04 Z2.49 F3300.0
M108 R40.0
M101
G1 X5.86 Y-20.64 Z2.49 F3300.0
M108 R4.103
G1 X5.86 Y21.86 Z2.49 F2400.0
G1 X5.45 Y21.86 Z2.49 F2400.0
G1 X5.45 Y-20.62 Z2.49 F2400.0
G1 X5.03 Y-20.53 Z2.49 F2400.0
G1 X5.03 Y21.78 Z2.49 F2400.0
G1 X4.61 Y21.7 Z2.49 F2400.0
G1 X4.61 Y-20.4 Z2.49 F2400.0
G1 X4.19 Y-20.28 Z2.49 F2400.0
G1 X4.19 Y20.5 Z2.49 F2400.0
M108 R40.0
M102
G1 X4.19 Y21.62 Z2.49 F2400.0
M108 R4.103
M103
G1 X6.2 Y-19.06 Z2.49 F3300.0
M108 R40.0
M101
G1 X6.28 Y-20.65 Z2.49 F3300.0
M108 R4.103
G1 X6.28 Y20.65 Z2.49 F2400.0
M108 R40.0
M102
G1 X6.28 Y21.77 Z2.49 F2400.0
M108 R4.103
M103
G1 X6.82 Y21.65 Z2.49 F3300.0
M108 R40.0
M101
G1 X8.38 Y21.3 Z2.49 F3300.0
M108 R4.103
G1 X8.38 Y-20.73 Z2.49 F2400.0
G1 X7.96 Y-20.71 Z2.49 F2400.0
G1 X7.96 Y21.39 Z2.49 F2400.0
G1 X7.54 Y21.48 Z2.49 F2400.0
G1 X7.54 Y-20.7 Z2.49 F2400.0
G1 X7.12 Y-20.68 Z2.49 F2400.0
G1 X7.12 Y21.58 Z2.49 F2400.0
G1 X6.7 Y21.67 Z2.49 F2400.0
G1 X6.7 Y-19.55 Z2.49 F2400.0
M108 R40.0
M102
G1 X6.7 Y-20.67 Z2.49 F2400.0
M108 R4.103
M103
G1 X8.04 Y-20.59 Z2.49 F3300.0
M108 R40.0
M101
G1 X9.63 Y-20.51 Z2.49 F3300.0
M108 R4.103
G1 X9.63 Y21.01 Z2.49 F2400.0
M103
G1 X9.21 Y21.11 Z2.49 F3300.0
M101
G1 X9.21 Y-20.67 Z2.49 F2400.0
G1 X8.8 Y-20.74 Z2.49 F2400.0
G1 X8.8 Y20.08 Z2.49 F2400.0
M108 R40.0
M102
G1 X8.8 Y21.2 Z2.49 F2400.0
M108 R4.103
M103
G1 X16.01 Y-13.72 Z2.49 F3300.0
M108 R40.0
M101
G1 X16.34 Y-15.28 Z2.49 F3300.0
M108 R4.103
G1 X16.34 Y11.49 Z2.49 F2400.0
G1 X15.92 Y12.1 Z2.49 F2400.0
G1 X15.92 Y-16.1 Z2.49 F2400.0
G1 X15.5 Y-16.55 Z2.49 F2400.0
G1 X15.5 Y13.63 Z2.49 F2400.0
G1 X15.38 Y14.05 Z2.49 F2400.0
M108 R40.0
M102
G1 X15.08 Y15.13 Z2.49 F2400.0
M108 R4.103
M103
M108 R40.0
M101
G1 X15.08 Y13.57 Z2.49 F3219.31
M108 R4.103
G1 X15.08 Y-17.01 Z2.49 F2400.0
G1 X14.66 Y-17.46 Z2.49 F2400.0
G1 X14.66 Y15.92 Z2.49 F2400.0
G1 X14.24 Y16.71 Z2.49 F2400.0
G1 X14.24 Y-17.92 Z2.49 F2400.0
G1 X13.82 Y-18.37 Z2.49 F2400.0
G1 X13.82 Y17.5 Z2.49 F2400.0
G1 X13.4 Y18.23 Z2.49 F2400.0
G1 X13.4 Y-18.82 Z2.49 F2400.0
G1 X12.98 Y-19.17 Z2.49 F2400.0
G1 X12.98 Y18.56 Z2.49 F2400.0
G1 X12.57 Y18.89 Z2.49 F2400.0
G1 X12.57 Y-19.34 Z2.49 F2400.0
M103
G1 X12.15 Y-19.51 Z2.49 F3300.0
M101
G1 X12.15 Y19.22 Z2.49 F2400.0
G1 X11.73 Y19.55 Z2.49 F2400.0
G1 X11.73 Y-19.67 Z2.49 F2400.0
M103
G1 X11.31 Y-19.84 Z2.49 F3300.0
M101
G1 X11.31 Y19.89 Z2.49 F2400.0
G1 X10.89 Y20.22 Z2.49 F2400.0
G1 X10.89 Y-20.01 Z2.49 F2400.0
G1 X10.47 Y-20.17 Z2.49 F2400.0
G1 X10.47 Y20.55 Z2.49 F2400.0
G1 X10.05 Y20.88 Z2.49 F2400.0
G1 X10.05 Y-19.22 Z2.49 F2400.0
M108 R40.0
M102
G1 X10.05 Y-20.34 Z2.49 F2400.0
M108 R4.103
M103
G1 X16.08 Y-14.0 Z2.49 F3300.0
M108 R40.0
M101
G1 X17.17 Y-12.84 Z2.49 F3300.0
M108 R4.103
G1 X17.17 Y10.34 Z2.49 F2400.0
G1 X16.75 Y10.88 Z2.49 F2400.0
G1 X16.75 Y-12.94 Z2.49 F2400.0
M108 R40.0
M102
G1 X16.75 Y-14.06 Z2.49 F2400.0
M108 R4.103
M103
G1 X17.65 Y-10.18 Z2.49 F3300.0
M108 R40.0
M101
G1 X18.01 Y-8.62 Z2.49 F3300.0
M108 R4.103
G1 X18.01 Y9.77 Z2.49 F2400.0
G1 X17.59 Y10.05 Z2.49 F2400.0
G1 X17.59 Y-8.38 Z2.49 F2400.0
M108 R40.0
M102
G1 X17.59 Y-9.5 Z2.49 F2400.0
M108 R4.103
M103
G1 X21.33 Y3.18 Z2.49 F3300.0
M108 R40.0
M101
G1 X21.78 Y4.71 Z2.49 F3300.0
M108 R4.103
G1 X21.78 Y-3.68 Z2.49 F2400.0
G1 X21.36 Y-4.35 Z2.49 F2400.0
G1 X21.36 Y6.55 Z2.49 F2400.0
G1 X20.94 Y7.03 Z2.49 F2400.0
G1 X20.94 Y-5.01 Z2.49 F2400.0
G1 X20.52 Y-5.68 Z2.49 F2400.0
G1 X20.52 Y7.51 Z2.49 F2400.0
G1 X20.11 Y8.0 Z2.49 F2400.0
G1 X20.11 Y-6.09 Z2.49 F2400.0
G1 X19.69 Y-6.48 Z2.49 F2400.0
G1 X19.69 Y8.48 Z2.49 F2400.0
G1 X19.27 Y8.91 Z2.49 F2400.0
G1 X19.27 Y-6.88 Z2.49 F2400.0
G1 X18.85 Y-7.27 Z2.49 F2400.0
G1 X18.85 Y9.2 Z2.49 F2400.0
G1 X18.43 Y9.48 Z2.49 F2400.0
G1 X18.43 Y-6.62 Z2.49 F2400.0
M108 R40.0
M102
G1 X18.43 Y-7.74 Z2.49 F2400.0
M108 R4.103
M103
G1 X22.06 Y1.94 Z2.49 F3300.0
M108 R40.0
M101
G1 X22.62 Y3.43 Z2.49 F3300.0
M108 R4.103
G1 X22.62 Y-1.61 Z2.49 F2400.0
G1 X22.52 Y-1.94 Z2.49 F2400.0
M108 R40.0
M102
G1 X22.2 Y-3.01 Z2.49 F2400.0
M108 R4.103
M103
M108 R40.0
M101
G1 X22.2 Y-1.55 Z2.49 F3016.552
M108 R4.103
G1 X22.2 Y4.77 Z2.49 F2400.0
G1 X22.13 Y5.01 Z2.49 F2400.0
M108 R40.0
M102
G1 X21.78 Y6.07 Z2.49 F2400.0
M108 R4.103
M103
G1 X23.04 Y1.25 Z2.49 F3300.0
M101
G1 X23.04 Y2.08 Z2.49 F2400.0
M103
(</surroundingLoop>)
(</layer>)
M73 P9 (display progress)
(<layer> 2.79 )
(<surroundingLoop>)
(<boundaryPerimeter>)
(<boundaryPoint> X19.953 Y10.474 Z2.79 </boundaryPoint>)
(<boundaryPoint> X17.675 Y11.928 Z2.79 </boundaryPoint>)
(<boundaryPoint> X16.667 Y13.299 Z2.79 </boundaryPoint>)
(<boundaryPoint> X15.961 Y15.908 Z2.79 </boundaryPoint>)
(<boundaryPoint> X13.906 Y19.512 Z2.79 </boundaryPoint>)
(<boundaryPoint> X9.875 Y22.496 Z2.79 </boundaryPoint>)
(<boundaryPoint> X4.95 Y23.444 Z2.79 </boundaryPoint>)
(<boundaryPoint> X0.906 Y22.517 Z2.79 </boundaryPoint>)
(<boundaryPoint> X-1.492 Y21.271 Z2.79 </boundaryPoint>)
(<boundaryPoint> X-3.184 Y21.084 Z2.79 </boundaryPoint>)
(<boundaryPoint> X-5.796 Y21.777 Z2.79 </boundaryPoint>)
(<boundaryPoint> X-9.945 Y21.799 Z2.79 </boundaryPoint>)
(<boundaryPoint> X-14.545 Y19.8 Z2.79 </boundaryPoint>)
(<boundaryPoint> X-17.828 Y16.009 Z2.79 </boundaryPoint>)
(<boundaryPoint> X-19.047 Y12.043 Z2.79 </boundaryPoint>)
(<boundaryPoint> X-19.167 Y9.343 Z2.79 </boundaryPoint>)
(<boundaryPoint> X-19.851 Y7.785 Z2.79 </boundaryPoint>)
(<boundaryPoint> X-21.757 Y5.869 Z2.79 </boundaryPoint>)
(<boundaryPoint> X-23.851 Y2.287 Z2.79 </boundaryPoint>)
(<boundaryPoint> X-24.42 Y-2.696 Z2.79 </boundaryPoint>)
(<boundaryPoint> X-22.778 Y-7.435 Z2.79 </boundaryPoint>)
(<boundaryPoint> X-19.953 Y-10.474 Z2.79 </boundaryPoint>)
(<boundaryPoint> X-17.675 Y-11.928 Z2.79 </boundaryPoint>)
(<boundaryPoint> X-16.667 Y-13.299 Z2.79 </boundaryPoint>)
(<boundaryPoint> X-15.961 Y-15.908 Z2.79 </boundaryPoint>)
(<boundaryPoint> X-13.906 Y-19.512 Z2.79 </boundaryPoint>)
(<boundaryPoint> X-9.875 Y-22.496 Z2.79 </boundaryPoint>)
(<boundaryPoint> X-4.95 Y-23.444 Z2.79 </boundaryPoint>)
(<boundaryPoint> X-0.906 Y-22.517 Z2.79 </boundaryPoint>)
(<boundaryPoint> X1.492 Y-21.271 Z2.79 </boundaryPoint>)
(<boundaryPoint> X3.184 Y-21.084 Z2.79 </boundaryPoint>)
(<boundaryPoint> X5.796 Y-21.777 Z2.79 </boundaryPoint>)
(<boundaryPoint> X9.945 Y-21.799 Z2.79 </boundaryPoint>)
(<boundaryPoint> X14.545 Y-19.8 Z2.79 </boundaryPoint>)
(<boundaryPoint> X17.828 Y-16.009 Z2.79 </boundaryPoint>)
(<boundaryPoint> X19.047 Y-12.043 Z2.79 </boundaryPoint>)
(<boundaryPoint> X19.167 Y-9.343 Z2.79 </boundaryPoint>)
(<boundaryPoint> X19.851 Y-7.785 Z2.79 </boundaryPoint>)
(<boundaryPoint> X21.757 Y-5.869 Z2.79 </boundaryPoint>)
(<boundaryPoint> X23.851 Y-2.287 Z2.79 </boundaryPoint>)
(<boundaryPoint> X24.42 Y2.696 Z2.79 </boundaryPoint>)
(<boundaryPoint> X22.778 Y7.435 Z2.79 </boundaryPoint>)
(<loop> outer )
M108 R40.0
M101
G1 X23.28 Y1.91 Z2.79 F870.245
M108 R4.103
G1 X23.29 Y2.06 Z2.79 F2400.0
G1 X23.35 Y2.58 Z2.79 F2400.0
G1 X21.86 Y6.88 Z2.79 F2400.0
G1 X19.28 Y9.66 Z2.79 F2400.0
G1 X16.95 Y11.15 Z2.79 F2400.0
G1 X15.71 Y12.84 Z2.79 F2400.0
G1 X14.98 Y15.51 Z2.79 F2400.0
G1 X13.11 Y18.8 Z2.79 F2400.0
G1 X9.44 Y21.51 Z2.79 F2400.0
G1 X4.97 Y22.37 Z2.79 F2400.0
G1 X1.27 Y21.53 Z2.79 F2400.0
G1 X-1.18 Y20.25 Z2.79 F2400.0
G1 X-3.26 Y20.02 Z2.79 F2400.0
G1 X-5.93 Y20.73 Z2.79 F2400.0
G1 X-9.73 Y20.75 Z2.79 F2400.0
G1 X-13.91 Y18.93 Z2.79 F2400.0
G1 X-16.89 Y15.49 Z2.79 F2400.0
G1 X-18.01 Y11.86 Z2.79 F2400.0
G1 X-18.13 Y9.1 Z2.79 F2400.0
G1 X-18.97 Y7.18 Z2.79 F2400.0
G1 X-20.92 Y5.22 Z2.79 F2400.0
G1 X-22.84 Y1.95 Z2.79 F2400.0
G1 X-23.35 Y-2.58 Z2.79 F2400.0
G1 X-21.86 Y-6.88 Z2.79 F2400.0
G1 X-19.28 Y-9.66 Z2.79 F2400.0
G1 X-16.95 Y-11.15 Z2.79 F2400.0
G1 X-15.71 Y-12.84 Z2.79 F2400.0
G1 X-14.98 Y-15.51 Z2.79 F2400.0
G1 X-13.11 Y-18.8 Z2.79 F2400.0
G1 X-9.44 Y-21.51 Z2.79 F2400.0
G1 X-4.97 Y-22.37 Z2.79 F2400.0
G1 X-1.27 Y-21.53 Z2.79 F2400.0
G1 X1.18 Y-20.25 Z2.79 F2400.0
G1 X3.26 Y-20.02 Z2.79 F2400.0
G1 X5.93 Y-20.73 Z2.79 F2400.0
G1 X9.73 Y-20.75 Z2.79 F2400.0
G1 X13.91 Y-18.93 Z2.79 F2400.0
G1 X16.89 Y-15.49 Z2.79 F2400.0
G1 X18.01 Y-11.86 Z2.79 F2400.0
G1 X18.13 Y-9.1 Z2.79 F2400.0
G1 X18.97 Y-7.18 Z2.79 F2400.0
G1 X20.92 Y-5.22 Z2.79 F2400.0
G1 X22.84 Y-1.95 Z2.79 F2400.0
G1 X23.28 Y1.91 Z2.79 F2400.0
M103
(</loop>)
(<loop> outer )
G1 X23.71 Y2.01 Z2.79 F3300.0
M101
G1 X23.78 Y2.63 Z2.79 F2400.0
G1 X22.23 Y7.1 Z2.79 F2400.0
G1 X19.55 Y9.99 Z2.79 F2400.0
G1 X17.24 Y11.46 Z2.79 F2400.0
G1 X16.09 Y13.02 Z2.79 F2400.0
G1 X15.38 Y15.67 Z2.79 F2400.0
G1 X13.43 Y19.09 Z2.79 F2400.0
G1 X9.62 Y21.91 Z2.79 F2400.0
G1 X4.96 Y22.8 Z2.79 F2400.0
G1 X1.13 Y21.92 Z2.79 F2400.0
G1 X-1.31 Y20.66 Z2.79 F2400.0
G1 X-3.23 Y20.45 Z2.79 F2400.0
G1 X-5.88 Y21.15 Z2.79 F2400.0
G1 X-9.82 Y21.17 Z2.79 F2400.0
G1 X-14.16 Y19.28 Z2.79 F2400.0
G1 X-17.27 Y15.7 Z2.79 F2400.0
G1 X-18.42 Y11.94 Z2.79 F2400.0
G1 X-18.54 Y9.2 Z2.79 F2400.0
G1 X-19.32 Y7.42 Z2.79 F2400.0
G1 X-21.25 Y5.48 Z2.79 F2400.0
G1 X-23.24 Y2.08 Z2.79 F2400.0
G1 X-23.78 Y-2.63 Z2.79 F2400.0
G1 X-22.23 Y-7.1 Z2.79 F2400.0
G1 X-19.55 Y-9.99 Z2.79 F2400.0
G1 X-17.24 Y-11.46 Z2.79 F2400.0
G1 X-16.09 Y-13.02 Z2.79 F2400.0
G1 X-15.38 Y-15.67 Z2.79 F2400.0
G1 X-13.43 Y-19.09 Z2.79 F2400.0
G1 X-9.62 Y-21.91 Z2.79 F2400.0
G1 X-4.96 Y-22.8 Z2.79 F2400.0
G1 X-1.13 Y-21.92 Z2.79 F2400.0
G1 X1.31 Y-20.66 Z2.79 F2400.0
G1 X3.23 Y-20.45 Z2.79 F2400.0
G1 X5.88 Y-21.15 Z2.79 F2400.0
G1 X9.82 Y-21.17 Z2.79 F2400.0
G1 X14.16 Y-19.28 Z2.79 F2400.0
G1 X17.27 Y-15.7 Z2.79 F2400.0
G1 X18.42 Y-11.94 Z2.79 F2400.0
G1 X18.54 Y-9.2 Z2.79 F2400.0
G1 X19.32 Y-7.42 Z2.79 F2400.0
G1 X21.25 Y-5.48 Z2.79 F2400.0
G1 X23.24 Y-2.08 Z2.79 F2400.0
G1 X23.71 Y2.01 Z2.79 F2400.0
M103
(</loop>)
(<perimeter> outer )
M108 R2.052
G1 X24.13 Y1.96 Z2.79 F3300.0
M101
G1 X24.21 Y2.67 Z2.79 F1200.0
G1 X22.59 Y7.33 Z2.79 F1200.0
G1 X19.82 Y10.31 Z2.79 F1200.0
G1 X17.53 Y11.77 Z2.79 F1200.0
G1 X16.48 Y13.21 Z2.79 F1200.0
G1 X15.77 Y15.83 Z2.79 F1200.0
G1 X13.75 Y19.37 Z2.79 F1200.0
G1 X9.79 Y22.3 Z2.79 F1200.0
G1 X4.95 Y23.23 Z2.79 F1200.0
G1 X0.98 Y22.32 Z2.79 F1200.0
G1 X-1.43 Y21.07 Z2.79 F1200.0
G1 X-3.2 Y20.87 Z2.79 F1200.0
G1 X-5.82 Y21.57 Z2.79 F1200.0
G1 X-9.9 Y21.59 Z2.79 F1200.0
G1 X-14.42 Y19.63 Z2.79 F1200.0
G1 X-17.64 Y15.9 Z2.79 F1200.0
G1 X-18.84 Y12.01 Z2.79 F1200.0
G1 X-18.96 Y9.29 Z2.79 F1200.0
G1 X-19.68 Y7.67 Z2.79 F1200.0
G1 X-21.59 Y5.74 Z2.79 F1200.0
G1 X-23.65 Y2.22 Z2.79 F1200.0
G1 X-24.21 Y-2.67 Z2.79 F1200.0
G1 X-22.59 Y-7.33 Z2.79 F1200.0
G1 X-19.82 Y-10.31 Z2.79 F1200.0
G1 X-17.53 Y-11.77 Z2.79 F1200.0
G1 X-16.48 Y-13.21 Z2.79 F1200.0
G1 X-15.77 Y-15.83 Z2.79 F1200.0
G1 X-13.75 Y-19.37 Z2.79 F1200.0
G1 X-9.79 Y-22.3 Z2.79 F1200.0
G1 X-4.95 Y-23.23 Z2.79 F1200.0
G1 X-0.98 Y-22.32 Z2.79 F1200.0
G1 X1.43 Y-21.07 Z2.79 F1200.0
G1 X3.2 Y-20.87 Z2.79 F1200.0
G1 X5.82 Y-21.57 Z2.79 F1200.0
G1 X9.9 Y-21.59 Z2.79 F1200.0
G1 X14.42 Y-19.63 Z2.79 F1200.0
G1 X17.64 Y-15.9 Z2.79 F1200.0
G1 X18.84 Y-12.01 Z2.79 F1200.0
G1 X18.96 Y-9.29 Z2.79 F1200.0
G1 X19.68 Y-7.67 Z2.79 F1200.0
G1 X21.59 Y-5.74 Z2.79 F1200.0
G1 X23.65 Y-2.22 Z2.79 F1200.0
G1 X24.06 Y1.41 Z2.79 F1200.0
M108 R40.0
M102
G1 X24.13 Y1.96 Z2.79 F1200.0
M108 R2.052
M103
(</perimeter>)
(</boundaryPerimeter>)
(</surroundingLoop>)
(</layer>)
M108 R4.103
M73 P10 (display progress)
(<layer> 3.09 )
(<surroundingLoop>)
(<boundaryPerimeter>)
(<boundaryPoint> X19.611 Y11.093 Z3.09 </boundaryPoint>)
(<boundaryPoint> X17.289 Y12.475 Z3.09 </boundaryPoint>)
(<boundaryPoint> X16.239 Y13.814 Z3.09 </boundaryPoint>)
(<boundaryPoint> X15.451 Y16.399 Z3.09 </boundaryPoint>)
(<boundaryPoint> X13.284 Y19.936 Z3.09 </boundaryPoint>)
(<boundaryPoint> X9.162 Y22.792 Z3.09 </boundaryPoint>)
(<boundaryPoint> X4.21 Y23.584 Z3.09 </boundaryPoint>)
(<boundaryPoint> X0.198 Y22.53 Z3.09 </boundaryPoint>)
(<boundaryPoint> X-2.159 Y21.21 Z3.09 </boundaryPoint>)
(<boundaryPoint> X-3.844 Y20.97 Z3.09 </boundaryPoint>)
(<boundaryPoint> X-6.476 Y21.58 Z3.09 </boundaryPoint>)
(<boundaryPoint> X-10.623 Y21.473 Z3.09 </boundaryPoint>)
(<boundaryPoint> X-15.157 Y19.331 Z3.09 </boundaryPoint>)
(<boundaryPoint> X-18.319 Y15.438 Z3.09 </boundaryPoint>)
(<boundaryPoint> X-19.413 Y11.437 Z3.09 </boundaryPoint>)
(<boundaryPoint> X-19.448 Y8.735 Z3.09 </boundaryPoint>)
(<boundaryPoint> X-20.083 Y7.156 Z3.09 </boundaryPoint>)
(<boundaryPoint> X-21.927 Y5.182 Z3.09 </boundaryPoint>)
(<boundaryPoint> X-23.907 Y1.537 Z3.09 </boundaryPoint>)
(<boundaryPoint> X-24.319 Y-3.461 Z3.09 </boundaryPoint>)
(<boundaryPoint> X-22.529 Y-8.146 Z3.09 </boundaryPoint>)
(<boundaryPoint> X-19.611 Y-11.093 Z3.09 </boundaryPoint>)
(<boundaryPoint> X-17.289 Y-12.475 Z3.09 </boundaryPoint>)
(<boundaryPoint> X-16.239 Y-13.814 Z3.09 </boundaryPoint>)
(<boundaryPoint> X-15.451 Y-16.399 Z3.09 </boundaryPoint>)
(<boundaryPoint> X-13.284 Y-19.936 Z3.09 </boundaryPoint>)
(<boundaryPoint> X-9.162 Y-22.792 Z3.09 </boundaryPoint>)
(<boundaryPoint> X-4.21 Y-23.584 Z3.09 </boundaryPoint>)
(<boundaryPoint> X-0.198 Y-22.53 Z3.09 </boundaryPoint>)
(<boundaryPoint> X2.159 Y-21.21 Z3.09 </boundaryPoint>)
(<boundaryPoint> X3.844 Y-20.97 Z3.09 </boundaryPoint>)
(<boundaryPoint> X6.476 Y-21.58 Z3.09 </boundaryPoint>)
(<boundaryPoint> X10.623 Y-21.473 Z3.09 </boundaryPoint>)
(<boundaryPoint> X15.157 Y-19.331 Z3.09 </boundaryPoint>)
(<boundaryPoint> X18.319 Y-15.438 Z3.09 </boundaryPoint>)
(<boundaryPoint> X19.413 Y-11.437 Z3.09 </boundaryPoint>)
(<boundaryPoint> X19.448 Y-8.735 Z3.09 </boundaryPoint>)
(<boundaryPoint> X20.083 Y-7.156 Z3.09 </boundaryPoint>)
(<boundaryPoint> X21.927 Y-5.182 Z3.09 </boundaryPoint>)
(<boundaryPoint> X23.907 Y-1.537 Z3.09 </boundaryPoint>)
(<boundaryPoint> X24.319 Y3.461 Z3.09 </boundaryPoint>)
(<boundaryPoint> X22.529 Y8.146 Z3.09 </boundaryPoint>)
(<loop> outer )
M108 R40.0
M101
G1 X23.15 Y2.04 Z3.09 F2115.082
M108 R4.103
G1 X23.26 Y3.31 Z3.09 F2400.0
G1 X21.63 Y7.57 Z3.09 F2400.0
G1 X18.96 Y10.26 Z3.09 F2400.0
G1 X16.59 Y11.68 Z3.09 F2400.0
G1 X15.29 Y13.32 Z3.09 F2400.0
G1 X14.49 Y15.97 Z3.09 F2400.0
G1 X12.51 Y19.2 Z3.09 F2400.0
G1 X8.76 Y21.8 Z3.09 F2400.0
G1 X4.26 Y22.52 Z3.09 F2400.0
G1 X0.59 Y21.55 Z3.09 F2400.0
G1 X-1.82 Y20.2 Z3.09 F2400.0
G1 X-3.89 Y19.91 Z3.09 F2400.0
G1 X-6.58 Y20.53 Z3.09 F2400.0
G1 X-10.38 Y20.43 Z3.09 F2400.0
G1 X-14.49 Y18.49 Z3.09 F2400.0
G1 X-17.37 Y14.95 Z3.09 F2400.0
G1 X-18.37 Y11.29 Z3.09 F2400.0
G1 X-18.4 Y8.53 Z3.09 F2400.0
G1 X-19.18 Y6.58 Z3.09 F2400.0
G1 X-21.07 Y4.57 Z3.09 F2400.0
G1 X-22.88 Y1.23 Z3.09 F2400.0
G1 X-23.26 Y-3.31 Z3.09 F2400.0
G1 X-21.63 Y-7.57 Z3.09 F2400.0
G1 X-18.96 Y-10.26 Z3.09 F2400.0
G1 X-16.59 Y-11.68 Z3.09 F2400.0
G1 X-15.29 Y-13.32 Z3.09 F2400.0
G1 X-14.49 Y-15.97 Z3.09 F2400.0
G1 X-12.51 Y-19.2 Z3.09 F2400.0
G1 X-8.76 Y-21.8 Z3.09 F2400.0
G1 X-4.26 Y-22.52 Z3.09 F2400.0
G1 X-0.59 Y-21.55 Z3.09 F2400.0
G1 X1.82 Y-20.2 Z3.09 F2400.0
G1 X3.89 Y-19.91 Z3.09 F2400.0
G1 X6.58 Y-20.53 Z3.09 F2400.0
G1 X10.38 Y-20.43 Z3.09 F2400.0
G1 X14.49 Y-18.49 Z3.09 F2400.0
G1 X17.37 Y-14.95 Z3.09 F2400.0
G1 X18.37 Y-11.29 Z3.09 F2400.0
G1 X18.4 Y-8.53 Z3.09 F2400.0
G1 X19.18 Y-6.58 Z3.09 F2400.0
G1 X21.07 Y-4.57 Z3.09 F2400.0
G1 X22.88 Y-1.23 Z3.09 F2400.0
G1 X23.15 Y2.04 Z3.09 F2400.0
M103
(</loop>)
(<loop> outer )
G1 X23.57 Y2.01 Z3.09 F3300.0
M101
G1 X23.68 Y3.37 Z3.09 F2400.0
G1 X21.99 Y7.8 Z3.09 F2400.0
G1 X19.22 Y10.59 Z3.09 F2400.0
G1 X16.87 Y11.99 Z3.09 F2400.0
G1 X15.67 Y13.52 Z3.09 F2400.0
G1 X14.87 Y16.14 Z3.09 F2400.0
G1 X12.82 Y19.5 Z3.09 F2400.0
G1 X8.92 Y22.19 Z3.09 F2400.0
G1 X4.24 Y22.94 Z3.09 F2400.0
G1 X0.43 Y21.94 Z3.09 F2400.0
G1 X-1.95 Y20.6 Z3.09 F2400.0
G1 X-3.87 Y20.33 Z3.09 F2400.0
G1 X-6.54 Y20.95 Z3.09 F2400.0
G1 X-10.47 Y20.85 Z3.09 F2400.0
G1 X-14.76 Y18.82 Z3.09 F2400.0
G1 X-17.75 Y15.14 Z3.09 F2400.0
G1 X-18.79 Y11.35 Z3.09 F2400.0
G1 X-18.82 Y8.61 Z3.09 F2400.0
G1 X-19.54 Y6.81 Z3.09 F2400.0
G1 X-21.41 Y4.81 Z3.09 F2400.0
G1 X-23.29 Y1.35 Z3.09 F2400.0
G1 X-23.68 Y-3.37 Z3.09 F2400.0
G1 X-21.99 Y-7.8 Z3.09 F2400.0
G1 X-19.22 Y-10.59 Z3.09 F2400.0
G1 X-16.87 Y-11.99 Z3.09 F2400.0
G1 X-15.67 Y-13.52 Z3.09 F2400.0
G1 X-14.87 Y-16.14 Z3.09 F2400.0
G1 X-12.82 Y-19.5 Z3.09 F2400.0
G1 X-8.92 Y-22.19 Z3.09 F2400.0
G1 X-4.24 Y-22.94 Z3.09 F2400.0
G1 X-0.43 Y-21.94 Z3.09 F2400.0
G1 X1.95 Y-20.6 Z3.09 F2400.0
G1 X3.87 Y-20.33 Z3.09 F2400.0
G1 X6.54 Y-20.95 Z3.09 F2400.0
G1 X10.47 Y-20.85 Z3.09 F2400.0
G1 X14.76 Y-18.82 Z3.09 F2400.0
G1 X17.75 Y-15.14 Z3.09 F2400.0
G1 X18.79 Y-11.35 Z3.09 F2400.0
G1 X18.82 Y-8.61 Z3.09 F2400.0
G1 X19.54 Y-6.81 Z3.09 F2400.0
G1 X21.41 Y-4.81 Z3.09 F2400.0
G1 X23.29 Y-1.35 Z3.09 F2400.0
G1 X23.57 Y2.01 Z3.09 F2400.0
M103
(</loop>)
(<perimeter> outer )
M108 R2.052
G1 X23.99 Y1.97 Z3.09 F3300.0
M101
G1 X24.11 Y3.43 Z3.09 F1200.0
G1 X22.35 Y8.03 Z3.09 F1200.0
G1 X19.48 Y10.93 Z3.09 F1200.0
G1 X17.15 Y12.31 Z3.09 F1200.0
G1 X16.05 Y13.72 Z3.09 F1200.0
G1 X15.26 Y16.31 Z3.09 F1200.0
G1 X13.13 Y19.79 Z3.09 F1200.0
G1 X9.08 Y22.59 Z3.09 F1200.0
G1 X4.22 Y23.37 Z3.09 F1200.0
G1 X0.28 Y22.33 Z3.09 F1200.0
G1 X-2.09 Y21.01 Z3.09 F1200.0
G1 X-3.85 Y20.76 Z3.09 F1200.0
G1 X-6.5 Y21.37 Z3.09 F1200.0
G1 X-10.57 Y21.27 Z3.09 F1200.0
G1 X-15.02 Y19.16 Z3.09 F1200.0
G1 X-18.13 Y15.34 Z3.09 F1200.0
G1 X-19.2 Y11.41 Z3.09 F1200.0
G1 X-19.24 Y8.69 Z3.09 F1200.0
G1 X-19.9 Y7.04 Z3.09 F1200.0
G1 X-21.76 Y5.06 Z3.09 F1200.0
G1 X-23.7 Y1.48 Z3.09 F1200.0
G1 X-24.11 Y-3.43 Z3.09 F1200.0
G1 X-22.35 Y-8.03 Z3.09 F1200.0
G1 X-19.48 Y-10.93 Z3.09 F1200.0
G1 X-17.15 Y-12.31 Z3.09 F1200.0
G1 X-16.05 Y-13.72 Z3.09 F1200.0
G1 X-15.26 Y-16.31 Z3.09 F1200.0
G1 X-13.13 Y-19.79 Z3.09 F1200.0
G1 X-9.08 Y-22.59 Z3.09 F1200.0
G1 X-4.22 Y-23.37 Z3.09 F1200.0
G1 X-0.28 Y-22.33 Z3.09 F1200.0
G1 X2.09 Y-21.01 Z3.09 F1200.0
G1 X3.85 Y-20.76 Z3.09 F1200.0
G1 X6.5 Y-21.37 Z3.09 F1200.0
G1 X10.57 Y-21.27 Z3.09 F1200.0
G1 X15.02 Y-19.16 Z3.09 F1200.0
G1 X18.13 Y-15.34 Z3.09 F1200.0
G1 X19.2 Y-11.41 Z3.09 F1200.0
G1 X19.24 Y-8.69 Z3.09 F1200.0
G1 X19.9 Y-7.04 Z3.09 F1200.0
G1 X21.76 Y-5.06 Z3.09 F1200.0
G1 X23.7 Y-1.48 Z3.09 F1200.0
G1 X23.99 Y1.97 Z3.09 F1200.0
M103
(</perimeter>)
(</boundaryPerimeter>)
(</surroundingLoop>)
(</layer>)
M108 R4.103
M73 P11 (display progress)
(<layer> 3.39 )
(<surroundingLoop>)
(<boundaryPerimeter>)
(<boundaryPoint> X-22.262 Y-8.849 Z3.39 </boundaryPoint>)
(<boundaryPoint> X-19.253 Y-11.704 Z3.39 </boundaryPoint>)
(<boundaryPoint> X-16.888 Y-13.012 Z3.39 </boundaryPoint>)
(<boundaryPoint> X-15.797 Y-14.317 Z3.39 </boundaryPoint>)
(<boundaryPoint> X-14.928 Y-16.876 Z3.39 </boundaryPoint>)
(<boundaryPoint> X-12.652 Y-20.343 Z3.39 </boundaryPoint>)
(<boundaryPoint> X-8.442 Y-23.068 Z3.39 </boundaryPoint>)
(<boundaryPoint> X-3.468 Y-23.704 Z3.39 </boundaryPoint>)
(<boundaryPoint> X0.509 Y-22.525 Z3.39 </boundaryPoint>)
(<boundaryPoint> X2.824 Y-21.132 Z3.39 </boundaryPoint>)
(<boundaryPoint> X4.501 Y-20.839 Z3.39 </boundaryPoint>)
(<boundaryPoint> X7.151 Y-21.366 Z3.39 </boundaryPoint>)
(<boundaryPoint> X11.292 Y-21.128 Z3.39 </boundaryPoint>)
(<boundaryPoint> X15.757 Y-18.845 Z3.39 </boundaryPoint>)
(<boundaryPoint> X18.795 Y-14.855 Z3.39 </boundaryPoint>)
(<boundaryPoint> X19.762 Y-10.822 Z3.39 </boundaryPoint>)
(<boundaryPoint> X19.713 Y-8.12 Z3.39 </boundaryPoint>)
(<boundaryPoint> X20.297 Y-6.522 Z3.39 </boundaryPoint>)
(<boundaryPoint> X22.079 Y-4.49 Z3.39 </boundaryPoint>)
(<boundaryPoint> X23.944 Y-0.785 Z3.39 </boundaryPoint>)
(<boundaryPoint> X24.199 Y4.223 Z3.39 </boundaryPoint>)
(<boundaryPoint> X22.262 Y8.849 Z3.39 </boundaryPoint>)
(<boundaryPoint> X19.253 Y11.704 Z3.39 </boundaryPoint>)
(<boundaryPoint> X16.888 Y13.012 Z3.39 </boundaryPoint>)
(<boundaryPoint> X15.797 Y14.317 Z3.39 </boundaryPoint>)
(<boundaryPoint> X14.928 Y16.876 Z3.39 </boundaryPoint>)
(<boundaryPoint> X12.652 Y20.343 Z3.39 </boundaryPoint>)
(<boundaryPoint> X8.442 Y23.068 Z3.39 </boundaryPoint>)
(<boundaryPoint> X3.468 Y23.704 Z3.39 </boundaryPoint>)
(<boundaryPoint> X-0.509 Y22.525 Z3.39 </boundaryPoint>)
(<boundaryPoint> X-2.824 Y21.132 Z3.39 </boundaryPoint>)
(<boundaryPoint> X-4.501 Y20.839 Z3.39 </boundaryPoint>)
(<boundaryPoint> X-7.151 Y21.366 Z3.39 </boundaryPoint>)
(<boundaryPoint> X-11.292 Y21.128 Z3.39 </boundaryPoint>)
(<boundaryPoint> X-15.757 Y18.845 Z3.39 </boundaryPoint>)
(<boundaryPoint> X-18.795 Y14.855 Z3.39 </boundaryPoint>)
(<boundaryPoint> X-19.762 Y10.822 Z3.39 </boundaryPoint>)
(<boundaryPoint> X-19.713 Y8.12 Z3.39 </boundaryPoint>)
(<boundaryPoint> X-20.297 Y6.522 Z3.39 </boundaryPoint>)
(<boundaryPoint> X-22.079 Y4.49 Z3.39 </boundaryPoint>)
(<boundaryPoint> X-23.944 Y0.785 Z3.39 </boundaryPoint>)
(<boundaryPoint> X-24.199 Y-4.223 Z3.39 </boundaryPoint>)
(<loop> outer )
G1 X23.04 Y2.02 Z3.39 F3300.0
M101
G1 X23.14 Y4.04 Z3.39 F2400.0
G1 X21.38 Y8.24 Z3.39 F2400.0
G1 X18.63 Y10.85 Z3.39 F2400.0
G1 X16.21 Y12.19 Z3.39 F2400.0
G1 X14.87 Y13.79 Z3.39 F2400.0
G1 X13.98 Y16.41 Z3.39 F2400.0
G1 X11.9 Y19.58 Z3.39 F2400.0
G1 X8.07 Y22.06 Z3.39 F2400.0
G1 X3.55 Y22.64 Z3.39 F2400.0
G1 X-0.08 Y21.56 Z3.39 F2400.0
G1 X-2.45 Y20.13 Z3.39 F2400.0
G1 X-4.51 Y19.77 Z3.39 F2400.0
G1 X-7.22 Y20.31 Z3.39 F2400.0
G1 X-11.01 Y20.09 Z3.39 F2400.0
G1 X-15.07 Y18.02 Z3.39 F2400.0
G1 X-17.83 Y14.4 Z3.39 F2400.0
G1 X-18.71 Y10.71 Z3.39 F2400.0
G1 X-18.66 Y7.94 Z3.39 F2400.0
G1 X-19.38 Y5.98 Z3.39 F2400.0
G1 X-21.2 Y3.9 Z3.39 F2400.0
G1 X-22.91 Y0.51 Z3.39 F2400.0
G1 X-23.14 Y-4.04 Z3.39 F2400.0
G1 X-21.38 Y-8.24 Z3.39 F2400.0
G1 X-18.63 Y-10.85 Z3.39 F2400.0
G1 X-16.21 Y-12.19 Z3.39 F2400.0
G1 X-14.87 Y-13.79 Z3.39 F2400.0
G1 X-13.98 Y-16.41 Z3.39 F2400.0
G1 X-11.9 Y-19.58 Z3.39 F2400.0
G1 X-8.07 Y-22.06 Z3.39 F2400.0
G1 X-3.55 Y-22.64 Z3.39 F2400.0
G1 X0.08 Y-21.56 Z3.39 F2400.0
G1 X2.45 Y-20.13 Z3.39 F2400.0
G1 X4.51 Y-19.77 Z3.39 F2400.0
G1 X7.22 Y-20.31 Z3.39 F2400.0
G1 X11.01 Y-20.09 Z3.39 F2400.0
G1 X15.07 Y-18.02 Z3.39 F2400.0
G1 X17.83 Y-14.4 Z3.39 F2400.0
G1 X18.71 Y-10.71 Z3.39 F2400.0
G1 X18.66 Y-7.94 Z3.39 F2400.0
G1 X19.38 Y-5.98 Z3.39 F2400.0
G1 X21.2 Y-3.9 Z3.39 F2400.0
G1 X22.91 Y-0.51 Z3.39 F2400.0
G1 X23.04 Y2.02 Z3.39 F2400.0
M103
(</loop>)
(<loop> outer )
G1 X23.46 Y2.0 Z3.39 F3300.0
M101
G1 X23.56 Y4.11 Z3.39 F2400.0
G1 X21.73 Y8.48 Z3.39 F2400.0
G1 X18.88 Y11.19 Z3.39 F2400.0
G1 X16.48 Y12.52 Z3.39 F2400.0
G1 X15.24 Y14.0 Z3.39 F2400.0
G1 X14.36 Y16.6 Z3.39 F2400.0
G1 X12.2 Y19.89 Z3.39 F2400.0
G1 X8.22 Y22.46 Z3.39 F2400.0
G1 X3.52 Y23.06 Z3.39 F2400.0
G1 X-0.25 Y21.95 Z3.39 F2400.0
G1 X-2.6 Y20.53 Z3.39 F2400.0
G1 X-4.51 Y20.2 Z3.39 F2400.0
G1 X-7.2 Y20.73 Z3.39 F2400.0
G1 X-11.12 Y20.51 Z3.39 F2400.0
G1 X-15.34 Y18.35 Z3.39 F2400.0
G1 X-18.21 Y14.58 Z3.39 F2400.0
G1 X-19.13 Y10.75 Z3.39 F2400.0
G1 X-19.08 Y8.01 Z3.39 F2400.0
G1 X-19.75 Y6.2 Z3.39 F2400.0
G1 X-21.55 Y4.14 Z3.39 F2400.0
G1 X-23.32 Y0.62 Z3.39 F2400.0
G1 X-23.56 Y-4.11 Z3.39 F2400.0
G1 X-21.73 Y-8.48 Z3.39 F2400.0
G1 X-18.88 Y-11.19 Z3.39 F2400.0
G1 X-16.48 Y-12.52 Z3.39 F2400.0
G1 X-15.24 Y-14.0 Z3.39 F2400.0
G1 X-14.36 Y-16.6 Z3.39 F2400.0
G1 X-12.2 Y-19.89 Z3.39 F2400.0
G1 X-8.22 Y-22.46 Z3.39 F2400.0
G1 X-3.52 Y-23.06 Z3.39 F2400.0
G1 X0.25 Y-21.95 Z3.39 F2400.0
G1 X2.6 Y-20.53 Z3.39 F2400.0
G1 X4.51 Y-20.2 Z3.39 F2400.0
G1 X7.2 Y-20.73 Z3.39 F2400.0
G1 X11.12 Y-20.51 Z3.39 F2400.0
G1 X15.34 Y-18.35 Z3.39 F2400.0
G1 X18.21 Y-14.58 Z3.39 F2400.0
G1 X19.13 Y-10.75 Z3.39 F2400.0
G1 X19.08 Y-8.01 Z3.39 F2400.0
G1 X19.75 Y-6.2 Z3.39 F2400.0
G1 X21.55 Y-4.14 Z3.39 F2400.0
G1 X23.32 Y-0.62 Z3.39 F2400.0
G1 X23.46 Y2.0 Z3.39 F2400.0
M103
(</loop>)
(<perimeter> outer )
M108 R2.052
G1 X23.88 Y1.98 Z3.39 F3300.0
M101
G1 X23.99 Y4.19 Z3.39 F1200.0
G1 X22.09 Y8.73 Z3.39 F1200.0
G1 X19.13 Y11.53 Z3.39 F1200.0
G1 X16.75 Y12.85 Z3.39 F1200.0
G1 X15.61 Y14.21 Z3.39 F1200.0
G1 X14.74 Y16.78 Z3.39 F1200.0
G1 X12.5 Y20.19 Z3.39 F1200.0
G1 X8.37 Y22.87 Z3.39 F1200.0
G1 X3.48 Y23.49 Z3.39 F1200.0
G1 X-0.42 Y22.33 Z3.39 F1200.0
G1 X-2.75 Y20.93 Z3.39 F1200.0
G1 X-4.5 Y20.63 Z3.39 F1200.0
G1 X-7.17 Y21.16 Z3.39 F1200.0
G1 X-11.24 Y20.92 Z3.39 F1200.0
G1 X-15.62 Y18.68 Z3.39 F1200.0
G1 X-18.6 Y14.76 Z3.39 F1200.0
G1 X-19.55 Y10.8 Z3.39 F1200.0
G1 X-19.5 Y8.09 Z3.39 F1200.0
G1 X-20.11 Y6.41 Z3.39 F1200.0
G1 X-21.9 Y4.37 Z3.39 F1200.0
G1 X-23.74 Y0.73 Z3.39 F1200.0
G1 X-23.99 Y-4.19 Z3.39 F1200.0
G1 X-22.09 Y-8.73 Z3.39 F1200.0
G1 X-19.13 Y-11.53 Z3.39 F1200.0
G1 X-16.75 Y-12.85 Z3.39 F1200.0
G1 X-15.61 Y-14.21 Z3.39 F1200.0
G1 X-14.74 Y-16.78 Z3.39 F1200.0
G1 X-12.5 Y-20.19 Z3.39 F1200.0
G1 X-8.37 Y-22.87 Z3.39 F1200.0
G1 X-3.48 Y-23.49 Z3.39 F1200.0
G1 X0.42 Y-22.33 Z3.39 F1200.0
G1 X2.75 Y-20.93 Z3.39 F1200.0
G1 X4.5 Y-20.63 Z3.39 F1200.0
G1 X7.17 Y-21.16 Z3.39 F1200.0
G1 X11.24 Y-20.92 Z3.39 F1200.0
G1 X15.62 Y-18.68 Z3.39 F1200.0
G1 X18.6 Y-14.76 Z3.39 F1200.0
G1 X19.55 Y-10.8 Z3.39 F1200.0
G1 X19.5 Y-8.09 Z3.39 F1200.0
G1 X20.11 Y-6.41 Z3.39 F1200.0
G1 X21.9 Y-4.37 Z3.39 F1200.0
G1 X23.74 Y-0.73 Z3.39 F1200.0
G1 X23.88 Y1.98 Z3.39 F1200.0
M103
(</perimeter>)
(</boundaryPerimeter>)
(</surroundingLoop>)
(</layer>)
M108 R4.103
M73 P12 (display progress)
(<layer> 3.69 )
(<surroundingLoop>)
(<boundaryPerimeter>)
(<boundaryPoint> X-21.977 Y-9.546 Z3.69 </boundaryPoint>)
(<boundaryPoint> X-18.879 Y-12.305 Z3.69 </boundaryPoint>)
(<boundaryPoint> X-16.474 Y-13.538 Z3.69 </boundaryPoint>)
(<boundaryPoint> X-15.342 Y-14.809 Z3.69 </boundaryPoint>)
(<boundaryPoint> X-14.393 Y-17.34 Z3.69 </boundaryPoint>)
(<boundaryPoint> X-12.008 Y-20.734 Z3.69 </boundaryPoint>)
(<boundaryPoint> X-7.714 Y-23.326 Z3.69 </boundaryPoint>)
(<boundaryPoint> X-2.722 Y-23.805 Z3.69 </boundaryPoint>)
(<boundaryPoint> X1.217 Y-22.502 Z3.69 </boundaryPoint>)
(<boundaryPoint> X3.487 Y-21.036 Z3.69 </boundaryPoint>)
(<boundaryPoint> X5.154 Y-20.691 Z3.69 </boundaryPoint>)
(<boundaryPoint> X7.82 Y-21.135 Z3.69 </boundaryPoint>)
(<boundaryPoint> X11.952 Y-20.767 Z3.69 </boundaryPoint>)
(<boundaryPoint> X16.344 Y-18.344 Z3.69 </boundaryPoint>)
(<boundaryPoint> X19.255 Y-14.26 Z3.69 </boundaryPoint>)
(<boundaryPoint> X20.096 Y-10.197 Z3.69 </boundaryPoint>)
(<boundaryPoint> X19.961 Y-7.498 Z3.69 </boundaryPoint>)
(<boundaryPoint> X20.496 Y-5.882 Z3.69 </boundaryPoint>)
(<boundaryPoint> X22.213 Y-3.795 Z3.69 </boundaryPoint>)
(<boundaryPoint> X23.961 Y-0.032 Z3.69 </boundaryPoint>)
(<boundaryPoint> X24.058 Y4.982 Z3.69 </boundaryPoint>)
(<boundaryPoint> X21.977 Y9.546 Z3.69 </boundaryPoint>)
(<boundaryPoint> X18.879 Y12.305 Z3.69 </boundaryPoint>)
(<boundaryPoint> X16.474 Y13.538 Z3.69 </boundaryPoint>)
(<boundaryPoint> X15.342 Y14.809 Z3.69 </boundaryPoint>)
(<boundaryPoint> X14.393 Y17.34 Z3.69 </boundaryPoint>)
(<boundaryPoint> X12.008 Y20.734 Z3.69 </boundaryPoint>)
(<boundaryPoint> X7.714 Y23.326 Z3.69 </boundaryPoint>)
(<boundaryPoint> X2.722 Y23.805 Z3.69 </boundaryPoint>)
(<boundaryPoint> X-1.217 Y22.502 Z3.69 </boundaryPoint>)
(<boundaryPoint> X-3.487 Y21.036 Z3.69 </boundaryPoint>)
(<boundaryPoint> X-5.154 Y20.691 Z3.69 </boundaryPoint>)
(<boundaryPoint> X-7.82 Y21.135 Z3.69 </boundaryPoint>)
(<boundaryPoint> X-11.952 Y20.767 Z3.69 </boundaryPoint>)
(<boundaryPoint> X-16.344 Y18.344 Z3.69 </boundaryPoint>)
(<boundaryPoint> X-19.255 Y14.26 Z3.69 </boundaryPoint>)
(<boundaryPoint> X-20.096 Y10.197 Z3.69 </boundaryPoint>)
(<boundaryPoint> X-19.961 Y7.498 Z3.69 </boundaryPoint>)
(<boundaryPoint> X-20.496 Y5.882 Z3.69 </boundaryPoint>)
(<boundaryPoint> X-22.213 Y3.795 Z3.69 </boundaryPoint>)
(<boundaryPoint> X-23.961 Y0.032 Z3.69 </boundaryPoint>)
(<boundaryPoint> X-24.058 Y-4.982 Z3.69 </boundaryPoint>)
(<loop> outer )
G1 X22.95 Y2.0 Z3.69 F3300.0
M101
G1 X23.01 Y4.76 Z3.69 F2400.0
G1 X21.12 Y8.91 Z3.69 F2400.0
G1 X18.28 Y11.43 Z3.69 F2400.0
G1 X15.82 Y12.7 Z3.69 F2400.0
G1 X14.43 Y14.26 Z3.69 F2400.0
G1 X13.46 Y16.85 Z3.69 F2400.0
G1 X11.28 Y19.95 Z3.69 F2400.0
G1 X7.38 Y22.31 Z3.69 F2400.0
G1 X2.84 Y22.74 Z3.69 F2400.0
G1 X-0.76 Y21.55 Z3.69 F2400.0
G1 X-3.08 Y20.05 Z3.69 F2400.0
G1 X-5.13 Y19.63 Z3.69 F2400.0
G1 X-7.86 Y20.08 Z3.69 F2400.0
G1 X-11.64 Y19.74 Z3.69 F2400.0
G1 X-15.63 Y17.54 Z3.69 F2400.0
G1 X-18.27 Y13.83 Z3.69 F2400.0
G1 X-19.04 Y10.12 Z3.69 F2400.0
G1 X-18.91 Y7.36 Z3.69 F2400.0
G1 X-19.56 Y5.37 Z3.69 F2400.0
G1 X-21.32 Y3.23 Z3.69 F2400.0
G1 X-22.92 Y-0.21 Z3.69 F2400.0
G1 X-23.01 Y-4.76 Z3.69 F2400.0
G1 X-21.12 Y-8.91 Z3.69 F2400.0
G1 X-18.28 Y-11.43 Z3.69 F2400.0
G1 X-15.82 Y-12.7 Z3.69 F2400.0
G1 X-14.43 Y-14.26 Z3.69 F2400.0
G1 X-13.46 Y-16.85 Z3.69 F2400.0
G1 X-11.28 Y-19.95 Z3.69 F2400.0
G1 X-7.38 Y-22.31 Z3.69 F2400.0
G1 X-2.84 Y-22.74 Z3.69 F2400.0
G1 X0.76 Y-21.55 Z3.69 F2400.0
G1 X3.08 Y-20.05 Z3.69 F2400.0
G1 X5.13 Y-19.63 Z3.69 F2400.0
G1 X7.86 Y-20.08 Z3.69 F2400.0
G1 X11.64 Y-19.74 Z3.69 F2400.0
G1 X15.63 Y-17.54 Z3.69 F2400.0
G1 X18.27 Y-13.83 Z3.69 F2400.0
G1 X19.04 Y-10.12 Z3.69 F2400.0
G1 X18.91 Y-7.36 Z3.69 F2400.0
G1 X19.56 Y-5.37 Z3.69 F2400.0
G1 X21.32 Y-3.23 Z3.69 F2400.0
G1 X22.92 Y0.21 Z3.69 F2400.0
G1 X22.95 Y2.0 Z3.69 F2400.0
M103
(</loop>)
(<loop> outer )
G1 X23.37 Y1.99 Z3.69 F3300.0
M101
G1 X23.43 Y4.85 Z3.69 F2400.0
G1 X21.46 Y9.16 Z3.69 F2400.0
G1 X18.52 Y11.78 Z3.69 F2400.0
G1 X16.08 Y13.03 Z3.69 F2400.0
G1 X14.79 Y14.48 Z3.69 F2400.0
G1 X13.83 Y17.04 Z3.69 F2400.0
G1 X11.57 Y20.26 Z3.69 F2400.0
G1 X7.51 Y22.71 Z3.69 F2400.0
G1 X2.79 Y23.17 Z3.69 F2400.0
G1 X-0.94 Y21.93 Z3.69 F2400.0
G1 X-3.25 Y20.44 Z3.69 F2400.0
G1 X-5.14 Y20.05 Z3.69 F2400.0
G1 X-7.84 Y20.5 Z3.69 F2400.0
G1 X-11.76 Y20.15 Z3.69 F2400.0
G1 X-15.91 Y17.86 Z3.69 F2400.0
G1 X-18.67 Y14.0 Z3.69 F2400.0
G1 X-19.46 Y10.15 Z3.69 F2400.0
G1 X-19.33 Y7.41 Z3.69 F2400.0
G1 X-19.94 Y5.57 Z3.69 F2400.0
G1 X-21.68 Y3.46 Z3.69 F2400.0
G1 X-23.34 Y-0.11 Z3.69 F2400.0
G1 X-23.43 Y-4.85 Z3.69 F2400.0
G1 X-21.46 Y-9.16 Z3.69 F2400.0
G1 X-18.52 Y-11.78 Z3.69 F2400.0
G1 X-16.08 Y-13.03 Z3.69 F2400.0
G1 X-14.79 Y-14.48 Z3.69 F2400.0
G1 X-13.83 Y-17.04 Z3.69 F2400.0
G1 X-11.57 Y-20.26 Z3.69 F2400.0
G1 X-7.51 Y-22.71 Z3.69 F2400.0
G1 X-2.79 Y-23.17 Z3.69 F2400.0
G1 X0.94 Y-21.93 Z3.69 F2400.0
G1 X3.25 Y-20.44 Z3.69 F2400.0
G1 X5.14 Y-20.05 Z3.69 F2400.0
G1 X7.84 Y-20.5 Z3.69 F2400.0
G1 X11.76 Y-20.15 Z3.69 F2400.0
G1 X15.91 Y-17.86 Z3.69 F2400.0
G1 X18.67 Y-14.0 Z3.69 F2400.0
G1 X19.46 Y-10.15 Z3.69 F2400.0
G1 X19.33 Y-7.41 Z3.69 F2400.0
G1 X19.94 Y-5.57 Z3.69 F2400.0
G1 X21.68 Y-3.46 Z3.69 F2400.0
G1 X23.34 Y0.11 Z3.69 F2400.0
G1 X23.37 Y1.99 Z3.69 F2400.0
M103
(</loop>)
(<perimeter> outer )
M108 R2.052
G1 X23.79 Y1.98 Z3.69 F3300.0
M101
G1 X23.85 Y4.94 Z3.69 F1200.0
G1 X21.8 Y9.42 Z3.69 F1200.0
G1 X18.76 Y12.13 Z3.69 F1200.0
G1 X16.34 Y13.37 Z3.69 F1200.0
G1 X15.16 Y14.7 Z3.69 F1200.0
G1 X14.21 Y17.24 Z3.69 F1200.0
G1 X11.86 Y20.58 Z3.69 F1200.0
G1 X7.65 Y23.12 Z3.69 F1200.0
G1 X2.75 Y23.59 Z3.69 F1200.0
G1 X-1.13 Y22.31 Z3.69 F1200.0
G1 X-3.41 Y20.84 Z3.69 F1200.0
G1 X-5.15 Y20.48 Z3.69 F1200.0
G1 X-7.83 Y20.92 Z3.69 F1200.0
G1 X-11.89 Y20.56 Z3.69 F1200.0
G1 X-16.2 Y18.18 Z3.69 F1200.0
G1 X-19.06 Y14.17 Z3.69 F1200.0
G1 X-19.89 Y10.18 Z3.69 F1200.0
G1 X-19.75 Y7.47 Z3.69 F1200.0
G1 X-20.31 Y5.78 Z3.69 F1200.0
G1 X-22.03 Y3.68 Z3.69 F1200.0
G1 X-23.75 Y-0.02 Z3.69 F1200.0
G1 X-23.85 Y-4.94 Z3.69 F1200.0
G1 X-21.8 Y-9.42 Z3.69 F1200.0
G1 X-18.76 Y-12.13 Z3.69 F1200.0
G1 X-16.34 Y-13.37 Z3.69 F1200.0
G1 X-15.16 Y-14.7 Z3.69 F1200.0
G1 X-14.21 Y-17.24 Z3.69 F1200.0
G1 X-11.86 Y-20.58 Z3.69 F1200.0
G1 X-7.65 Y-23.12 Z3.69 F1200.0
G1 X-2.75 Y-23.59 Z3.69 F1200.0
G1 X1.13 Y-22.31 Z3.69 F1200.0
G1 X3.41 Y-20.84 Z3.69 F1200.0
G1 X5.15 Y-20.48 Z3.69 F1200.0
G1 X7.83 Y-20.92 Z3.69 F1200.0
G1 X11.89 Y-20.56 Z3.69 F1200.0
G1 X16.2 Y-18.18 Z3.69 F1200.0
G1 X19.06 Y-14.17 Z3.69 F1200.0
G1 X19.89 Y-10.18 Z3.69 F1200.0
G1 X19.75 Y-7.47 Z3.69 F1200.0
G1 X20.31 Y-5.78 Z3.69 F1200.0
G1 X22.03 Y-3.68 Z3.69 F1200.0
G1 X23.75 Y0.02 Z3.69 F1200.0
G1 X23.79 Y1.98 Z3.69 F1200.0
M103
(</perimeter>)
(</boundaryPerimeter>)
(</surroundingLoop>)
(</layer>)
M108 R4.103
M73 P13 (display progress)
(<layer> 3.99 )
(<surroundingLoop>)
(<boundaryPerimeter>)
(<boundaryPoint> X-21.662 Y-10.229 Z3.99 </boundaryPoint>)
(<boundaryPoint> X-20.035 Y-11.517 Z3.99 </boundaryPoint>)
(<boundaryPoint> X-18.479 Y-12.889 Z3.99 </boundaryPoint>)
(<boundaryPoint> X-16.037 Y-14.046 Z3.99 </boundaryPoint>)
(<boundaryPoint> X-14.866 Y-15.28 Z3.99 </boundaryPoint>)
(<boundaryPoint> X-13.838 Y-17.779 Z3.99 </boundaryPoint>)
(<boundaryPoint> X-12.55 Y-19.405 Z3.99 </boundaryPoint>)
(<boundaryPoint> X-11.349 Y-21.097 Z3.99 </boundaryPoint>)
(<boundaryPoint> X-9.13 Y-22.267 Z3.99 </boundaryPoint>)
(<boundaryPoint> X-6.976 Y-23.551 Z3.99 </boundaryPoint>)
(<boundaryPoint> X-4.47 Y-23.647 Z3.99 </boundaryPoint>)
(<boundaryPoint> X-1.972 Y-23.874 Z3.99 </boundaryPoint>)
(<boundaryPoint> X-0.043 Y-23.11 Z3.99 </boundaryPoint>)
(<boundaryPoint> X1.923 Y-22.448 Z3.99 </boundaryPoint>)
(<boundaryPoint> X4.146 Y-20.911 Z3.99 </boundaryPoint>)
(<boundaryPoint> X5.8 Y-20.514 Z3.99 </boundaryPoint>)
(<boundaryPoint> X8.478 Y-20.874 Z3.99 </boundaryPoint>)
(<boundaryPoint> X10.53 Y-20.571 Z3.99 </boundaryPoint>)
(<boundaryPoint> X12.596 Y-20.377 Z3.99 </boundaryPoint>)
(<boundaryPoint> X14.718 Y-19.04 Z3.99 </boundaryPoint>)
(<boundaryPoint> X16.908 Y-17.817 Z3.99 </boundaryPoint>)
(<boundaryPoint> X18.244 Y-15.695 Z3.99 </boundaryPoint>)
(<boundaryPoint> X19.689 Y-13.645 Z3.99 </boundaryPoint>)
(<boundaryPoint> X19.992 Y-11.593 Z3.99 </boundaryPoint>)
(<boundaryPoint> X20.402 Y-9.559 Z3.99 </boundaryPoint>)
(<boundaryPoint> X20.183 Y-6.866 Z3.99 </boundaryPoint>)
(<boundaryPoint> X20.666 Y-5.234 Z3.99 </boundaryPoint>)
(<boundaryPoint> X22.316 Y-3.095 Z3.99 </boundaryPoint>)
(<boundaryPoint> X23.08 Y-1.166 Z3.99 </boundaryPoint>)
(<boundaryPoint> X23.944 Y0.72 Z3.99 </boundaryPoint>)
(<boundaryPoint> X23.849 Y3.226 Z3.99 </boundaryPoint>)
(<boundaryPoint> X23.884 Y5.734 Z3.99 </boundaryPoint>)
(<boundaryPoint> X22.714 Y7.952 Z3.99 </boundaryPoint>)
(<boundaryPoint> X21.662 Y10.229 Z3.99 </boundaryPoint>)
(<boundaryPoint> X20.035 Y11.517 Z3.99 </boundaryPoint>)
(<boundaryPoint> X18.479 Y12.889 Z3.99 </boundaryPoint>)
(<boundaryPoint> X16.037 Y14.046 Z3.99 </boundaryPoint>)
(<boundaryPoint> X14.866 Y15.28 Z3.99 </boundaryPoint>)
(<boundaryPoint> X13.838 Y17.779 Z3.99 </boundaryPoint>)
(<boundaryPoint> X12.55 Y19.405 Z3.99 </boundaryPoint>)
(<boundaryPoint> X11.349 Y21.097 Z3.99 </boundaryPoint>)
(<boundaryPoint> X9.13 Y22.267 Z3.99 </boundaryPoint>)
(<boundaryPoint> X6.976 Y23.551 Z3.99 </boundaryPoint>)
(<boundaryPoint> X4.47 Y23.647 Z3.99 </boundaryPoint>)
(<boundaryPoint> X1.972 Y23.874 Z3.99 </boundaryPoint>)
(<boundaryPoint> X0.043 Y23.11 Z3.99 </boundaryPoint>)
(<boundaryPoint> X-1.923 Y22.448 Z3.99 </boundaryPoint>)
(<boundaryPoint> X-4.146 Y20.911 Z3.99 </boundaryPoint>)
(<boundaryPoint> X-5.8 Y20.514 Z3.99 </boundaryPoint>)
(<boundaryPoint> X-8.478 Y20.874 Z3.99 </boundaryPoint>)
(<boundaryPoint> X-10.53 Y20.571 Z3.99 </boundaryPoint>)
(<boundaryPoint> X-12.596 Y20.377 Z3.99 </boundaryPoint>)
(<boundaryPoint> X-14.718 Y19.04 Z3.99 </boundaryPoint>)
(<boundaryPoint> X-16.908 Y17.817 Z3.99 </boundaryPoint>)
(<boundaryPoint> X-18.244 Y15.695 Z3.99 </boundaryPoint>)
(<boundaryPoint> X-19.689 Y13.645 Z3.99 </boundaryPoint>)
(<boundaryPoint> X-19.992 Y11.593 Z3.99 </boundaryPoint>)
(<boundaryPoint> X-20.402 Y9.559 Z3.99 </boundaryPoint>)
(<boundaryPoint> X-20.183 Y6.866 Z3.99 </boundaryPoint>)
(<boundaryPoint> X-20.666 Y5.234 Z3.99 </boundaryPoint>)
(<boundaryPoint> X-22.316 Y3.095 Z3.99 </boundaryPoint>)
(<boundaryPoint> X-23.08 Y1.166 Z3.99 </boundaryPoint>)
(<boundaryPoint> X-23.944 Y-0.72 Z3.99 </boundaryPoint>)
(<boundaryPoint> X-23.849 Y-3.226 Z3.99 </boundaryPoint>)
(<boundaryPoint> X-23.884 Y-5.734 Z3.99 </boundaryPoint>)
(<boundaryPoint> X-22.714 Y-7.952 Z3.99 </boundaryPoint>)
(<loop> outer )
G1 X22.88 Y1.97 Z3.99 F3300.0
M101
G1 X22.84 Y5.48 Z3.99 F2400.0
G1 X20.82 Y9.56 Z3.99 F2400.0
G1 X17.9 Y12.0 Z3.99 F2400.0
G1 X15.41 Y13.18 Z3.99 F2400.0
G1 X13.97 Y14.7 Z3.99 F2400.0
G1 X12.92 Y17.25 Z3.99 F2400.0
G1 X10.64 Y20.29 Z3.99 F2400.0
G1 X6.67 Y22.52 Z3.99 F2400.0
G1 X2.13 Y22.81 Z3.99 F2400.0
G1 X-1.44 Y21.51 Z3.99 F2400.0
G1 X-3.71 Y19.94 Z3.99 F2400.0
G1 X-5.75 Y19.45 Z3.99 F2400.0
G1 X-8.48 Y19.82 Z3.99 F2400.0
G1 X-12.25 Y19.36 Z3.99 F2400.0
G1 X-16.17 Y17.04 Z3.99 F2400.0
G1 X-18.69 Y13.25 Z3.99 F2400.0
G1 X-19.35 Y9.5 Z3.99 F2400.0
G1 X-19.12 Y6.76 Z3.99 F2400.0
G1 X-19.72 Y4.75 Z3.99 F2400.0
G1 X-21.4 Y2.57 Z3.99 F2400.0
G1 X-22.89 Y-0.93 Z3.99 F2400.0
G1 X-22.84 Y-5.48 Z3.99 F2400.0
G1 X-20.82 Y-9.56 Z3.99 F2400.0
G1 X-17.9 Y-12.0 Z3.99 F2400.0
G1 X-15.41 Y-13.18 Z3.99 F2400.0
G1 X-13.97 Y-14.7 Z3.99 F2400.0
G1 X-12.92 Y-17.25 Z3.99 F2400.0
G1 X-10.64 Y-20.29 Z3.99 F2400.0
G1 X-6.67 Y-22.52 Z3.99 F2400.0
G1 X-2.13 Y-22.81 Z3.99 F2400.0
G1 X1.44 Y-21.51 Z3.99 F2400.0
G1 X3.71 Y-19.94 Z3.99 F2400.0
G1 X5.75 Y-19.45 Z3.99 F2400.0
G1 X8.48 Y-19.82 Z3.99 F2400.0
G1 X12.25 Y-19.36 Z3.99 F2400.0
G1 X16.17 Y-17.04 Z3.99 F2400.0
G1 X18.69 Y-13.25 Z3.99 F2400.0
G1 X19.35 Y-9.5 Z3.99 F2400.0
G1 X19.12 Y-6.76 Z3.99 F2400.0
G1 X19.72 Y-4.75 Z3.99 F2400.0
G1 X21.4 Y-2.57 Z3.99 F2400.0
G1 X22.89 Y0.93 Z3.99 F2400.0
G1 X22.88 Y1.97 Z3.99 F2400.0
M103
(</loop>)
(<loop> outer )
G1 X23.3 Y1.97 Z3.99 F3300.0
M101
G1 X23.25 Y5.58 Z3.99 F2400.0
G1 X21.15 Y9.83 Z3.99 F2400.0
G1 X18.13 Y12.36 Z3.99 F2400.0
G1 X15.66 Y13.53 Z3.99 F2400.0
G1 X14.33 Y14.93 Z3.99 F2400.0
G1 X13.29 Y17.46 Z3.99 F2400.0
G1 X10.92 Y20.61 Z3.99 F2400.0
G1 X6.79 Y22.93 Z3.99 F2400.0
G1 X2.06 Y23.23 Z3.99 F2400.0
G1 X-1.64 Y21.88 Z3.99 F2400.0
G1 X-3.88 Y20.33 Z3.99 F2400.0
G1 X-5.77 Y19.88 Z3.99 F2400.0
G1 X-8.47 Y20.24 Z3.99 F2400.0
G1 X-12.39 Y19.77 Z3.99 F2400.0
G1 X-16.46 Y17.35 Z3.99 F2400.0
G1 X-19.09 Y13.4 Z3.99 F2400.0
G1 X-19.77 Y9.52 Z3.99 F2400.0
G1 X-19.55 Y6.8 Z3.99 F2400.0
G1 X-20.1 Y4.94 Z3.99 F2400.0
G1 X-21.76 Y2.78 Z3.99 F2400.0
G1 X-23.31 Y-0.85 Z3.99 F2400.0
G1 X-23.25 Y-5.58 Z3.99 F2400.0
G1 X-21.15 Y-9.83 Z3.99 F2400.0
G1 X-18.13 Y-12.36 Z3.99 F2400.0
G1 X-15.66 Y-13.53 Z3.99 F2400.0
G1 X-14.33 Y-14.93 Z3.99 F2400.0
G1 X-13.29 Y-17.46 Z3.99 F2400.0
G1 X-10.92 Y-20.61 Z3.99 F2400.0
G1 X-6.79 Y-22.93 Z3.99 F2400.0
G1 X-2.06 Y-23.23 Z3.99 F2400.0
G1 X1.64 Y-21.88 Z3.99 F2400.0
G1 X3.88 Y-20.33 Z3.99 F2400.0
G1 X5.77 Y-19.88 Z3.99 F2400.0
G1 X8.47 Y-20.24 Z3.99 F2400.0
G1 X12.39 Y-19.77 Z3.99 F2400.0
G1 X16.46 Y-17.35 Z3.99 F2400.0
G1 X19.09 Y-13.4 Z3.99 F2400.0
G1 X19.77 Y-9.52 Z3.99 F2400.0
G1 X19.55 Y-6.8 Z3.99 F2400.0
G1 X20.1 Y-4.94 Z3.99 F2400.0
G1 X21.76 Y-2.78 Z3.99 F2400.0
G1 X23.31 Y0.85 Z3.99 F2400.0
G1 X23.3 Y1.97 Z3.99 F2400.0
M103
(</loop>)
(<perimeter> outer )
M108 R2.052
G1 X23.69 Y1.99 Z3.99 F3300.0
M101
G1 X23.64 Y3.22 Z3.99 F1200.0
G1 X23.67 Y5.68 Z3.99 F1200.0
G1 X22.53 Y7.86 Z3.99 F1200.0
G1 X21.49 Y10.1 Z3.99 F1200.0
G1 X19.9 Y11.36 Z3.99 F1200.0
G1 X18.36 Y12.71 Z3.99 F1200.0
G1 X15.91 Y13.87 Z3.99 F1200.0
G1 X14.69 Y15.16 Z3.99 F1200.0
G1 X13.65 Y17.67 Z3.99 F1200.0
G1 X12.38 Y19.28 Z3.99 F1200.0
G1 X11.21 Y20.93 Z3.99 F1200.0
G1 X9.03 Y22.08 Z3.99 F1200.0
G1 X6.92 Y23.34 Z3.99 F1200.0
G1 X4.46 Y23.44 Z3.99 F1200.0
G1 X2.0 Y23.66 Z3.99 F1200.0
G1 X0.12 Y22.91 Z3.99 F1200.0
G1 X-1.83 Y22.26 Z3.99 F1200.0
G1 X-4.06 Y20.72 Z3.99 F1200.0
G1 X-5.79 Y20.3 Z3.99 F1200.0
G1 X-8.48 Y20.66 Z3.99 F1200.0
G1 X-10.51 Y20.36 Z3.99 F1200.0
G1 X-12.53 Y20.17 Z3.99 F1200.0
G1 X-14.61 Y18.86 Z3.99 F1200.0
G1 X-16.76 Y17.66 Z3.99 F1200.0
G1 X-18.07 Y15.58 Z3.99 F1200.0
G1 X-19.49 Y13.56 Z3.99 F1200.0
G1 X-19.79 Y11.56 Z3.99 F1200.0
G1 X-20.19 Y9.55 Z3.99 F1200.0
G1 X-19.97 Y6.84 Z3.99 F1200.0
G1 X-20.48 Y5.14 Z3.99 F1200.0
G1 X-22.13 Y2.99 Z3.99 F1200.0
G1 X-22.89 Y1.08 Z3.99 F1200.0
G1 X-23.73 Y-0.76 Z3.99 F1200.0
G1 X-23.64 Y-3.22 Z3.99 F1200.0
G1 X-23.67 Y-5.68 Z3.99 F1200.0
G1 X-22.53 Y-7.86 Z3.99 F1200.0
G1 X-21.49 Y-10.1 Z3.99 F1200.0
G1 X-19.9 Y-11.36 Z3.99 F1200.0
G1 X-18.36 Y-12.71 Z3.99 F1200.0
G1 X-15.91 Y-13.87 Z3.99 F1200.0
G1 X-14.69 Y-15.16 Z3.99 F1200.0
G1 X-13.65 Y-17.67 Z3.99 F1200.0
G1 X-12.38 Y-19.28 Z3.99 F1200.0
G1 X-11.21 Y-20.93 Z3.99 F1200.0
G1 X-9.03 Y-22.08 Z3.99 F1200.0
G1 X-6.92 Y-23.34 Z3.99 F1200.0
G1 X-4.46 Y-23.44 Z3.99 F1200.0
G1 X-2.0 Y-23.66 Z3.99 F1200.0
G1 X-0.12 Y-22.91 Z3.99 F1200.0
G1 X1.83 Y-22.26 Z3.99 F1200.0
G1 X4.06 Y-20.72 Z3.99 F1200.0
G1 X5.79 Y-20.3 Z3.99 F1200.0
G1 X8.48 Y-20.66 Z3.99 F1200.0
G1 X10.51 Y-20.36 Z3.99 F1200.0
G1 X12.53 Y-20.17 Z3.99 F1200.0
G1 X14.61 Y-18.86 Z3.99 F1200.0
G1 X16.76 Y-17.66 Z3.99 F1200.0
G1 X18.07 Y-15.58 Z3.99 F1200.0
G1 X19.49 Y-13.56 Z3.99 F1200.0
G1 X19.79 Y-11.56 Z3.99 F1200.0
G1 X20.19 Y-9.55 Z3.99 F1200.0
G1 X19.97 Y-6.84 Z3.99 F1200.0
G1 X20.48 Y-5.14 Z3.99 F1200.0
G1 X22.13 Y-2.99 Z3.99 F1200.0
G1 X22.89 Y-1.08 Z3.99 F1200.0
G1 X23.73 Y0.76 Z3.99 F1200.0
G1 X23.71 Y1.43 Z3.99 F1200.0
M108 R40.0
M102
G1 X23.69 Y1.99 Z3.99 F1200.0
M108 R2.052
M103
(</perimeter>)
(</boundaryPerimeter>)
M108 R4.103
G1 X-20.23 Y0.88 Z3.99 F3300.0
M108 R40.0
M101
G1 X-21.83 Y0.84 Z3.99 F3300.0
M108 R4.103
G1 X22.54 Y0.84 Z3.99 F2400.0
G1 X22.36 Y0.42 Z3.99 F2400.0
G1 X-22.01 Y0.42 Z3.99 F2400.0
G1 X-22.18 Y0.0 Z3.99 F2400.0
G1 X22.18 Y-0.0 Z3.99 F2400.0
G1 X22.01 Y-0.42 Z3.99 F2400.0
G1 X-22.36 Y-0.42 Z3.99 F2400.0
G1 X-22.54 Y-0.84 Z3.99 F2400.0
G1 X21.83 Y-0.84 Z3.99 F2400.0
M103
G1 X21.65 Y-1.26 Z3.99 F3300.0
M101
G1 X-22.6 Y-1.26 Z3.99 F2400.0
G1 X-22.6 Y-1.68 Z3.99 F2400.0
G1 X21.47 Y-1.68 Z3.99 F2400.0
G1 X21.29 Y-2.09 Z3.99 F2400.0
G1 X-22.59 Y-2.09 Z3.99 F2400.0
G1 X-22.59 Y-2.51 Z3.99 F2400.0
G1 X21.08 Y-2.51 Z3.99 F2400.0
G1 X20.76 Y-2.93 Z3.99 F2400.0
G1 X-22.58 Y-2.93 Z3.99 F2400.0
G1 X-22.58 Y-3.35 Z3.99 F2400.0
G1 X20.44 Y-3.35 Z3.99 F2400.0
G1 X20.11 Y-3.77 Z3.99 F2400.0
G1 X-22.57 Y-3.77 Z3.99 F2400.0
G1 X-22.57 Y-4.19 Z3.99 F2400.0
G1 X19.79 Y-4.19 Z3.99 F2400.0
G1 X19.47 Y-4.61 Z3.99 F2400.0
G1 X-22.56 Y-4.61 Z3.99 F2400.0
G1 X-22.56 Y-5.03 Z3.99 F2400.0
G1 X19.34 Y-5.03 Z3.99 F2400.0
M103
G1 X19.21 Y-5.45 Z3.99 F3300.0
M101
G1 X-22.54 Y-5.45 Z3.99 F2400.0
G1 X-22.33 Y-5.86 Z3.99 F2400.0
G1 X19.09 Y-5.86 Z3.99 F2400.0
M103
G1 X18.97 Y-6.28 Z3.99 F3300.0
M101
G1 X-22.12 Y-6.28 Z3.99 F2400.0
G1 X-21.91 Y-6.7 Z3.99 F2400.0
G1 X18.84 Y-6.7 Z3.99 F2400.0
M103
G1 X18.87 Y-7.12 Z3.99 F3300.0
M101
G1 X-21.71 Y-7.12 Z3.99 F2400.0
G1 X-21.5 Y-7.54 Z3.99 F2400.0
G1 X18.9 Y-7.54 Z3.99 F2400.0
G1 X18.93 Y-7.96 Z3.99 F2400.0
G1 X-21.29 Y-7.96 Z3.99 F2400.0
G1 X-21.09 Y-8.38 Z3.99 F2400.0
G1 X18.97 Y-8.38 Z3.99 F2400.0
M103
G1 X19.0 Y-8.8 Z3.99 F3300.0
M101
G1 X-20.88 Y-8.8 Z3.99 F2400.0
G1 X-20.67 Y-9.21 Z3.99 F2400.0
G1 X19.04 Y-9.21 Z3.99 F2400.0
G1 X19.03 Y-9.63 Z3.99 F2400.0
G1 X-20.29 Y-9.63 Z3.99 F2400.0
G1 X-19.79 Y-10.05 Z3.99 F2400.0
G1 X18.96 Y-10.05 Z3.99 F2400.0
G1 X18.89 Y-10.47 Z3.99 F2400.0
G1 X-19.29 Y-10.47 Z3.99 F2400.0
G1 X-18.79 Y-10.89 Z3.99 F2400.0
G1 X18.82 Y-10.89 Z3.99 F2400.0
M103
G1 X18.74 Y-11.31 Z3.99 F3300.0
M101
G1 X-18.29 Y-11.31 Z3.99 F2400.0
